PierreExeter/WidowX-reacher/tests/Check_env_consistency/logs/10_action3_-0.025.csv
episode,timestep,action_1,action_2,action_3,action_4,action_5,action_6,current_joint_pos_1,current_joint_pos_2,current_joint_pos_3,current_joint_pos_4,current_joint_pos_5,current_joint_pos_6,new_joint_pos_1,new_joint_pos_2,new_joint_pos_3,new_joint_pos_4,new_joint_pos_5,new_joint_pos_6,joint_vel_1,joint_vel_2,joint_vel_3,joint_vel_4,joint_vel_5,joint_vel_6,joint1_min,joint1_max,joint2_min,joint2_max,joint3_min,joint3_max,joint4_min,joint4_max,joint5_min,joint5_max,joint6_min,joint6_max,action_low1,action_low2,action_low3,action_low4,action_low5,action_low6,action_high1,action_high2,action_high3,action_high4,action_high5,action_high6,reward,return,dist,target_x,target_y,target_z,tip_x,tip_y,tip_z,done,est_vel
0.0,0.0,0.0,0.0,-0.025,0.0,0.0,0.0,0.015339807607233524,-1.293145775794983,1.0109710693359375,-1.3537670373916626,-0.0715857669711113,0.0,0.015339807607233524,-1.293145775794983,0.9859710931777954,-1.3537670373916626,-0.0715857669711113,0.003,0.0,0.0,0.0,0.0,0.0,0.0,-3.1,3.1,-1.571,1.571,-1.571,1.571,-1.745,1.745,-2.617,2.617,0.003,0.03,-0.05000000074505806,-0.02500000037252903,-0.02500000037252903,-0.02500000037252903,-0.05000000074505806,-0.0005000000237487257,0.05000000074505806,0.02500000037252903,0.02500000037252903,0.02500000037252903,0.05000000074505806,0.0005000000237487257,-0.030640459529198385,-0.030640459529198385,0.1750441645105554,0.14,0.0,0.26,0.0017085681902244687,2.621116436785087e-05,0.36731234192848206,0.0,
0.0,1.0,0.0,0.0,-0.025,0.0,0.0,0.0,0.015339807607233524,-1.293145775794983,0.9859710931777954,-1.3537670373916626,-0.0715857669711113,0.0,0.015339807607233524,-1.293145775794983,0.9609711170196533,-1.3537670373916626,-0.0715857669711113,0.003,0.0,0.0,0.0,0.0,0.0,0.0,-3.1,3.1,-1.571,1.571,-1.571,1.571,-1.745,1.745,-2.617,2.617,0.003,0.03,-0.05000000074505806,-0.02500000037252903,-0.02500000037252903,-0.02500000037252903,-0.05000000074505806,-0.0005000000237487257,0.05000000074505806,0.02500000037252903,0.02500000037252903,0.02500000037252903,0.05000000074505806,0.0005000000237487257,-0.03242215447033001,-0.0630626139995284,0.18006152967896838,0.14,0.0,0.26,-0.0022541426587849855,-3.458082574070431e-05,0.37038981914520264,0.0,1.2041676404191137
0.0,2.0,0.0,0.0,-0.025,0.0,0.0,0.0,0.015339807607233524,-1.293145775794983,0.9609711170196533,-1.3537670373916626,-0.0715857669711113,0.0,0.015339807607233524,-1.293145775794983,0.9359711408615112,-1.3537670373916626,-0.0715857669711113,0.003,0.0,0.0,0.0,0.0,0.0,0.0,-3.1,3.1,-1.571,1.571,-1.571,1.571,-1.745,1.745,-2.617,2.617,0.003,0.03,-0.05000000074505806,-0.02500000037252903,-0.02500000037252903,-0.02500000037252903,-0.05000000074505806,-0.0005000000237487257,0.05000000074505806,0.02500000037252903,0.02500000037252903,0.02500000037252903,0.05000000074505806,0.0005000000237487257,-0.03425365523519194,-0.09731626923472034,0.18507743037764476,0.14,0.0,0.26,-0.006292534992098808,-9.653384768171236e-05,0.3733672797679901,0.0,1.2038161676823322
0.0,3.0,0.0,0.0,-0.025,0.0,0.0,0.0,0.015339807607233524,-1.293145775794983,0.9359711408615112,-1.3537670373916626,-0.0715857669711113,0.0,0.015339807607233524,-1.293145775794983,0.9109711647033691,-1.3537670373916626,-0.0715857669711113,0.003,0.0,0.0,0.0,0.0,0.0,0.0,-3.1,3.1,-1.571,1.571,-1.571,1.571,-1.745,1.745,-2.617,2.617,0.003,0.03,-0.05000000074505806,-0.02500000037252903,-0.02500000037252903,-0.02500000037252903,-0.05000000074505806,-0.0005000000237487257,0.05000000074505806,0.02500000037252903,0.02500000037252903,0.02500000037252903,0.05000000074505806,0.0005000000237487257,-0.03613380657817174,-0.1334500758128921,0.19008894386095088,0.14,0.0,0.26,-0.01040408480912447,-0.00015960917517077178,0.37624281644821167,0.0,1.202763235993467
0.0,4.0,0.0,0.0,-0.025,0.0,0.0,0.0,0.015339807607233524,-1.293145775794983,0.9109711647033691,-1.3537670373916626,-0.0715857669711113,0.0,0.015339807607233524,-1.293145775794983,0.885971188545227,-1.3537670373916626,-0.0715857669711113,0.003,0.0,0.0,0.0,0.0,0.0,0.0,-3.1,3.1,-1.571,1.571,-1.571,1.571,-1.745,1.745,-2.617,2.617,0.003,0.03,-0.05000000074505806,-0.02500000037252903,-0.02500000037252903,-0.02500000037252903,-0.05000000074505806,-0.0005000000237487257,0.05000000074505806,0.02500000037252903,0.02500000037252903,0.02500000037252903,0.05000000074505806,0.0005000000237487257,-0.038061442092036255,-0.17151151790492836,0.19509341888448276,0.14,0.0,0.26,-0.014586222358047962,-0.00022376739070750773,0.37901467084884644,0.0,1.201074005647651
0.0,5.0,0.0,0.0,-0.025,0.0,0.0,0.0,0.015339807607233524,-1.293145775794983,0.885971188545227,-1.3537670373916626,-0.0715857669711113,0.0,0.015339807607233524,-1.293145775794983,0.860971212387085,-1.3537670373916626,-0.0715857669711113,0.003,0.0,0.0,0.0,0.0,0.0,0.0,-3.1,3.1,-1.571,1.571,-1.571,1.571,-1.745,1.745,-2.617,2.617,0.003,0.03,-0.05000000074505806,-0.02500000037252903,-0.02500000037252903,-0.02500000037252903,-0.05000000074505806,-0.0005000000237487257,0.05000000074505806,0.02500000037252903,0.02500000037252903,0.02500000037252903,0.05000000074505806,0.0005000000237487257,-0.040035358221956086,-0.21154687612688444,0.20008837602908391,0.14,0.0,0.26,-0.018836334347724915,-0.0002889684110414237,0.3816811144351959,0.0,1.198789714704278
0.0,6.0,0.0,0.0,-0.025,0.0,0.0,0.0,0.015339807607233524,-1.293145775794983,0.860971212387085,-1.3537670373916626,-0.0715857669711113,0.0,0.015339807607233524,-1.293145775794983,0.8359712362289429,-1.3537670373916626,-0.0715857669711113,0.003,0.0,0.0,0.0,0.0,0.0,0.0,-3.1,3.1,-1.571,1.571,-1.571,1.571,-1.745,1.745,-2.617,2.617,0.003,0.03,-0.05000000074505806,-0.02500000037252903,-0.02500000037252903,-0.02500000037252903,-0.05000000074505806,-0.0005000000237487257,0.05000000074505806,0.02500000037252903,0.02500000037252903,0.02500000037252903,0.05000000074505806,0.0005000000237487257,-0.04205432089648662,-0.2536011970233711,0.20507150191210533,0.14,0.0,0.26,-0.023151764646172523,-0.00035517147625796497,0.3842404782772064,0.0,1.1959502119251386
0.0,7.0,0.0,0.0,-0.025,0.0,0.0,0.0,0.015339807607233524,-1.293145775794983,0.8359712362289429,-1.3537670373916626,-0.0715857669711113,0.0,0.015339807607233524,-1.293145775794983,0.8109712600708008,-1.3537670373916626,-0.0715857669711113,0.003,0.0,0.0,0.0,0.0,0.0,0.0,-3.1,3.1,-1.571,1.571,-1.571,1.571,-1.745,1.745,-2.617,2.617,0.003,0.03,-0.05000000074505806,-0.02500000037252903,-0.02500000037252903,-0.02500000037252903,-0.05000000074505806,-0.0005000000237487257,0.05000000074505806,0.02500000037252903,0.02500000037252903,0.02500000037252903,0.05000000074505806,0.0005000000237487257,-0.04411705806157617,-0.29771825508494726,0.2100406105056262,0.14,0.0,0.26,-0.027529815211892128,-0.0004223352007102221,0.3866911232471466,0.0,1.192586062445009
0.0,8.0,0.0,0.0,-0.025,0.0,0.0,0.0,0.015339807607233524,-1.293145775794983,0.8109712600708008,-1.3537670373916626,-0.0715857669711113,0.0,0.015339807607233524,-1.293145775794983,0.7859712839126587,-1.3537670373916626,-0.0715857669711113,0.003,0.0,0.0,0.0,0.0,0.0,0.0,-3.1,3.1,-1.571,1.571,-1.571,1.571,-1.745,1.745,-2.617,2.617,0.003,0.03,-0.05000000074505806,-0.02500000037252903,-0.02500000037252903,-0.02500000037252903,-0.05000000074505806,-0.0005000000237487257,0.05000000074505806,0.02500000037252903,0.02500000037252903,0.02500000037252903,0.05000000074505806,0.0005000000237487257,-0.04622229909582655,-0.3439405541807738,0.21499371873574946,0.14,0.0,0.26,-0.03196775168180466,-0.0004904175875708461,0.3890315890312195,0.0,1.1887459752295837
0.0,9.0,0.0,0.0,-0.025,0.0,0.0,0.0,0.015339807607233524,-1.293145775794983,0.7859712839126587,-1.3537670373916626,-0.0715857669711113,0.0,0.015339807607233524,-1.293145775794983,0.7609713077545166,-1.3537670373916626,-0.0715857669711113,0.003,0.0,0.0,0.0,0.0,0.0,0.0,-3.1,3.1,-1.571,1.571,-1.571,1.571,-1.745,1.745,-2.617,2.617,0.003,0.03,-0.05000000074505806,-0.02500000037252903,-0.02500000037252903,-0.02500000037252903,-0.05000000074505806,-0.0005000000237487257,0.05000000074505806,0.02500000037252903,0.02500000037252903,0.02500000037252903,0.05000000074505806,0.0005000000237487257,-0.04836871321331361,-0.3923092673940874,0.21992888217174572,0.14,0.0,0.26,-0.036462798714637756,-0.0005593762034550309,0.3912603557109833,0.0,1.1844392246391022
0.0,10.0,0.0,0.0,-0.025,0.0,0.0,0.0,0.015339807607233524,-1.293145775794983,0.7609713077545166,-1.3537670373916626,-0.0715857669711113,0.0,0.015339807607233524,-1.293145775794983,0.7359713315963745,-1.3537670373916626,-0.0715857669711113,0.003,0.0,0.0,0.0,0.0,0.0,0.0,-3.1,3.1,-1.571,1.571,-1.571,1.571,-1.745,1.745,-2.617,2.617,0.003,0.03,-0.05000000074505806,-0.02500000037252903,-0.02500000037252903,-0.02500000037252903,-0.05000000074505806,-0.0005000000237487257,0.05000000074505806,0.02500000037252903,0.02500000037252903,0.02500000037252903,0.05000000074505806,0.0005000000237487257,-0.05055496404751486,-0.44286423144160225,0.22484431068522695,0.14,0.0,0.26,-0.04101214557886124,-0.0006291677709668875,0.39337605237960815,0.0,1.179702843235495
0.0,11.0,0.0,0.0,-0.025,0.0,0.0,0.0,0.015339807607233524,-1.293145775794983,0.7359713315963745,-1.3537670373916626,-0.0715857669711113,0.0,0.015339807607233524,-1.293145775794983,0.7109713554382324,-1.3537670373916626,-0.0715857669711113,0.003,0.0,0.0,0.0,0.0,0.0,0.0,-3.1,3.1,-1.571,1.571,-1.571,1.571,-1.745,1.745,-2.617,2.617,0.003,0.03,-0.05000000074505806,-0.02500000037252903,-0.02500000037252903,-0.02500000037252903,-0.05000000074505806,-0.0005000000237487257,0.05000000074505806,0.02500000037252903,0.02500000037252903,0.02500000037252903,0.05000000074505806,0.0005000000237487257,-0.052779681819519704,-0.49564391326112195,0.22973828984198455,0.14,0.0,0.26,-0.04561295360326767,-0.0006997488671913743,0.39537733793258667,0.0,1.174554997621824
0.0,12.0,0.0,0.0,-0.025,0.0,0.0,0.0,0.015339807607233524,-1.293145775794983,0.7109713554382324,-1.3537670373916626,-0.0715857669711113,0.0,0.015339807607233524,-1.293145775794983,0.6859713792800903,-1.3537670373916626,-0.0715857669711113,0.003,0.0,0.0,0.0,0.0,0.0,0.0,-3.1,3.1,-1.571,1.571,-1.571,1.571,-1.745,1.745,-2.617,2.617,0.003,0.03,-0.05000000074505806,-0.02500000037252903,-0.02500000037252903,-0.02500000037252903,-0.05000000074505806,-0.0005000000237487257,0.05000000074505806,0.02500000037252903,0.02500000037252903,0.02500000037252903,0.05000000074505806,0.0005000000237487257,-0.055041483745116526,-0.5506853970062384,0.23460921496206522,0.14,0.0,0.26,-0.05026234686374664,-0.0007710751960985363,0.3972629904747009,0.0,1.1690220288193598
0.0,13.0,0.0,0.0,-0.025,0.0,0.0,0.0,0.015339807607233524,-1.293145775794983,0.6859713792800903,-1.3537670373916626,-0.0715857669711113,0.0,0.015339807607233524,-1.293145775794983,0.6609714031219482,-1.3537670373916626,-0.0715857669711113,0.003,0.0,0.0,0.0,0.0,0.0,0.0,-3.1,3.1,-1.571,1.571,-1.571,1.571,-1.745,1.745,-2.617,2.617,0.003,0.03,-0.05000000074505806,-0.02500000037252903,-0.02500000037252903,-0.02500000037252903,-0.05000000074505806,-0.0005000000237487257,0.05000000074505806,0.02500000037252903,0.02500000037252903,0.02500000037252903,0.05000000074505806,0.0005000000237487257,-0.05733895123152268,-0.6080243482377611,0.23945553080169746,0.14,0.0,0.26,-0.05495741590857506,-0.0008431023452430964,0.3990318179130554,0.0,1.1631158015117382
0.0,14.0,0.0,0.0,-0.025,0.0,0.0,0.0,0.015339807607233524,-1.293145775794983,0.6609714031219482,-1.3537670373916626,-0.0715857669711113,0.0,0.015339807607233524,-1.293145775794983,0.6359714269638062,-1.3537670373916626,-0.0715857669711113,0.003,0.0,0.0,0.0,0.0,0.0,0.0,-3.1,3.1,-1.571,1.571,-1.571,1.571,-1.745,1.745,-2.617,2.617,0.003,0.03,-0.05000000074505806,-0.02500000037252903,-0.02500000037252903,-0.02500000037252903,-0.05000000074505806,-0.0005000000237487257,0.05000000074505806,0.02500000037252903,0.02500000037252903,0.02500000037252903,0.05000000074505806,0.0005000000237487257,-0.05967064175686567,-0.6676949899946267,0.24427574942442745,0.14,0.0,0.26,-0.059695228934288025,-0.0009157852036878467,0.4006826877593994,0.0,1.1568524694551985
0.0,15.0,0.0,0.0,-0.025,0.0,0.0,0.0,0.015339807607233524,-1.293145775794983,0.6359714269638062,-1.3537670373916626,-0.0715857669711113,0.0,0.015339807607233524,-1.293145775794983,0.6109714508056641,-1.3537670373916626,-0.0715857669711113,0.003,0.0,0.0,0.0,0.0,0.0,0.0,-3.1,3.1,-1.571,1.571,-1.571,1.571,-1.745,1.745,-2.617,2.617,0.003,0.03,-0.05000000074505806,-0.02500000037252903,-0.02500000037252903,-0.02500000037252903,-0.05000000074505806,-0.0005000000237487257,0.05000000074505806,0.02500000037252903,0.02500000037252903,0.02500000037252903,0.05000000074505806,0.0005000000237487257,-0.062035111324270455,-0.7297301013188972,0.24906848721640892,0.14,0.0,0.26,-0.06447282433509827,-0.0009890783112496138,0.4022146165370941,0.0,1.1502570700755532
0.0,16.0,0.0,0.0,-0.025,0.0,0.0,0.0,0.015339807607233524,-1.293145775794983,0.6109714508056641,-1.3537670373916626,-0.0715857669711113,0.0,0.015339807607233524,-1.293145775794983,0.585971474647522,-1.3537670373916626,-0.0715857669711113,0.003,0.0,0.0,0.0,0.0,0.0,0.0,-3.1,3.1,-1.571,1.571,-1.571,1.571,-1.745,1.745,-2.617,2.617,0.003,0.03,-0.05000000074505806,-0.02500000037252903,-0.02500000037252903,-0.02500000037252903,-0.05000000074505806,-0.0005000000237487257,0.05000000074505806,0.02500000037252903,0.02500000037252903,0.02500000037252903,0.05000000074505806,0.0005000000237487257,-0.06443087570909743,-0.7941609770279946,0.25383237718836704,0.14,0.0,0.26,-0.06928721815347672,-0.0010629360331222415,0.40362662076950073,0.0,1.1433335932699484
0.0,17.0,0.0,0.0,-0.025,0.0,0.0,0.0,0.015339807607233524,-1.293145775794983,0.585971474647522,-1.3537670373916626,-0.0715857669711113,0.0,0.015339807607233524,-1.293145775794983,0.5609714984893799,-1.3537670373916626,-0.0715857669711113,0.003,0.0,0.0,0.0,0.0,0.0,0.0,-3.1,3.1,-1.571,1.571,-1.571,1.571,-1.745,1.745,-2.617,2.617,0.003,0.03,-0.05000000074505806,-0.02500000037252903,-0.02500000037252903,-0.02500000037252903,-0.05000000074505806,-0.0005000000237487257,0.05000000074505806,0.02500000037252903,0.02500000037252903,0.02500000037252903,0.05000000074505806,0.0005000000237487257,-0.06685644240931968,-0.8610174194373142,0.2585661277300638,0.14,0.0,0.26,-0.07413540035486221,-0.001137311919592321,0.40491783618927,0.0,1.136100130007227
0.0,18.0,0.0,0.0,-0.025,0.0,0.0,0.0,0.015339807607233524,-1.293145775794983,0.5609714984893799,-1.3537670373916626,-0.0715857669711113,0.0,0.015339807607233524,-1.293145775794983,0.5359715223312378,-1.3537670373916626,-0.0715857669711113,0.003,0.0,0.0,0.0,0.0,0.0,0.0,-3.1,3.1,-1.571,1.571,-1.571,1.571,-1.745,1.745,-2.617,2.617,0.003,0.03,-0.05000000074505806,-0.02500000037252903,-0.02500000037252903,-0.02500000037252903,-0.05000000074505806,-0.0005000000237487257,0.05000000074505806,0.02500000037252903,0.02500000037252903,0.02500000037252903,0.05000000074505806,0.0005000000237487257,-0.06931028653981255,-0.9303277059771268,0.2632684685635797,0.14,0.0,0.26,-0.07901433855295181,-0.0012121598701924086,0.4060874283313751,0.0,1.1285618000438147
0.0,19.0,0.0,0.0,-0.025,0.0,0.0,0.0,0.015339807607233524,-1.293145775794983,0.5359715223312378,-1.3537670373916626,-0.0715857669711113,0.0,0.015339807607233524,-1.293145775794983,0.5109715461730957,-1.3537670373916626,-0.0715857669711113,0.003,0.0,0.0,0.0,0.0,0.0,0.0,-3.1,3.1,-1.571,1.571,-1.571,1.571,-1.745,1.745,-2.617,2.617,0.003,0.03,-0.05000000074505806,-0.02500000037252903,-0.02500000037252903,-0.02500000037252903,-0.05000000074505806,-0.0005000000237487257,0.05000000074505806,0.02500000037252903,0.02500000037252903,0.02500000037252903,0.05000000074505806,0.0005000000237487257,-0.07179087984216324,-1.00211858581929,0.26793820153565867,0.14,0.0,0.26,-0.08392098546028137,-0.0012874327367171645,0.40713468194007874,0.0,1.1207359132989492
0.0,20.0,0.0,0.0,-0.025,0.0,0.0,0.0,0.015339807607233524,-1.293145775794983,0.5109715461730957,-1.3537670373916626,-0.0715857669711113,0.0,0.015339807607233524,-1.293145775794983,0.4859715402126312,-1.3537670373916626,-0.0715857669711113,0.003,0.0,0.0,0.0,0.0,0.0,0.0,-3.1,3.1,-1.571,1.571,-1.571,1.571,-1.745,1.745,-2.617,2.617,0.003,0.03,-0.05000000074505806,-0.02500000037252903,-0.02500000037252903,-0.02500000037252903,-0.05000000074505806,-0.0005000000237487257,0.05000000074505806,0.02500000037252903,0.02500000037252903,0.02500000037252903,0.05000000074505806,0.0005000000237487257,-0.07429668249279511,-1.0764152683120851,0.2725741779640821,0.14,0.0,0.26,-0.08885227888822556,-0.0013630838366225362,0.4080589711666107,0.0,1.1126343428216279
0.0,21.0,0.0,0.0,-0.025,0.0,0.0,0.0,0.015339807607233524,-1.293145775794983,0.4859715402126312,-1.3537670373916626,-0.0715857669711113,0.0,0.015339807607233524,-1.293145775794983,0.46097153425216675,-1.3537670373916626,-0.0715857669711113,0.003,0.0,0.0,0.0,0.0,0.0,0.0,-3.1,3.1,-1.571,1.571,-1.571,1.571,-1.745,1.745,-2.617,2.617,0.003,0.03,-0.05000000074505806,-0.02500000037252903,-0.02500000037252903,-0.02500000037252903,-0.05000000074505806,-0.0005000000237487257,0.05000000074505806,0.02500000037252903,0.02500000037252903,0.02500000037252903,0.05000000074505806,0.0005000000237487257,-0.07682610426144773,-1.1532413725735329,0.2771752230294904,0.14,0.0,0.26,-0.09380513429641724,-0.0014390656724572182,0.40885964035987854,0.0,1.1042508156979824
0.0,22.0,0.0,0.0,-0.025,0.0,0.0,0.0,0.015339807607233524,-1.293145775794983,0.46097153425216675,-1.3537670373916626,-0.0715857669711113,0.0,0.015339807607233524,-1.293145775794983,0.43597152829170227,-1.3537670373916626,-0.0715857669711113,0.003,0.0,0.0,0.0,0.0,0.0,0.0,-3.1,3.1,-1.571,1.571,-1.571,1.571,-1.745,1.745,-2.617,2.617,0.003,0.03,-0.05000000074505806,-0.02500000037252903,-0.02500000037252903,-0.02500000037252903,-0.05000000074505806,-0.0005000000237487257,0.05000000074505806,0.02500000037252903,0.02500000037252903,0.02500000037252903,0.05000000074505806,0.0005000000237487257,-0.079377590660831,-1.2326189632343638,0.28174028938160584,0.14,0.0,0.26,-0.09877645969390869,-0.001515330746769905,0.4095362722873688,0.0,1.095615924507709
0.0,23.0,0.0,0.0,-0.025,0.0,0.0,0.0,0.015339807607233524,-1.293145775794983,0.43597152829170227,-1.3537670373916626,-0.0715857669711113,0.0,0.015339807607233524,-1.293145775794983,0.4109715223312378,-1.3537670373916626,-0.0715857669711113,0.003,0.0,0.0,0.0,0.0,0.0,0.0,-3.1,3.1,-1.571,1.571,-1.571,1.571,-1.745,1.745,-2.617,2.617,0.003,0.03,-0.05000000074505806,-0.02500000037252903,-0.02500000037252903,-0.02500000037252903,-0.05000000074505806,-0.0005000000237487257,0.05000000074505806,0.02500000037252903,0.02500000037252903,0.02500000037252903,0.05000000074505806,0.0005000000237487257,-0.079377590660831,-1.3119965538951948,0.28174028938160584,0.14,0.0,0.26,-0.09877645969390869,-0.001515330746769905,0.4095362722873688,0.0,0.0
0.0,24.0,0.0,0.0,-0.025,0.0,0.0,0.0,0.015339807607233524,-1.293145775794983,0.43597152829170227,-1.3537670373916626,-0.0715857669711113,0.0,0.015339807607233524,-1.293145775794983,0.4109715223312378,-1.3537670373916626,-0.0715857669711113,0.003,0.0,0.0,0.0,0.0,0.0,0.0,-3.1,3.1,-1.571,1.571,-1.571,1.571,-1.745,1.745,-2.617,2.617,0.003,0.03,-0.05000000074505806,-0.02500000037252903,-0.02500000037252903,-0.02500000037252903,-0.05000000074505806,-0.0005000000237487257,0.05000000074505806,0.02500000037252903,0.02500000037252903,0.02500000037252903,0.05000000074505806,0.0005000000237487257,-0.079377590660831,-1.3913741445560257,0.28174028938160584,0.14,0.0,0.26,-0.09877645969390869,-0.001515330746769905,0.4095362722873688,0.0,0.0
0.0,25.0,0.0,0.0,-0.025,0.0,0.0,0.0,0.015339807607233524,-1.293145775794983,0.43597152829170227,-1.3537670373916626,-0.0715857669711113,0.0,0.015339807607233524,-1.293145775794983,0.4109715223312378,-1.3537670373916626,-0.0715857669711113,0.003,0.0,0.0,0.0,0.0,0.0,0.0,-3.1,3.1,-1.571,1.571,-1.571,1.571,-1.745,1.745,-2.617,2.617,0.003,0.03,-0.05000000074505806,-0.02500000037252903,-0.02500000037252903,-0.02500000037252903,-0.05000000074505806,-0.0005000000237487257,0.05000000074505806,0.02500000037252903,0.02500000037252903,0.02500000037252903,0.05000000074505806,0.0005000000237487257,-0.079377590660831,-1.4707517352168566,0.28174028938160584,0.14,0.0,0.26,-0.09877645969390869,-0.001515330746769905,0.4095362722873688,0.0,0.0
0.0,26.0,0.0,0.0,-0.025,0.0,0.0,0.0,0.015339807607233524,-1.293145775794983,0.43597152829170227,-1.3537670373916626,-0.0715857669711113,0.0,0.015339807607233524,-1.293145775794983,0.4109715223312378,-1.3537670373916626,-0.0715857669711113,0.003,0.0,0.0,0.0,0.0,0.0,0.0,-3.1,3.1,-1.571,1.571,-1.571,1.571,-1.745,1.745,-2.617,2.617,0.003,0.03,-0.05000000074505806,-0.02500000037252903,-0.02500000037252903,-0.02500000037252903,-0.05000000074505806,-0.0005000000237487257,0.05000000074505806,0.02500000037252903,0.02500000037252903,0.02500000037252903,0.05000000074505806,0.0005000000237487257,-0.079377590660831,-1.5501293258776876,0.28174028938160584,0.14,0.0,0.26,-0.09877645969390869,-0.001515330746769905,0.4095362722873688,0.0,0.0
0.0,27.0,0.0,0.0,-0.025,0.0,0.0,0.0,0.015339807607233524,-1.293145775794983,0.43597152829170227,-1.3537670373916626,-0.0715857669711113,0.0,0.015339807607233524,-1.293145775794983,0.4109715223312378,-1.3537670373916626,-0.0715857669711113,0.003,0.0,0.0,0.0,0.0,0.0,0.0,-3.1,3.1,-1.571,1.571,-1.571,1.571,-1.745,1.745,-2.617,2.617,0.003,0.03,-0.05000000074505806,-0.02500000037252903,-0.02500000037252903,-0.02500000037252903,-0.05000000074505806,-0.0005000000237487257,0.05000000074505806,0.02500000037252903,0.02500000037252903,0.02500000037252903,0.05000000074505806,0.0005000000237487257,-0.079377590660831,-1.6295069165385185,0.28174028938160584,0.14,0.0,0.26,-0.09877645969390869,-0.001515330746769905,0.4095362722873688,0.0,0.0
0.0,28.0,0.0,0.0,-0.025,0.0,0.0,0.0,0.015339807607233524,-1.293145775794983,0.43597152829170227,-1.3537670373916626,-0.0715857669711113,0.0,0.015339807607233524,-1.293145775794983,0.4109715223312378,-1.3537670373916626,-0.0715857669711113,0.003,0.0,0.0,0.0,0.0,0.0,0.0,-3.1,3.1,-1.571,1.571,-1.571,1.571,-1.745,1.745,-2.617,2.617,0.003,0.03,-0.05000000074505806,-0.02500000037252903,-0.02500000037252903,-0.02500000037252903,-0.05000000074505806,-0.0005000000237487257,0.05000000074505806,0.02500000037252903,0.02500000037252903,0.02500000037252903,0.05000000074505806,0.0005000000237487257,-0.079377590660831,-1.7088845071993495,0.28174028938160584,0.14,0.0,0.26,-0.09877645969390869,-0.001515330746769905,0.4095362722873688,0.0,0.0
0.0,29.0,0.0,0.0,-0.025,0.0,0.0,0.0,0.015339807607233524,-1.293145775794983,0.43597152829170227,-1.3537670373916626,-0.0715857669711113,0.0,0.015339807607233524,-1.293145775794983,0.4109715223312378,-1.3537670373916626,-0.0715857669711113,0.003,0.0,0.0,0.0,0.0,0.0,0.0,-3.1,3.1,-1.571,1.571,-1.571,1.571,-1.745,1.745,-2.617,2.617,0.003,0.03,-0.05000000074505806,-0.02500000037252903,-0.02500000037252903,-0.02500000037252903,-0.05000000074505806,-0.0005000000237487257,0.05000000074505806,0.02500000037252903,0.02500000037252903,0.02500000037252903,0.05000000074505806,0.0005000000237487257,-0.079377590660831,-1.7882620978601804,0.28174028938160584,0.14,0.0,0.26,-0.09877645969390869,-0.001515330746769905,0.4095362722873688,0.0,0.0
0.0,30.0,0.0,0.0,-0.025,0.0,0.0,0.0,0.015339807607233524,-1.293145775794983,0.43597152829170227,-1.3537670373916626,-0.0715857669711113,0.0,0.015339807607233524,-1.293145775794983,0.4109715223312378,-1.3537670373916626,-0.0715857669711113,0.003,0.0,0.0,0.0,0.0,0.0,0.0,-3.1,3.1,-1.571,1.571,-1.571,1.571,-1.745,1.745,-2.617,2.617,0.003,0.03,-0.05000000074505806,-0.02500000037252903,-0.02500000037252903,-0.02500000037252903,-0.05000000074505806,-0.0005000000237487257,0.05000000074505806,0.02500000037252903,0.02500000037252903,0.02500000037252903,0.05000000074505806,0.0005000000237487257,-0.079377590660831,-1.8676396885210114,0.28174028938160584,0.14,0.0,0.26,-0.09877645969390869,-0.001515330746769905,0.4095362722873688,0.0,0.0
0.0,31.0,0.0,0.0,-0.025,0.0,0.0,0.0,0.015339807607233524,-1.293145775794983,0.43597152829170227,-1.3537670373916626,-0.0715857669711113,0.0,0.015339807607233524,-1.293145775794983,0.4109715223312378,-1.3537670373916626,-0.0715857669711113,0.003,0.0,0.0,0.0,0.0,0.0,0.0,-3.1,3.1,-1.571,1.571,-1.571,1.571,-1.745,1.745,-2.617,2.617,0.003,0.03,-0.05000000074505806,-0.02500000037252903,-0.02500000037252903,-0.02500000037252903,-0.05000000074505806,-0.0005000000237487257,0.05000000074505806,0.02500000037252903,0.02500000037252903,0.02500000037252903,0.05000000074505806,0.0005000000237487257,-0.079377590660831,-1.9470172791818423,0.28174028938160584,0.14,0.0,0.26,-0.09877645969390869,-0.001515330746769905,0.4095362722873688,0.0,0.0
0.0,32.0,0.0,0.0,-0.025,0.0,0.0,0.0,0.015339807607233524,-1.293145775794983,0.43597152829170227,-1.3537670373916626,-0.0715857669711113,0.0,0.015339807607233524,-1.293145775794983,0.4109715223312378,-1.3537670373916626,-0.0715857669711113,0.003,0.0,0.0,0.0,0.0,0.0,0.0,-3.1,3.1,-1.571,1.571,-1.571,1.571,-1.745,1.745,-2.617,2.617,0.003,0.03,-0.05000000074505806,-0.02500000037252903,-0.02500000037252903,-0.02500000037252903,-0.05000000074505806,-0.0005000000237487257,0.05000000074505806,0.02500000037252903,0.02500000037252903,0.02500000037252903,0.05000000074505806,0.0005000000237487257,-0.079377590660831,-2.0263948698426733,0.28174028938160584,0.14,0.0,0.26,-0.09877645969390869,-0.001515330746769905,0.4095362722873688,0.0,0.0
0.0,33.0,0.0,0.0,-0.025,0.0,0.0,0.0,0.015339807607233524,-1.293145775794983,0.43597152829170227,-1.3537670373916626,-0.0715857669711113,0.0,0.015339807607233524,-1.293145775794983,0.4109715223312378,-1.3537670373916626,-0.0715857669711113,0.003,0.0,0.0,0.0,0.0,0.0,0.0,-3.1,3.1,-1.571,1.571,-1.571,1.571,-1.745,1.745,-2.617,2.617,0.003,0.03,-0.05000000074505806,-0.02500000037252903,-0.02500000037252903,-0.02500000037252903,-0.05000000074505806,-0.0005000000237487257,0.05000000074505806,0.02500000037252903,0.02500000037252903,0.02500000037252903,0.05000000074505806,0.0005000000237487257,-0.079377590660831,-2.105772460503504,0.28174028938160584,0.14,0.0,0.26,-0.09877645969390869,-0.001515330746769905,0.4095362722873688,0.0,0.0
0.0,34.0,0.0,0.0,-0.025,0.0,0.0,0.0,0.015339807607233524,-1.293145775794983,0.43597152829170227,-1.3537670373916626,-0.0715857669711113,0.0,0.015339807607233524,-1.293145775794983,0.4109715223312378,-1.3537670373916626,-0.0715857669711113,0.003,0.0,0.0,0.0,0.0,0.0,0.0,-3.1,3.1,-1.571,1.571,-1.571,1.571,-1.745,1.745,-2.617,2.617,0.003,0.03,-0.05000000074505806,-0.02500000037252903,-0.02500000037252903,-0.02500000037252903,-0.05000000074505806,-0.0005000000237487257,0.05000000074505806,0.02500000037252903,0.02500000037252903,0.02500000037252903,0.05000000074505806,0.0005000000237487257,-0.079377590660831,-2.185150051164335,0.28174028938160584,0.14,0.0,0.26,-0.09877645969390869,-0.001515330746769905,0.4095362722873688,0.0,0.0
0.0,35.0,0.0,0.0,-0.025,0.0,0.0,0.0,0.015339807607233524,-1.293145775794983,0.43597152829170227,-1.3537670373916626,-0.0715857669711113,0.0,0.015339807607233524,-1.293145775794983,0.4109715223312378,-1.3537670373916626,-0.0715857669711113,0.003,0.0,0.0,0.0,0.0,0.0,0.0,-3.1,3.1,-1.571,1.571,-1.571,1.571,-1.745,1.745,-2.617,2.617,0.003,0.03,-0.05000000074505806,-0.02500000037252903,-0.02500000037252903,-0.02500000037252903,-0.05000000074505806,-0.0005000000237487257,0.05000000074505806,0.02500000037252903,0.02500000037252903,0.02500000037252903,0.05000000074505806,0.0005000000237487257,-0.079377590660831,-2.264527641825166,0.28174028938160584,0.14,0.0,0.26,-0.09877645969390869,-0.001515330746769905,0.4095362722873688,0.0,0.0
0.0,36.0,0.0,0.0,-0.025,0.0,0.0,0.0,0.015339807607233524,-1.293145775794983,0.43597152829170227,-1.3537670373916626,-0.0715857669711113,0.0,0.015339807607233524,-1.293145775794983,0.4109715223312378,-1.3537670373916626,-0.0715857669711113,0.003,0.0,0.0,0.0,0.0,0.0,0.0,-3.1,3.1,-1.571,1.571,-1.571,1.571,-1.745,1.745,-2.617,2.617,0.003,0.03,-0.05000000074505806,-0.02500000037252903,-0.02500000037252903,-0.02500000037252903,-0.05000000074505806,-0.0005000000237487257,0.05000000074505806,0.02500000037252903,0.02500000037252903,0.02500000037252903,0.05000000074505806,0.0005000000237487257,-0.079377590660831,-2.343905232485997,0.28174028938160584,0.14,0.0,0.26,-0.09877645969390869,-0.001515330746769905,0.4095362722873688,0.0,0.0
0.0,37.0,0.0,0.0,-0.025,0.0,0.0,0.0,0.015339807607233524,-1.293145775794983,0.43597152829170227,-1.3537670373916626,-0.0715857669711113,0.0,0.015339807607233524,-1.293145775794983,0.4109715223312378,-1.3537670373916626,-0.0715857669711113,0.003,0.0,0.0,0.0,0.0,0.0,0.0,-3.1,3.1,-1.571,1.571,-1.571,1.571,-1.745,1.745,-2.617,2.617,0.003,0.03,-0.05000000074505806,-0.02500000037252903,-0.02500000037252903,-0.02500000037252903,-0.05000000074505806,-0.0005000000237487257,0.05000000074505806,0.02500000037252903,0.02500000037252903,0.02500000037252903,0.05000000074505806,0.0005000000237487257,-0.079377590660831,-2.423282823146828,0.28174028938160584,0.14,0.0,0.26,-0.09877645969390869,-0.001515330746769905,0.4095362722873688,0.0,0.0
0.0,38.0,0.0,0.0,-0.025,0.0,0.0,0.0,0.015339807607233524,-1.293145775794983,0.43597152829170227,-1.3537670373916626,-0.0715857669711113,0.0,0.015339807607233524,-1.293145775794983,0.4109715223312378,-1.3537670373916626,-0.0715857669711113,0.003,0.0,0.0,0.0,0.0,0.0,0.0,-3.1,3.1,-1.571,1.571,-1.571,1.571,-1.745,1.745,-2.617,2.617,0.003,0.03,-0.05000000074505806,-0.02500000037252903,-0.02500000037252903,-0.02500000037252903,-0.05000000074505806,-0.0005000000237487257,0.05000000074505806,0.02500000037252903,0.02500000037252903,0.02500000037252903,0.05000000074505806,0.0005000000237487257,-0.079377590660831,-2.502660413807659,0.28174028938160584,0.14,0.0,0.26,-0.09877645969390869,-0.001515330746769905,0.4095362722873688,0.0,0.0
0.0,39.0,0.0,0.0,-0.025,0.0,0.0,0.0,0.015339807607233524,-1.293145775794983,0.43597152829170227,-1.3537670373916626,-0.0715857669711113,0.0,0.015339807607233524,-1.293145775794983,0.4109715223312378,-1.3537670373916626,-0.0715857669711113,0.003,0.0,0.0,0.0,0.0,0.0,0.0,-3.1,3.1,-1.571,1.571,-1.571,1.571,-1.745,1.745,-2.617,2.617,0.003,0.03,-0.05000000074505806,-0.02500000037252903,-0.02500000037252903,-0.02500000037252903,-0.05000000074505806,-0.0005000000237487257,0.05000000074505806,0.02500000037252903,0.02500000037252903,0.02500000037252903,0.05000000074505806,0.0005000000237487257,-0.079377590660831,-2.58203800446849,0.28174028938160584,0.14,0.0,0.26,-0.09877645969390869,-0.001515330746769905,0.4095362722873688,0.0,0.0
0.0,40.0,0.0,0.0,-0.025,0.0,0.0,0.0,0.015339807607233524,-1.293145775794983,0.43597152829170227,-1.3537670373916626,-0.0715857669711113,0.0,0.015339807607233524,-1.293145775794983,0.4109715223312378,-1.3537670373916626,-0.0715857669711113,0.003,0.0,0.0,0.0,0.0,0.0,0.0,-3.1,3.1,-1.571,1.571,-1.571,1.571,-1.745,1.745,-2.617,2.617,0.003,0.03,-0.05000000074505806,-0.02500000037252903,-0.02500000037252903,-0.02500000037252903,-0.05000000074505806,-0.0005000000237487257,0.05000000074505806,0.02500000037252903,0.02500000037252903,0.02500000037252903,0.05000000074505806,0.0005000000237487257,-0.079377590660831,-2.661415595129321,0.28174028938160584,0.14,0.0,0.26,-0.09877645969390869,-0.001515330746769905,0.4095362722873688,0.0,0.0
0.0,41.0,0.0,0.0,-0.025,0.0,0.0,0.0,0.015339807607233524,-1.293145775794983,0.43597152829170227,-1.3537670373916626,-0.0715857669711113,0.0,0.015339807607233524,-1.293145775794983,0.4109715223312378,-1.3537670373916626,-0.0715857669711113,0.003,0.0,0.0,0.0,0.0,0.0,0.0,-3.1,3.1,-1.571,1.571,-1.571,1.571,-1.745,1.745,-2.617,2.617,0.003,0.03,-0.05000000074505806,-0.02500000037252903,-0.02500000037252903,-0.02500000037252903,-0.05000000074505806,-0.0005000000237487257,0.05000000074505806,0.02500000037252903,0.02500000037252903,0.02500000037252903,0.05000000074505806,0.0005000000237487257,-0.079377590660831,-2.7407931857901517,0.28174028938160584,0.14,0.0,0.26,-0.09877645969390869,-0.001515330746769905,0.4095362722873688,0.0,0.0
0.0,42.0,0.0,0.0,-0.025,0.0,0.0,0.0,0.015339807607233524,-1.293145775794983,0.43597152829170227,-1.3537670373916626,-0.0715857669711113,0.0,0.015339807607233524,-1.293145775794983,0.4109715223312378,-1.3537670373916626,-0.0715857669711113,0.003,0.0,0.0,0.0,0.0,0.0,0.0,-3.1,3.1,-1.571,1.571,-1.571,1.571,-1.745,1.745,-2.617,2.617,0.003,0.03,-0.05000000074505806,-0.02500000037252903,-0.02500000037252903,-0.02500000037252903,-0.05000000074505806,-0.0005000000237487257,0.05000000074505806,0.02500000037252903,0.02500000037252903,0.02500000037252903,0.05000000074505806,0.0005000000237487257,-0.079377590660831,-2.8201707764509827,0.28174028938160584,0.14,0.0,0.26,-0.09877645969390869,-0.001515330746769905,0.4095362722873688,0.0,0.0
0.0,43.0,0.0,0.0,-0.025,0.0,0.0,0.0,0.015339807607233524,-1.293145775794983,0.43597152829170227,-1.3537670373916626,-0.0715857669711113,0.0,0.015339807607233524,-1.293145775794983,0.4109715223312378,-1.3537670373916626,-0.0715857669711113,0.003,0.0,0.0,0.0,0.0,0.0,0.0,-3.1,3.1,-1.571,1.571,-1.571,1.571,-1.745,1.745,-2.617,2.617,0.003,0.03,-0.05000000074505806,-0.02500000037252903,-0.02500000037252903,-0.02500000037252903,-0.05000000074505806,-0.0005000000237487257,0.05000000074505806,0.02500000037252903,0.02500000037252903,0.02500000037252903,0.05000000074505806,0.0005000000237487257,-0.079377590660831,-2.8995483671118136,0.28174028938160584,0.14,0.0,0.26,-0.09877645969390869,-0.001515330746769905,0.4095362722873688,0.0,0.0
0.0,44.0,0.0,0.0,-0.025,0.0,0.0,0.0,0.015339807607233524,-1.293145775794983,0.43597152829170227,-1.3537670373916626,-0.0715857669711113,0.0,0.015339807607233524,-1.293145775794983,0.4109715223312378,-1.3537670373916626,-0.0715857669711113,0.003,0.0,0.0,0.0,0.0,0.0,0.0,-3.1,3.1,-1.571,1.571,-1.571,1.571,-1.745,1.745,-2.617,2.617,0.003,0.03,-0.05000000074505806,-0.02500000037252903,-0.02500000037252903,-0.02500000037252903,-0.05000000074505806,-0.0005000000237487257,0.05000000074505806,0.02500000037252903,0.02500000037252903,0.02500000037252903,0.05000000074505806,0.0005000000237487257,-0.079377590660831,-2.9789259577726446,0.28174028938160584,0.14,0.0,0.26,-0.09877645969390869,-0.001515330746769905,0.4095362722873688,0.0,0.0
0.0,45.0,0.0,0.0,-0.025,0.0,0.0,0.0,0.015339807607233524,-1.293145775794983,0.43597152829170227,-1.3537670373916626,-0.0715857669711113,0.0,0.015339807607233524,-1.293145775794983,0.4109715223312378,-1.3537670373916626,-0.0715857669711113,0.003,0.0,0.0,0.0,0.0,0.0,0.0,-3.1,3.1,-1.571,1.571,-1.571,1.571,-1.745,1.745,-2.617,2.617,0.003,0.03,-0.05000000074505806,-0.02500000037252903,-0.02500000037252903,-0.02500000037252903,-0.05000000074505806,-0.0005000000237487257,0.05000000074505806,0.02500000037252903,0.02500000037252903,0.02500000037252903,0.05000000074505806,0.0005000000237487257,-0.079377590660831,-3.0583035484334755,0.28174028938160584,0.14,0.0,0.26,-0.09877645969390869,-0.001515330746769905,0.4095362722873688,0.0,0.0
0.0,46.0,0.0,0.0,-0.025,0.0,0.0,0.0,0.015339807607233524,-1.293145775794983,0.43597152829170227,-1.3537670373916626,-0.0715857669711113,0.0,0.015339807607233524,-1.293145775794983,0.4109715223312378,-1.3537670373916626,-0.0715857669711113,0.003,0.0,0.0,0.0,0.0,0.0,0.0,-3.1,3.1,-1.571,1.571,-1.571,1.571,-1.745,1.745,-2.617,2.617,0.003,0.03,-0.05000000074505806,-0.02500000037252903,-0.02500000037252903,-0.02500000037252903,-0.05000000074505806,-0.0005000000237487257,0.05000000074505806,0.02500000037252903,0.02500000037252903,0.02500000037252903,0.05000000074505806,0.0005000000237487257,-0.079377590660831,-3.1376811390943065,0.28174028938160584,0.14,0.0,0.26,-0.09877645969390869,-0.001515330746769905,0.4095362722873688,0.0,0.0
0.0,47.0,0.0,0.0,-0.025,0.0,0.0,0.0,0.015339807607233524,-1.293145775794983,0.43597152829170227,-1.3537670373916626,-0.0715857669711113,0.0,0.015339807607233524,-1.293145775794983,0.4109715223312378,-1.3537670373916626,-0.0715857669711113,0.003,0.0,0.0,0.0,0.0,0.0,0.0,-3.1,3.1,-1.571,1.571,-1.571,1.571,-1.745,1.745,-2.617,2.617,0.003,0.03,-0.05000000074505806,-0.02500000037252903,-0.02500000037252903,-0.02500000037252903,-0.05000000074505806,-0.0005000000237487257,0.05000000074505806,0.02500000037252903,0.02500000037252903,0.02500000037252903,0.05000000074505806,0.0005000000237487257,-0.079377590660831,-3.2170587297551374,0.28174028938160584,0.14,0.0,0.26,-0.09877645969390869,-0.001515330746769905,0.4095362722873688,0.0,0.0
0.0,48.0,0.0,0.0,-0.025,0.0,0.0,0.0,0.015339807607233524,-1.293145775794983,0.43597152829170227,-1.3537670373916626,-0.0715857669711113,0.0,0.015339807607233524,-1.293145775794983,0.4109715223312378,-1.3537670373916626,-0.0715857669711113,0.003,0.0,0.0,0.0,0.0,0.0,0.0,-3.1,3.1,-1.571,1.571,-1.571,1.571,-1.745,1.745,-2.617,2.617,0.003,0.03,-0.05000000074505806,-0.02500000037252903,-0.02500000037252903,-0.02500000037252903,-0.05000000074505806,-0.0005000000237487257,0.05000000074505806,0.02500000037252903,0.02500000037252903,0.02500000037252903,0.05000000074505806,0.0005000000237487257,-0.079377590660831,-3.2964363204159683,0.28174028938160584,0.14,0.0,0.26,-0.09877645969390869,-0.001515330746769905,0.4095362722873688,0.0,0.0
0.0,49.0,0.0,0.0,-0.025,0.0,0.0,0.0,0.015339807607233524,-1.293145775794983,0.43597152829170227,-1.3537670373916626,-0.0715857669711113,0.0,0.015339807607233524,-1.293145775794983,0.4109715223312378,-1.3537670373916626,-0.0715857669711113,0.003,0.0,0.0,0.0,0.0,0.0,0.0,-3.1,3.1,-1.571,1.571,-1.571,1.571,-1.745,1.745,-2.617,2.617,0.003,0.03,-0.05000000074505806,-0.02500000037252903,-0.02500000037252903,-0.02500000037252903,-0.05000000074505806,-0.0005000000237487257,0.05000000074505806,0.02500000037252903,0.02500000037252903,0.02500000037252903,0.05000000074505806,0.0005000000237487257,-0.079377590660831,-3.3758139110767993,0.28174028938160584,0.14,0.0,0.26,-0.09877645969390869,-0.001515330746769905,0.4095362722873688,0.0,0.0
0.0,50.0,0.0,0.0,-0.025,0.0,0.0,0.0,0.015339807607233524,-1.293145775794983,0.43597152829170227,-1.3537670373916626,-0.0715857669711113,0.0,0.015339807607233524,-1.293145775794983,0.4109715223312378,-1.3537670373916626,-0.0715857669711113,0.003,0.0,0.0,0.0,0.0,0.0,0.0,-3.1,3.1,-1.571,1.571,-1.571,1.571,-1.745,1.745,-2.617,2.617,0.003,0.03,-0.05000000074505806,-0.02500000037252903,-0.02500000037252903,-0.02500000037252903,-0.05000000074505806,-0.0005000000237487257,0.05000000074505806,0.02500000037252903,0.02500000037252903,0.02500000037252903,0.05000000074505806,0.0005000000237487257,-0.079377590660831,-3.4551915017376302,0.28174028938160584,0.14,0.0,0.26,-0.09877645969390869,-0.001515330746769905,0.4095362722873688,0.0,0.0
0.0,51.0,0.0,0.0,-0.025,0.0,0.0,0.0,0.015339807607233524,-1.293145775794983,0.43597152829170227,-1.3537670373916626,-0.0715857669711113,0.0,0.015339807607233524,-1.293145775794983,0.4109715223312378,-1.3537670373916626,-0.0715857669711113,0.003,0.0,0.0,0.0,0.0,0.0,0.0,-3.1,3.1,-1.571,1.571,-1.571,1.571,-1.745,1.745,-2.617,2.617,0.003,0.03,-0.05000000074505806,-0.02500000037252903,-0.02500000037252903,-0.02500000037252903,-0.05000000074505806,-0.0005000000237487257,0.05000000074505806,0.02500000037252903,0.02500000037252903,0.02500000037252903,0.05000000074505806,0.0005000000237487257,-0.079377590660831,-3.534569092398461,0.28174028938160584,0.14,0.0,0.26,-0.09877645969390869,-0.001515330746769905,0.4095362722873688,0.0,0.0
0.0,52.0,0.0,0.0,-0.025,0.0,0.0,0.0,0.015339807607233524,-1.293145775794983,0.43597152829170227,-1.3537670373916626,-0.0715857669711113,0.0,0.015339807607233524,-1.293145775794983,0.4109715223312378,-1.3537670373916626,-0.0715857669711113,0.003,0.0,0.0,0.0,0.0,0.0,0.0,-3.1,3.1,-1.571,1.571,-1.571,1.571,-1.745,1.745,-2.617,2.617,0.003,0.03,-0.05000000074505806,-0.02500000037252903,-0.02500000037252903,-0.02500000037252903,-0.05000000074505806,-0.0005000000237487257,0.05000000074505806,0.02500000037252903,0.02500000037252903,0.02500000037252903,0.05000000074505806,0.0005000000237487257,-0.079377590660831,-3.613946683059292,0.28174028938160584,0.14,0.0,0.26,-0.09877645969390869,-0.001515330746769905,0.4095362722873688,0.0,0.0
0.0,53.0,0.0,0.0,-0.025,0.0,0.0,0.0,0.015339807607233524,-1.293145775794983,0.43597152829170227,-1.3537670373916626,-0.0715857669711113,0.0,0.015339807607233524,-1.293145775794983,0.4109715223312378,-1.3537670373916626,-0.0715857669711113,0.003,0.0,0.0,0.0,0.0,0.0,0.0,-3.1,3.1,-1.571,1.571,-1.571,1.571,-1.745,1.745,-2.617,2.617,0.003,0.03,-0.05000000074505806,-0.02500000037252903,-0.02500000037252903,-0.02500000037252903,-0.05000000074505806,-0.0005000000237487257,0.05000000074505806,0.02500000037252903,0.02500000037252903,0.02500000037252903,0.05000000074505806,0.0005000000237487257,-0.079377590660831,-3.693324273720123,0.28174028938160584,0.14,0.0,0.26,-0.09877645969390869,-0.001515330746769905,0.4095362722873688,0.0,0.0
0.0,54.0,0.0,0.0,-0.025,0.0,0.0,0.0,0.015339807607233524,-1.293145775794983,0.43597152829170227,-1.3537670373916626,-0.0715857669711113,0.0,0.015339807607233524,-1.293145775794983,0.4109715223312378,-1.3537670373916626,-0.0715857669711113,0.003,0.0,0.0,0.0,0.0,0.0,0.0,-3.1,3.1,-1.571,1.571,-1.571,1.571,-1.745,1.745,-2.617,2.617,0.003,0.03,-0.05000000074505806,-0.02500000037252903,-0.02500000037252903,-0.02500000037252903,-0.05000000074505806,-0.0005000000237487257,0.05000000074505806,0.02500000037252903,0.02500000037252903,0.02500000037252903,0.05000000074505806,0.0005000000237487257,-0.079377590660831,-3.772701864380954,0.28174028938160584,0.14,0.0,0.26,-0.09877645969390869,-0.001515330746769905,0.4095362722873688,0.0,0.0
0.0,55.0,0.0,0.0,-0.025,0.0,0.0,0.0,0.015339807607233524,-1.293145775794983,0.43597152829170227,-1.3537670373916626,-0.0715857669711113,0.0,0.015339807607233524,-1.293145775794983,0.4109715223312378,-1.3537670373916626,-0.0715857669711113,0.003,0.0,0.0,0.0,0.0,0.0,0.0,-3.1,3.1,-1.571,1.571,-1.571,1.571,-1.745,1.745,-2.617,2.617,0.003,0.03,-0.05000000074505806,-0.02500000037252903,-0.02500000037252903,-0.02500000037252903,-0.05000000074505806,-0.0005000000237487257,0.05000000074505806,0.02500000037252903,0.02500000037252903,0.02500000037252903,0.05000000074505806,0.0005000000237487257,-0.079377590660831,-3.852079455041785,0.28174028938160584,0.14,0.0,0.26,-0.09877645969390869,-0.001515330746769905,0.4095362722873688,0.0,0.0
0.0,56.0,0.0,0.0,-0.025,0.0,0.0,0.0,0.015339807607233524,-1.293145775794983,0.43597152829170227,-1.3537670373916626,-0.0715857669711113,0.0,0.015339807607233524,-1.293145775794983,0.4109715223312378,-1.3537670373916626,-0.0715857669711113,0.003,0.0,0.0,0.0,0.0,0.0,0.0,-3.1,3.1,-1.571,1.571,-1.571,1.571,-1.745,1.745,-2.617,2.617,0.003,0.03,-0.05000000074505806,-0.02500000037252903,-0.02500000037252903,-0.02500000037252903,-0.05000000074505806,-0.0005000000237487257,0.05000000074505806,0.02500000037252903,0.02500000037252903,0.02500000037252903,0.05000000074505806,0.0005000000237487257,-0.079377590660831,-3.931457045702616,0.28174028938160584,0.14,0.0,0.26,-0.09877645969390869,-0.001515330746769905,0.4095362722873688,0.0,0.0
0.0,57.0,0.0,0.0,-0.025,0.0,0.0,0.0,0.015339807607233524,-1.293145775794983,0.43597152829170227,-1.3537670373916626,-0.0715857669711113,0.0,0.015339807607233524,-1.293145775794983,0.4109715223312378,-1.3537670373916626,-0.0715857669711113,0.003,0.0,0.0,0.0,0.0,0.0,0.0,-3.1,3.1,-1.571,1.571,-1.571,1.571,-1.745,1.745,-2.617,2.617,0.003,0.03,-0.05000000074505806,-0.02500000037252903,-0.02500000037252903,-0.02500000037252903,-0.05000000074505806,-0.0005000000237487257,0.05000000074505806,0.02500000037252903,0.02500000037252903,0.02500000037252903,0.05000000074505806,0.0005000000237487257,-0.079377590660831,-4.010834636363447,0.28174028938160584,0.14,0.0,0.26,-0.09877645969390869,-0.001515330746769905,0.4095362722873688,0.0,0.0
0.0,58.0,0.0,0.0,-0.025,0.0,0.0,0.0,0.015339807607233524,-1.293145775794983,0.43597152829170227,-1.3537670373916626,-0.0715857669711113,0.0,0.015339807607233524,-1.293145775794983,0.4109715223312378,-1.3537670373916626,-0.0715857669711113,0.003,0.0,0.0,0.0,0.0,0.0,0.0,-3.1,3.1,-1.571,1.571,-1.571,1.571,-1.745,1.745,-2.617,2.617,0.003,0.03,-0.05000000074505806,-0.02500000037252903,-0.02500000037252903,-0.02500000037252903,-0.05000000074505806,-0.0005000000237487257,0.05000000074505806,0.02500000037252903,0.02500000037252903,0.02500000037252903,0.05000000074505806,0.0005000000237487257,-0.079377590660831,-4.090212227024279,0.28174028938160584,0.14,0.0,0.26,-0.09877645969390869,-0.001515330746769905,0.4095362722873688,0.0,0.0
0.0,59.0,0.0,0.0,-0.025,0.0,0.0,0.0,0.015339807607233524,-1.293145775794983,0.43597152829170227,-1.3537670373916626,-0.0715857669711113,0.0,0.015339807607233524,-1.293145775794983,0.4109715223312378,-1.3537670373916626,-0.0715857669711113,0.003,0.0,0.0,0.0,0.0,0.0,0.0,-3.1,3.1,-1.571,1.571,-1.571,1.571,-1.745,1.745,-2.617,2.617,0.003,0.03,-0.05000000074505806,-0.02500000037252903,-0.02500000037252903,-0.02500000037252903,-0.05000000074505806,-0.0005000000237487257,0.05000000074505806,0.02500000037252903,0.02500000037252903,0.02500000037252903,0.05000000074505806,0.0005000000237487257,-0.079377590660831,-4.16958981768511,0.28174028938160584,0.14,0.0,0.26,-0.09877645969390869,-0.001515330746769905,0.4095362722873688,0.0,0.0
0.0,60.0,0.0,0.0,-0.025,0.0,0.0,0.0,0.015339807607233524,-1.293145775794983,0.43597152829170227,-1.3537670373916626,-0.0715857669711113,0.0,0.015339807607233524,-1.293145775794983,0.4109715223312378,-1.3537670373916626,-0.0715857669711113,0.003,0.0,0.0,0.0,0.0,0.0,0.0,-3.1,3.1,-1.571,1.571,-1.571,1.571,-1.745,1.745,-2.617,2.617,0.003,0.03,-0.05000000074505806,-0.02500000037252903,-0.02500000037252903,-0.02500000037252903,-0.05000000074505806,-0.0005000000237487257,0.05000000074505806,0.02500000037252903,0.02500000037252903,0.02500000037252903,0.05000000074505806,0.0005000000237487257,-0.079377590660831,-4.248967408345941,0.28174028938160584,0.14,0.0,0.26,-0.09877645969390869,-0.001515330746769905,0.4095362722873688,0.0,0.0
0.0,61.0,0.0,0.0,-0.025,0.0,0.0,0.0,0.015339807607233524,-1.293145775794983,0.43597152829170227,-1.3537670373916626,-0.0715857669711113,0.0,0.015339807607233524,-1.293145775794983,0.4109715223312378,-1.3537670373916626,-0.0715857669711113,0.003,0.0,0.0,0.0,0.0,0.0,0.0,-3.1,3.1,-1.571,1.571,-1.571,1.571,-1.745,1.745,-2.617,2.617,0.003,0.03,-0.05000000074505806,-0.02500000037252903,-0.02500000037252903,-0.02500000037252903,-0.05000000074505806,-0.0005000000237487257,0.05000000074505806,0.02500000037252903,0.02500000037252903,0.02500000037252903,0.05000000074505806,0.0005000000237487257,-0.079377590660831,-4.328344999006773,0.28174028938160584,0.14,0.0,0.26,-0.09877645969390869,-0.001515330746769905,0.4095362722873688,0.0,0.0
0.0,62.0,0.0,0.0,-0.025,0.0,0.0,0.0,0.015339807607233524,-1.293145775794983,0.43597152829170227,-1.3537670373916626,-0.0715857669711113,0.0,0.015339807607233524,-1.293145775794983,0.4109715223312378,-1.3537670373916626,-0.0715857669711113,0.003,0.0,0.0,0.0,0.0,0.0,0.0,-3.1,3.1,-1.571,1.571,-1.571,1.571,-1.745,1.745,-2.617,2.617,0.003,0.03,-0.05000000074505806,-0.02500000037252903,-0.02500000037252903,-0.02500000037252903,-0.05000000074505806,-0.0005000000237487257,0.05000000074505806,0.02500000037252903,0.02500000037252903,0.02500000037252903,0.05000000074505806,0.0005000000237487257,-0.079377590660831,-4.407722589667604,0.28174028938160584,0.14,0.0,0.26,-0.09877645969390869,-0.001515330746769905,0.4095362722873688,0.0,0.0
0.0,63.0,0.0,0.0,-0.025,0.0,0.0,0.0,0.015339807607233524,-1.293145775794983,0.43597152829170227,-1.3537670373916626,-0.0715857669711113,0.0,0.015339807607233524,-1.293145775794983,0.4109715223312378,-1.3537670373916626,-0.0715857669711113,0.003,0.0,0.0,0.0,0.0,0.0,0.0,-3.1,3.1,-1.571,1.571,-1.571,1.571,-1.745,1.745,-2.617,2.617,0.003,0.03,-0.05000000074505806,-0.02500000037252903,-0.02500000037252903,-0.02500000037252903,-0.05000000074505806,-0.0005000000237487257,0.05000000074505806,0.02500000037252903,0.02500000037252903,0.02500000037252903,0.05000000074505806,0.0005000000237487257,-0.079377590660831,-4.487100180328436,0.28174028938160584,0.14,0.0,0.26,-0.09877645969390869,-0.001515330746769905,0.4095362722873688,0.0,0.0
0.0,64.0,0.0,0.0,-0.025,0.0,0.0,0.0,0.015339807607233524,-1.293145775794983,0.43597152829170227,-1.3537670373916626,-0.0715857669711113,0.0,0.015339807607233524,-1.293145775794983,0.4109715223312378,-1.3537670373916626,-0.0715857669711113,0.003,0.0,0.0,0.0,0.0,0.0,0.0,-3.1,3.1,-1.571,1.571,-1.571,1.571,-1.745,1.745,-2.617,2.617,0.003,0.03,-0.05000000074505806,-0.02500000037252903,-0.02500000037252903,-0.02500000037252903,-0.05000000074505806,-0.0005000000237487257,0.05000000074505806,0.02500000037252903,0.02500000037252903,0.02500000037252903,0.05000000074505806,0.0005000000237487257,-0.079377590660831,-4.566477770989267,0.28174028938160584,0.14,0.0,0.26,-0.09877645969390869,-0.001515330746769905,0.4095362722873688,0.0,0.0
0.0,65.0,0.0,0.0,-0.025,0.0,0.0,0.0,0.015339807607233524,-1.293145775794983,0.43597152829170227,-1.3537670373916626,-0.0715857669711113,0.0,0.015339807607233524,-1.293145775794983,0.4109715223312378,-1.3537670373916626,-0.0715857669711113,0.003,0.0,0.0,0.0,0.0,0.0,0.0,-3.1,3.1,-1.571,1.571,-1.571,1.571,-1.745,1.745,-2.617,2.617,0.003,0.03,-0.05000000074505806,-0.02500000037252903,-0.02500000037252903,-0.02500000037252903,-0.05000000074505806,-0.0005000000237487257,0.05000000074505806,0.02500000037252903,0.02500000037252903,0.02500000037252903,0.05000000074505806,0.0005000000237487257,-0.079377590660831,-4.645855361650098,0.28174028938160584,0.14,0.0,0.26,-0.09877645969390869,-0.001515330746769905,0.4095362722873688,0.0,0.0
0.0,66.0,0.0,0.0,-0.025,0.0,0.0,0.0,0.015339807607233524,-1.293145775794983,0.43597152829170227,-1.3537670373916626,-0.0715857669711113,0.0,0.015339807607233524,-1.293145775794983,0.4109715223312378,-1.3537670373916626,-0.0715857669711113,0.003,0.0,0.0,0.0,0.0,0.0,0.0,-3.1,3.1,-1.571,1.571,-1.571,1.571,-1.745,1.745,-2.617,2.617,0.003,0.03,-0.05000000074505806,-0.02500000037252903,-0.02500000037252903,-0.02500000037252903,-0.05000000074505806,-0.0005000000237487257,0.05000000074505806,0.02500000037252903,0.02500000037252903,0.02500000037252903,0.05000000074505806,0.0005000000237487257,-0.079377590660831,-4.72523295231093,0.28174028938160584,0.14,0.0,0.26,-0.09877645969390869,-0.001515330746769905,0.4095362722873688,0.0,0.0
0.0,67.0,0.0,0.0,-0.025,0.0,0.0,0.0,0.015339807607233524,-1.293145775794983,0.43597152829170227,-1.3537670373916626,-0.0715857669711113,0.0,0.015339807607233524,-1.293145775794983,0.4109715223312378,-1.3537670373916626,-0.0715857669711113,0.003,0.0,0.0,0.0,0.0,0.0,0.0,-3.1,3.1,-1.571,1.571,-1.571,1.571,-1.745,1.745,-2.617,2.617,0.003,0.03,-0.05000000074505806,-0.02500000037252903,-0.02500000037252903,-0.02500000037252903,-0.05000000074505806,-0.0005000000237487257,0.05000000074505806,0.02500000037252903,0.02500000037252903,0.02500000037252903,0.05000000074505806,0.0005000000237487257,-0.079377590660831,-4.804610542971761,0.28174028938160584,0.14,0.0,0.26,-0.09877645969390869,-0.001515330746769905,0.4095362722873688,0.0,0.0
0.0,68.0,0.0,0.0,-0.025,0.0,0.0,0.0,0.015339807607233524,-1.293145775794983,0.43597152829170227,-1.3537670373916626,-0.0715857669711113,0.0,0.015339807607233524,-1.293145775794983,0.4109715223312378,-1.3537670373916626,-0.0715857669711113,0.003,0.0,0.0,0.0,0.0,0.0,0.0,-3.1,3.1,-1.571,1.571,-1.571,1.571,-1.745,1.745,-2.617,2.617,0.003,0.03,-0.05000000074505806,-0.02500000037252903,-0.02500000037252903,-0.02500000037252903,-0.05000000074505806,-0.0005000000237487257,0.05000000074505806,0.02500000037252903,0.02500000037252903,0.02500000037252903,0.05000000074505806,0.0005000000237487257,-0.079377590660831,-4.8839881336325925,0.28174028938160584,0.14,0.0,0.26,-0.09877645969390869,-0.001515330746769905,0.4095362722873688,0.0,0.0
0.0,69.0,0.0,0.0,-0.025,0.0,0.0,0.0,0.015339807607233524,-1.293145775794983,0.43597152829170227,-1.3537670373916626,-0.0715857669711113,0.0,0.015339807607233524,-1.293145775794983,0.4109715223312378,-1.3537670373916626,-0.0715857669711113,0.003,0.0,0.0,0.0,0.0,0.0,0.0,-3.1,3.1,-1.571,1.571,-1.571,1.571,-1.745,1.745,-2.617,2.617,0.003,0.03,-0.05000000074505806,-0.02500000037252903,-0.02500000037252903,-0.02500000037252903,-0.05000000074505806,-0.0005000000237487257,0.05000000074505806,0.02500000037252903,0.02500000037252903,0.02500000037252903,0.05000000074505806,0.0005000000237487257,-0.079377590660831,-4.963365724293424,0.28174028938160584,0.14,0.0,0.26,-0.09877645969390869,-0.001515330746769905,0.4095362722873688,0.0,0.0
0.0,70.0,0.0,0.0,-0.025,0.0,0.0,0.0,0.015339807607233524,-1.293145775794983,0.43597152829170227,-1.3537670373916626,-0.0715857669711113,0.0,0.015339807607233524,-1.293145775794983,0.4109715223312378,-1.3537670373916626,-0.0715857669711113,0.003,0.0,0.0,0.0,0.0,0.0,0.0,-3.1,3.1,-1.571,1.571,-1.571,1.571,-1.745,1.745,-2.617,2.617,0.003,0.03,-0.05000000074505806,-0.02500000037252903,-0.02500000037252903,-0.02500000037252903,-0.05000000074505806,-0.0005000000237487257,0.05000000074505806,0.02500000037252903,0.02500000037252903,0.02500000037252903,0.05000000074505806,0.0005000000237487257,-0.079377590660831,-5.042743314954255,0.28174028938160584,0.14,0.0,0.26,-0.09877645969390869,-0.001515330746769905,0.4095362722873688,0.0,0.0
0.0,71.0,0.0,0.0,-0.025,0.0,0.0,0.0,0.015339807607233524,-1.293145775794983,0.43597152829170227,-1.3537670373916626,-0.0715857669711113,0.0,0.015339807607233524,-1.293145775794983,0.4109715223312378,-1.3537670373916626,-0.0715857669711113,0.003,0.0,0.0,0.0,0.0,0.0,0.0,-3.1,3.1,-1.571,1.571,-1.571,1.571,-1.745,1.745,-2.617,2.617,0.003,0.03,-0.05000000074505806,-0.02500000037252903,-0.02500000037252903,-0.02500000037252903,-0.05000000074505806,-0.0005000000237487257,0.05000000074505806,0.02500000037252903,0.02500000037252903,0.02500000037252903,0.05000000074505806,0.0005000000237487257,-0.079377590660831,-5.122120905615087,0.28174028938160584,0.14,0.0,0.26,-0.09877645969390869,-0.001515330746769905,0.4095362722873688,0.0,0.0
0.0,72.0,0.0,0.0,-0.025,0.0,0.0,0.0,0.015339807607233524,-1.293145775794983,0.43597152829170227,-1.3537670373916626,-0.0715857669711113,0.0,0.015339807607233524,-1.293145775794983,0.4109715223312378,-1.3537670373916626,-0.0715857669711113,0.003,0.0,0.0,0.0,0.0,0.0,0.0,-3.1,3.1,-1.571,1.571,-1.571,1.571,-1.745,1.745,-2.617,2.617,0.003,0.03,-0.05000000074505806,-0.02500000037252903,-0.02500000037252903,-0.02500000037252903,-0.05000000074505806,-0.0005000000237487257,0.05000000074505806,0.02500000037252903,0.02500000037252903,0.02500000037252903,0.05000000074505806,0.0005000000237487257,-0.079377590660831,-5.201498496275918,0.28174028938160584,0.14,0.0,0.26,-0.09877645969390869,-0.001515330746769905,0.4095362722873688,0.0,0.0
0.0,73.0,0.0,0.0,-0.025,0.0,0.0,0.0,0.015339807607233524,-1.293145775794983,0.43597152829170227,-1.3537670373916626,-0.0715857669711113,0.0,0.015339807607233524,-1.293145775794983,0.4109715223312378,-1.3537670373916626,-0.0715857669711113,0.003,0.0,0.0,0.0,0.0,0.0,0.0,-3.1,3.1,-1.571,1.571,-1.571,1.571,-1.745,1.745,-2.617,2.617,0.003,0.03,-0.05000000074505806,-0.02500000037252903,-0.02500000037252903,-0.02500000037252903,-0.05000000074505806,-0.0005000000237487257,0.05000000074505806,0.02500000037252903,0.02500000037252903,0.02500000037252903,0.05000000074505806,0.0005000000237487257,-0.079377590660831,-5.2808760869367495,0.28174028938160584,0.14,0.0,0.26,-0.09877645969390869,-0.001515330746769905,0.4095362722873688,0.0,0.0
0.0,74.0,0.0,0.0,-0.025,0.0,0.0,0.0,0.015339807607233524,-1.293145775794983,0.43597152829170227,-1.3537670373916626,-0.0715857669711113,0.0,0.015339807607233524,-1.293145775794983,0.4109715223312378,-1.3537670373916626,-0.0715857669711113,0.003,0.0,0.0,0.0,0.0,0.0,0.0,-3.1,3.1,-1.571,1.571,-1.571,1.571,-1.745,1.745,-2.617,2.617,0.003,0.03,-0.05000000074505806,-0.02500000037252903,-0.02500000037252903,-0.02500000037252903,-0.05000000074505806,-0.0005000000237487257,0.05000000074505806,0.02500000037252903,0.02500000037252903,0.02500000037252903,0.05000000074505806,0.0005000000237487257,-0.079377590660831,-5.360253677597581,0.28174028938160584,0.14,0.0,0.26,-0.09877645969390869,-0.001515330746769905,0.4095362722873688,0.0,0.0
0.0,75.0,0.0,0.0,-0.025,0.0,0.0,0.0,0.015339807607233524,-1.293145775794983,0.43597152829170227,-1.3537670373916626,-0.0715857669711113,0.0,0.015339807607233524,-1.293145775794983,0.4109715223312378,-1.3537670373916626,-0.0715857669711113,0.003,0.0,0.0,0.0,0.0,0.0,0.0,-3.1,3.1,-1.571,1.571,-1.571,1.571,-1.745,1.745,-2.617,2.617,0.003,0.03,-0.05000000074505806,-0.02500000037252903,-0.02500000037252903,-0.02500000037252903,-0.05000000074505806,-0.0005000000237487257,0.05000000074505806,0.02500000037252903,0.02500000037252903,0.02500000037252903,0.05000000074505806,0.0005000000237487257,-0.079377590660831,-5.439631268258412,0.28174028938160584,0.14,0.0,0.26,-0.09877645969390869,-0.001515330746769905,0.4095362722873688,0.0,0.0
0.0,76.0,0.0,0.0,-0.025,0.0,0.0,0.0,0.015339807607233524,-1.293145775794983,0.43597152829170227,-1.3537670373916626,-0.0715857669711113,0.0,0.015339807607233524,-1.293145775794983,0.4109715223312378,-1.3537670373916626,-0.0715857669711113,0.003,0.0,0.0,0.0,0.0,0.0,0.0,-3.1,3.1,-1.571,1.571,-1.571,1.571,-1.745,1.745,-2.617,2.617,0.003,0.03,-0.05000000074505806,-0.02500000037252903,-0.02500000037252903,-0.02500000037252903,-0.05000000074505806,-0.0005000000237487257,0.05000000074505806,0.02500000037252903,0.02500000037252903,0.02500000037252903,0.05000000074505806,0.0005000000237487257,-0.079377590660831,-5.519008858919244,0.28174028938160584,0.14,0.0,0.26,-0.09877645969390869,-0.001515330746769905,0.4095362722873688,0.0,0.0
0.0,77.0,0.0,0.0,-0.025,0.0,0.0,0.0,0.015339807607233524,-1.293145775794983,0.43597152829170227,-1.3537670373916626,-0.0715857669711113,0.0,0.015339807607233524,-1.293145775794983,0.4109715223312378,-1.3537670373916626,-0.0715857669711113,0.003,0.0,0.0,0.0,0.0,0.0,0.0,-3.1,3.1,-1.571,1.571,-1.571,1.571,-1.745,1.745,-2.617,2.617,0.003,0.03,-0.05000000074505806,-0.02500000037252903,-0.02500000037252903,-0.02500000037252903,-0.05000000074505806,-0.0005000000237487257,0.05000000074505806,0.02500000037252903,0.02500000037252903,0.02500000037252903,0.05000000074505806,0.0005000000237487257,-0.079377590660831,-5.598386449580075,0.28174028938160584,0.14,0.0,0.26,-0.09877645969390869,-0.001515330746769905,0.4095362722873688,0.0,0.0
0.0,78.0,0.0,0.0,-0.025,0.0,0.0,0.0,0.015339807607233524,-1.293145775794983,0.43597152829170227,-1.3537670373916626,-0.0715857669711113,0.0,0.015339807607233524,-1.293145775794983,0.4109715223312378,-1.3537670373916626,-0.0715857669711113,0.003,0.0,0.0,0.0,0.0,0.0,0.0,-3.1,3.1,-1.571,1.571,-1.571,1.571,-1.745,1.745,-2.617,2.617,0.003,0.03,-0.05000000074505806,-0.02500000037252903,-0.02500000037252903,-0.02500000037252903,-0.05000000074505806,-0.0005000000237487257,0.05000000074505806,0.02500000037252903,0.02500000037252903,0.02500000037252903,0.05000000074505806,0.0005000000237487257,-0.079377590660831,-5.677764040240906,0.28174028938160584,0.14,0.0,0.26,-0.09877645969390869,-0.001515330746769905,0.4095362722873688,0.0,0.0
0.0,79.0,0.0,0.0,-0.025,0.0,0.0,0.0,0.015339807607233524,-1.293145775794983,0.43597152829170227,-1.3537670373916626,-0.0715857669711113,0.0,0.015339807607233524,-1.293145775794983,0.4109715223312378,-1.3537670373916626,-0.0715857669711113,0.003,0.0,0.0,0.0,0.0,0.0,0.0,-3.1,3.1,-1.571,1.571,-1.571,1.571,-1.745,1.745,-2.617,2.617,0.003,0.03,-0.05000000074505806,-0.02500000037252903,-0.02500000037252903,-0.02500000037252903,-0.05000000074505806,-0.0005000000237487257,0.05000000074505806,0.02500000037252903,0.02500000037252903,0.02500000037252903,0.05000000074505806,0.0005000000237487257,-0.079377590660831,-5.757141630901738,0.28174028938160584,0.14,0.0,0.26,-0.09877645969390869,-0.001515330746769905,0.4095362722873688,0.0,0.0
0.0,80.0,0.0,0.0,-0.025,0.0,0.0,0.0,0.015339807607233524,-1.293145775794983,0.43597152829170227,-1.3537670373916626,-0.0715857669711113,0.0,0.015339807607233524,-1.293145775794983,0.4109715223312378,-1.3537670373916626,-0.0715857669711113,0.003,0.0,0.0,0.0,0.0,0.0,0.0,-3.1,3.1,-1.571,1.571,-1.571,1.571,-1.745,1.745,-2.617,2.617,0.003,0.03,-0.05000000074505806,-0.02500000037252903,-0.02500000037252903,-0.02500000037252903,-0.05000000074505806,-0.0005000000237487257,0.05000000074505806,0.02500000037252903,0.02500000037252903,0.02500000037252903,0.05000000074505806,0.0005000000237487257,-0.079377590660831,-5.836519221562569,0.28174028938160584,0.14,0.0,0.26,-0.09877645969390869,-0.001515330746769905,0.4095362722873688,0.0,0.0
0.0,81.0,0.0,0.0,-0.025,0.0,0.0,0.0,0.015339807607233524,-1.293145775794983,0.43597152829170227,-1.3537670373916626,-0.0715857669711113,0.0,0.015339807607233524,-1.293145775794983,0.4109715223312378,-1.3537670373916626,-0.0715857669711113,0.003,0.0,0.0,0.0,0.0,0.0,0.0,-3.1,3.1,-1.571,1.571,-1.571,1.571,-1.745,1.745,-2.617,2.617,0.003,0.03,-0.05000000074505806,-0.02500000037252903,-0.02500000037252903,-0.02500000037252903,-0.05000000074505806,-0.0005000000237487257,0.05000000074505806,0.02500000037252903,0.02500000037252903,0.02500000037252903,0.05000000074505806,0.0005000000237487257,-0.079377590660831,-5.915896812223401,0.28174028938160584,0.14,0.0,0.26,-0.09877645969390869,-0.001515330746769905,0.4095362722873688,0.0,0.0
0.0,82.0,0.0,0.0,-0.025,0.0,0.0,0.0,0.015339807607233524,-1.293145775794983,0.43597152829170227,-1.3537670373916626,-0.0715857669711113,0.0,0.015339807607233524,-1.293145775794983,0.4109715223312378,-1.3537670373916626,-0.0715857669711113,0.003,0.0,0.0,0.0,0.0,0.0,0.0,-3.1,3.1,-1.571,1.571,-1.571,1.571,-1.745,1.745,-2.617,2.617,0.003,0.03,-0.05000000074505806,-0.02500000037252903,-0.02500000037252903,-0.02500000037252903,-0.05000000074505806,-0.0005000000237487257,0.05000000074505806,0.02500000037252903,0.02500000037252903,0.02500000037252903,0.05000000074505806,0.0005000000237487257,-0.079377590660831,-5.995274402884232,0.28174028938160584,0.14,0.0,0.26,-0.09877645969390869,-0.001515330746769905,0.4095362722873688,0.0,0.0
0.0,83.0,0.0,0.0,-0.025,0.0,0.0,0.0,0.015339807607233524,-1.293145775794983,0.43597152829170227,-1.3537670373916626,-0.0715857669711113,0.0,0.015339807607233524,-1.293145775794983,0.4109715223312378,-1.3537670373916626,-0.0715857669711113,0.003,0.0,0.0,0.0,0.0,0.0,0.0,-3.1,3.1,-1.571,1.571,-1.571,1.571,-1.745,1.745,-2.617,2.617,0.003,0.03,-0.05000000074505806,-0.02500000037252903,-0.02500000037252903,-0.02500000037252903,-0.05000000074505806,-0.0005000000237487257,0.05000000074505806,0.02500000037252903,0.02500000037252903,0.02500000037252903,0.05000000074505806,0.0005000000237487257,-0.079377590660831,-6.074651993545063,0.28174028938160584,0.14,0.0,0.26,-0.09877645969390869,-0.001515330746769905,0.4095362722873688,0.0,0.0
0.0,84.0,0.0,0.0,-0.025,0.0,0.0,0.0,0.015339807607233524,-1.293145775794983,0.43597152829170227,-1.3537670373916626,-0.0715857669711113,0.0,0.015339807607233524,-1.293145775794983,0.4109715223312378,-1.3537670373916626,-0.0715857669711113,0.003,0.0,0.0,0.0,0.0,0.0,0.0,-3.1,3.1,-1.571,1.571,-1.571,1.571,-1.745,1.745,-2.617,2.617,0.003,0.03,-0.05000000074505806,-0.02500000037252903,-0.02500000037252903,-0.02500000037252903,-0.05000000074505806,-0.0005000000237487257,0.05000000074505806,0.02500000037252903,0.02500000037252903,0.02500000037252903,0.05000000074505806,0.0005000000237487257,-0.079377590660831,-6.154029584205895,0.28174028938160584,0.14,0.0,0.26,-0.09877645969390869,-0.001515330746769905,0.4095362722873688,0.0,0.0
0.0,85.0,0.0,0.0,-0.025,0.0,0.0,0.0,0.015339807607233524,-1.293145775794983,0.43597152829170227,-1.3537670373916626,-0.0715857669711113,0.0,0.015339807607233524,-1.293145775794983,0.4109715223312378,-1.3537670373916626,-0.0715857669711113,0.003,0.0,0.0,0.0,0.0,0.0,0.0,-3.1,3.1,-1.571,1.571,-1.571,1.571,-1.745,1.745,-2.617,2.617,0.003,0.03,-0.05000000074505806,-0.02500000037252903,-0.02500000037252903,-0.02500000037252903,-0.05000000074505806,-0.0005000000237487257,0.05000000074505806,0.02500000037252903,0.02500000037252903,0.02500000037252903,0.05000000074505806,0.0005000000237487257,-0.079377590660831,-6.233407174866726,0.28174028938160584,0.14,0.0,0.26,-0.09877645969390869,-0.001515330746769905,0.4095362722873688,0.0,0.0
0.0,86.0,0.0,0.0,-0.025,0.0,0.0,0.0,0.015339807607233524,-1.293145775794983,0.43597152829170227,-1.3537670373916626,-0.0715857669711113,0.0,0.015339807607233524,-1.293145775794983,0.4109715223312378,-1.3537670373916626,-0.0715857669711113,0.003,0.0,0.0,0.0,0.0,0.0,0.0,-3.1,3.1,-1.571,1.571,-1.571,1.571,-1.745,1.745,-2.617,2.617,0.003,0.03,-0.05000000074505806,-0.02500000037252903,-0.02500000037252903,-0.02500000037252903,-0.05000000074505806,-0.0005000000237487257,0.05000000074505806,0.02500000037252903,0.02500000037252903,0.02500000037252903,0.05000000074505806,0.0005000000237487257,-0.079377590660831,-6.3127847655275575,0.28174028938160584,0.14,0.0,0.26,-0.09877645969390869,-0.001515330746769905,0.4095362722873688,0.0,0.0
0.0,87.0,0.0,0.0,-0.025,0.0,0.0,0.0,0.015339807607233524,-1.293145775794983,0.43597152829170227,-1.3537670373916626,-0.0715857669711113,0.0,0.015339807607233524,-1.293145775794983,0.4109715223312378,-1.3537670373916626,-0.0715857669711113,0.003,0.0,0.0,0.0,0.0,0.0,0.0,-3.1,3.1,-1.571,1.571,-1.571,1.571,-1.745,1.745,-2.617,2.617,0.003,0.03,-0.05000000074505806,-0.02500000037252903,-0.02500000037252903,-0.02500000037252903,-0.05000000074505806,-0.0005000000237487257,0.05000000074505806,0.02500000037252903,0.02500000037252903,0.02500000037252903,0.05000000074505806,0.0005000000237487257,-0.079377590660831,-6.392162356188389,0.28174028938160584,0.14,0.0,0.26,-0.09877645969390869,-0.001515330746769905,0.4095362722873688,0.0,0.0
0.0,88.0,0.0,0.0,-0.025,0.0,0.0,0.0,0.015339807607233524,-1.293145775794983,0.43597152829170227,-1.3537670373916626,-0.0715857669711113,0.0,0.015339807607233524,-1.293145775794983,0.4109715223312378,-1.3537670373916626,-0.0715857669711113,0.003,0.0,0.0,0.0,0.0,0.0,0.0,-3.1,3.1,-1.571,1.571,-1.571,1.571,-1.745,1.745,-2.617,2.617,0.003,0.03,-0.05000000074505806,-0.02500000037252903,-0.02500000037252903,-0.02500000037252903,-0.05000000074505806,-0.0005000000237487257,0.05000000074505806,0.02500000037252903,0.02500000037252903,0.02500000037252903,0.05000000074505806,0.0005000000237487257,-0.079377590660831,-6.47153994684922,0.28174028938160584,0.14,0.0,0.26,-0.09877645969390869,-0.001515330746769905,0.4095362722873688,0.0,0.0
0.0,89.0,0.0,0.0,-0.025,0.0,0.0,0.0,0.015339807607233524,-1.293145775794983,0.43597152829170227,-1.3537670373916626,-0.0715857669711113,0.0,0.015339807607233524,-1.293145775794983,0.4109715223312378,-1.3537670373916626,-0.0715857669711113,0.003,0.0,0.0,0.0,0.0,0.0,0.0,-3.1,3.1,-1.571,1.571,-1.571,1.571,-1.745,1.745,-2.617,2.617,0.003,0.03,-0.05000000074505806,-0.02500000037252903,-0.02500000037252903,-0.02500000037252903,-0.05000000074505806,-0.0005000000237487257,0.05000000074505806,0.02500000037252903,0.02500000037252903,0.02500000037252903,0.05000000074505806,0.0005000000237487257,-0.079377590660831,-6.550917537510052,0.28174028938160584,0.14,0.0,0.26,-0.09877645969390869,-0.001515330746769905,0.4095362722873688,0.0,0.0
0.0,90.0,0.0,0.0,-0.025,0.0,0.0,0.0,0.015339807607233524,-1.293145775794983,0.43597152829170227,-1.3537670373916626,-0.0715857669711113,0.0,0.015339807607233524,-1.293145775794983,0.4109715223312378,-1.3537670373916626,-0.0715857669711113,0.003,0.0,0.0,0.0,0.0,0.0,0.0,-3.1,3.1,-1.571,1.571,-1.571,1.571,-1.745,1.745,-2.617,2.617,0.003,0.03,-0.05000000074505806,-0.02500000037252903,-0.02500000037252903,-0.02500000037252903,-0.05000000074505806,-0.0005000000237487257,0.05000000074505806,0.02500000037252903,0.02500000037252903,0.02500000037252903,0.05000000074505806,0.0005000000237487257,-0.079377590660831,-6.630295128170883,0.28174028938160584,0.14,0.0,0.26,-0.09877645969390869,-0.001515330746769905,0.4095362722873688,0.0,0.0
0.0,91.0,0.0,0.0,-0.025,0.0,0.0,0.0,0.015339807607233524,-1.293145775794983,0.43597152829170227,-1.3537670373916626,-0.0715857669711113,0.0,0.015339807607233524,-1.293145775794983,0.4109715223312378,-1.3537670373916626,-0.0715857669711113,0.003,0.0,0.0,0.0,0.0,0.0,0.0,-3.1,3.1,-1.571,1.571,-1.571,1.571,-1.745,1.745,-2.617,2.617,0.003,0.03,-0.05000000074505806,-0.02500000037252903,-0.02500000037252903,-0.02500000037252903,-0.05000000074505806,-0.0005000000237487257,0.05000000074505806,0.02500000037252903,0.02500000037252903,0.02500000037252903,0.05000000074505806,0.0005000000237487257,-0.079377590660831,-6.7096727188317145,0.28174028938160584,0.14,0.0,0.26,-0.09877645969390869,-0.001515330746769905,0.4095362722873688,0.0,0.0
0.0,92.0,0.0,0.0,-0.025,0.0,0.0,0.0,0.015339807607233524,-1.293145775794983,0.43597152829170227,-1.3537670373916626,-0.0715857669711113,0.0,0.015339807607233524,-1.293145775794983,0.4109715223312378,-1.3537670373916626,-0.0715857669711113,0.003,0.0,0.0,0.0,0.0,0.0,0.0,-3.1,3.1,-1.571,1.571,-1.571,1.571,-1.745,1.745,-2.617,2.617,0.003,0.03,-0.05000000074505806,-0.02500000037252903,-0.02500000037252903,-0.02500000037252903,-0.05000000074505806,-0.0005000000237487257,0.05000000074505806,0.02500000037252903,0.02500000037252903,0.02500000037252903,0.05000000074505806,0.0005000000237487257,-0.079377590660831,-6.789050309492546,0.28174028938160584,0.14,0.0,0.26,-0.09877645969390869,-0.001515330746769905,0.4095362722873688,0.0,0.0
0.0,93.0,0.0,0.0,-0.025,0.0,0.0,0.0,0.015339807607233524,-1.293145775794983,0.43597152829170227,-1.3537670373916626,-0.0715857669711113,0.0,0.015339807607233524,-1.293145775794983,0.4109715223312378,-1.3537670373916626,-0.0715857669711113,0.003,0.0,0.0,0.0,0.0,0.0,0.0,-3.1,3.1,-1.571,1.571,-1.571,1.571,-1.745,1.745,-2.617,2.617,0.003,0.03,-0.05000000074505806,-0.02500000037252903,-0.02500000037252903,-0.02500000037252903,-0.05000000074505806,-0.0005000000237487257,0.05000000074505806,0.02500000037252903,0.02500000037252903,0.02500000037252903,0.05000000074505806,0.0005000000237487257,-0.079377590660831,-6.868427900153377,0.28174028938160584,0.14,0.0,0.26,-0.09877645969390869,-0.001515330746769905,0.4095362722873688,0.0,0.0
0.0,94.0,0.0,0.0,-0.025,0.0,0.0,0.0,0.015339807607233524,-1.293145775794983,0.43597152829170227,-1.3537670373916626,-0.0715857669711113,0.0,0.015339807607233524,-1.293145775794983,0.4109715223312378,-1.3537670373916626,-0.0715857669711113,0.003,0.0,0.0,0.0,0.0,0.0,0.0,-3.1,3.1,-1.571,1.571,-1.571,1.571,-1.745,1.745,-2.617,2.617,0.003,0.03,-0.05000000074505806,-0.02500000037252903,-0.02500000037252903,-0.02500000037252903,-0.05000000074505806,-0.0005000000237487257,0.05000000074505806,0.02500000037252903,0.02500000037252903,0.02500000037252903,0.05000000074505806,0.0005000000237487257,-0.079377590660831,-6.947805490814209,0.28174028938160584,0.14,0.0,0.26,-0.09877645969390869,-0.001515330746769905,0.4095362722873688,0.0,0.0
0.0,95.0,0.0,0.0,-0.025,0.0,0.0,0.0,0.015339807607233524,-1.293145775794983,0.43597152829170227,-1.3537670373916626,-0.0715857669711113,0.0,0.015339807607233524,-1.293145775794983,0.4109715223312378,-1.3537670373916626,-0.0715857669711113,0.003,0.0,0.0,0.0,0.0,0.0,0.0,-3.1,3.1,-1.571,1.571,-1.571,1.571,-1.745,1.745,-2.617,2.617,0.003,0.03,-0.05000000074505806,-0.02500000037252903,-0.02500000037252903,-0.02500000037252903,-0.05000000074505806,-0.0005000000237487257,0.05000000074505806,0.02500000037252903,0.02500000037252903,0.02500000037252903,0.05000000074505806,0.0005000000237487257,-0.079377590660831,-7.02718308147504,0.28174028938160584,0.14,0.0,0.26,-0.09877645969390869,-0.001515330746769905,0.4095362722873688,0.0,0.0
0.0,96.0,0.0,0.0,-0.025,0.0,0.0,0.0,0.015339807607233524,-1.293145775794983,0.43597152829170227,-1.3537670373916626,-0.0715857669711113,0.0,0.015339807607233524,-1.293145775794983,0.4109715223312378,-1.3537670373916626,-0.0715857669711113,0.003,0.0,0.0,0.0,0.0,0.0,0.0,-3.1,3.1,-1.571,1.571,-1.571,1.571,-1.745,1.745,-2.617,2.617,0.003,0.03,-0.05000000074505806,-0.02500000037252903,-0.02500000037252903,-0.02500000037252903,-0.05000000074505806,-0.0005000000237487257,0.05000000074505806,0.02500000037252903,0.02500000037252903,0.02500000037252903,0.05000000074505806,0.0005000000237487257,-0.079377590660831,-7.106560672135871,0.28174028938160584,0.14,0.0,0.26,-0.09877645969390869,-0.001515330746769905,0.4095362722873688,0.0,0.0
0.0,97.0,0.0,0.0,-0.025,0.0,0.0,0.0,0.015339807607233524,-1.293145775794983,0.43597152829170227,-1.3537670373916626,-0.0715857669711113,0.0,0.015339807607233524,-1.293145775794983,0.4109715223312378,-1.3537670373916626,-0.0715857669711113,0.003,0.0,0.0,0.0,0.0,0.0,0.0,-3.1,3.1,-1.571,1.571,-1.571,1.571,-1.745,1.745,-2.617,2.617,0.003,0.03,-0.05000000074505806,-0.02500000037252903,-0.02500000037252903,-0.02500000037252903,-0.05000000074505806,-0.0005000000237487257,0.05000000074505806,0.02500000037252903,0.02500000037252903,0.02500000037252903,0.05000000074505806,0.0005000000237487257,-0.079377590660831,-7.185938262796703,0.28174028938160584,0.14,0.0,0.26,-0.09877645969390869,-0.001515330746769905,0.4095362722873688,0.0,0.0
0.0,98.0,0.0,0.0,-0.025,0.0,0.0,0.0,0.015339807607233524,-1.293145775794983,0.43597152829170227,-1.3537670373916626,-0.0715857669711113,0.0,0.015339807607233524,-1.293145775794983,0.4109715223312378,-1.3537670373916626,-0.0715857669711113,0.003,0.0,0.0,0.0,0.0,0.0,0.0,-3.1,3.1,-1.571,1.571,-1.571,1.571,-1.745,1.745,-2.617,2.617,0.003,0.03,-0.05000000074505806,-0.02500000037252903,-0.02500000037252903,-0.02500000037252903,-0.05000000074505806,-0.0005000000237487257,0.05000000074505806,0.02500000037252903,0.02500000037252903,0.02500000037252903,0.05000000074505806,0.0005000000237487257,-0.079377590660831,-7.265315853457534,0.28174028938160584,0.14,0.0,0.26,-0.09877645969390869,-0.001515330746769905,0.4095362722873688,0.0,0.0
0.0,99.0,0.0,0.0,-0.025,0.0,0.0,0.0,0.015339807607233524,-1.293145775794983,0.43597152829170227,-1.3537670373916626,-0.0715857669711113,0.0,0.015339807607233524,-1.293145775794983,0.4109715223312378,-1.3537670373916626,-0.0715857669711113,0.003,0.0,0.0,0.0,0.0,0.0,0.0,-3.1,3.1,-1.571,1.571,-1.571,1.571,-1.745,1.745,-2.617,2.617,0.003,0.03,-0.05000000074505806,-0.02500000037252903,-0.02500000037252903,-0.02500000037252903,-0.05000000074505806,-0.0005000000237487257,0.05000000074505806,0.02500000037252903,0.02500000037252903,0.02500000037252903,0.05000000074505806,0.0005000000237487257,-0.079377590660831,-7.3446934441183656,0.28174028938160584,0.14,0.0,0.26,-0.09877645969390869,-0.001515330746769905,0.4095362722873688,1.0,0.0
