PierreExeter/WidowX-reacher/tests/Check_env_consistency/logs/11_action4_+0.025.csv
episode,timestep,action_1,action_2,action_3,action_4,action_5,action_6,current_joint_pos_1,current_joint_pos_2,current_joint_pos_3,current_joint_pos_4,current_joint_pos_5,current_joint_pos_6,new_joint_pos_1,new_joint_pos_2,new_joint_pos_3,new_joint_pos_4,new_joint_pos_5,new_joint_pos_6,joint_vel_1,joint_vel_2,joint_vel_3,joint_vel_4,joint_vel_5,joint_vel_6,joint1_min,joint1_max,joint2_min,joint2_max,joint3_min,joint3_max,joint4_min,joint4_max,joint5_min,joint5_max,joint6_min,joint6_max,action_low1,action_low2,action_low3,action_low4,action_low5,action_low6,action_high1,action_high2,action_high3,action_high4,action_high5,action_high6,reward,return,dist,target_x,target_y,target_z,tip_x,tip_y,tip_z,done,est_vel,est_acc
0.0,0.0,0.0,0.0,0.0,0.025,0.0,0.0,0.015339807607233524,-1.293145775794983,1.0109710693359375,-1.3537670373916626,-0.0715857669711113,0.0,0.015339807607233524,-1.293145775794983,1.0109710693359375,-1.3287670612335205,-0.0715857669711113,0.003,0.0,0.0,0.0,0.0,0.0,0.0,-3.1,3.1,-1.571,1.571,-1.571,1.571,-1.745,1.745,-2.617,2.617,0.003,0.03,-0.05000000074505806,-0.02500000037252903,-0.02500000037252903,-0.02500000037252903,-0.05000000074505806,-0.0005000000237487257,0.05000000074505806,0.02500000037252903,0.02500000037252903,0.02500000037252903,0.05000000074505806,0.0005000000237487257,-0.028180955633857373,-0.028180955633857373,0.16787184288574833,0.14,0.0,0.26,0.008451241999864578,0.00012965059431735426,0.364287406206131,0.0,0.0,0.0
0.0,1.0,0.0,0.0,0.0,0.025,0.0,0.0,0.015339807607233524,-1.293145775794983,1.0109710693359375,-1.3287670612335205,-0.0715857669711113,0.0,0.015339807607233524,-1.293145775794983,1.0109710693359375,-1.3037670850753784,-0.0715857669711113,0.003,0.0,0.0,0.0,0.0,0.0,0.0,-3.1,3.1,-1.571,1.571,-1.571,1.571,-1.745,1.745,-2.617,2.617,0.003,0.03,-0.05000000074505806,-0.02500000037252903,-0.02500000037252903,-0.02500000037252903,-0.05000000074505806,-0.0005000000237487257,0.05000000074505806,0.02500000037252903,0.02500000037252903,0.02500000037252903,0.05000000074505806,0.0005000000237487257,-0.027452944049775024,-0.0556338996836324,0.16568929974435592,0.14,0.0,0.26,0.011312234215438366,0.00017354110605083406,0.3643665313720703,0.0,-0.5238103539341776,-125.71448494420264
0.0,2.0,0.0,0.0,0.0,0.025,0.0,0.0,0.015339807607233524,-1.293145775794983,1.0109710693359375,-1.3037670850753784,-0.0715857669711113,0.0,0.015339807607233524,-1.293145775794983,1.0109710693359375,-1.2787671089172363,-0.0715857669711113,0.003,0.0,0.0,0.0,0.0,0.0,0.0,-3.1,3.1,-1.571,1.571,-1.571,1.571,-1.745,1.745,-2.617,2.617,0.003,0.03,-0.05000000074505806,-0.02500000037252903,-0.02500000037252903,-0.02500000037252903,-0.05000000074505806,-0.0005000000237487257,0.05000000074505806,0.02500000037252903,0.02500000037252903,0.02500000037252903,0.05000000074505806,0.0005000000237487257,-0.026726104417651952,-0.08236000410128436,0.16348120508991837,0.14,0.0,0.26,0.014174310490489006,0.00021744825062341988,0.3643741011619568,0.0,-0.5299427170650128,-1.4717671514004493
0.0,3.0,0.0,0.0,0.0,0.025,0.0,0.0,0.015339807607233524,-1.293145775794983,1.0109710693359375,-1.2787671089172363,-0.0715857669711113,0.0,0.015339807607233524,-1.293145775794983,1.0109710693359375,-1.2537671327590942,-0.0715857669711113,0.003,0.0,0.0,0.0,0.0,0.0,0.0,-3.1,3.1,-1.571,1.571,-1.571,1.571,-1.745,1.745,-2.617,2.617,0.003,0.03,-0.05000000074505806,-0.02500000037252903,-0.02500000037252903,-0.02500000037252903,-0.05000000074505806,-0.0005000000237487257,0.05000000074505806,0.02500000037252903,0.02500000037252903,0.02500000037252903,0.05000000074505806,0.0005000000237487257,-0.026000892074035612,-0.10836089617531997,0.16124792114639994,0.14,0.0,0.26,0.017035681754350662,0.0002613445685710758,0.3643101155757904,0.0,-0.5359881464444238,-1.4509030510586385
0.0,4.0,0.0,0.0,0.0,0.025,0.0,0.0,0.015339807607233524,-1.293145775794983,1.0109710693359375,-1.2537671327590942,-0.0715857669711113,0.0,0.015339807607233524,-1.293145775794983,1.0109710693359375,-1.2287671566009521,-0.0715857669711113,0.003,0.0,0.0,0.0,0.0,0.0,0.0,-3.1,3.1,-1.571,1.571,-1.571,1.571,-1.745,1.745,-2.617,2.617,0.003,0.03,-0.05000000074505806,-0.02500000037252903,-0.02500000037252903,-0.02500000037252903,-0.05000000074505806,-0.0005000000237487257,0.05000000074505806,0.02500000037252903,0.02500000037252903,0.02500000037252903,0.05000000074505806,0.0005000000237487257,-0.025277758326953968,-0.13363865450227394,0.15898980573280153,0.14,0.0,0.26,0.019894558936357498,0.00030520264408551157,0.36417460441589355,0.0,-0.5419476992636185,-1.4302926766067259
0.0,5.0,0.0,0.0,0.0,0.025,0.0,0.0,0.015339807607233524,-1.293145775794983,1.0109710693359375,-1.2287671566009521,-0.0715857669711113,0.0,0.015339807607233524,-1.293145775794983,1.0109710693359375,-1.20376718044281,-0.0715857669711113,0.003,0.0,0.0,0.0,0.0,0.0,0.0,-3.1,3.1,-1.571,1.571,-1.571,1.571,-1.745,1.745,-2.617,2.617,0.003,0.03,-0.05000000074505806,-0.02500000037252903,-0.02500000037252903,-0.02500000037252903,-0.05000000074505806,-0.0005000000237487257,0.05000000074505806,0.02500000037252903,0.02500000037252903,0.02500000037252903,0.05000000074505806,0.0005000000237487257,-0.024557162190170397,-0.15819581669244434,0.15670724996046098,0.14,0.0,0.26,0.0227491557598114,0.00034899506135843694,0.3639676868915558,0.0,-0.5478133853617306,-1.4077646635469065
0.0,6.0,0.0,0.0,0.0,0.025,0.0,0.0,0.015339807607233524,-1.293145775794983,1.0109710693359375,-1.20376718044281,-0.0715857669711113,0.0,0.015339807607233524,-1.293145775794983,1.0109710693359375,-1.178767204284668,-0.0715857669711113,0.003,0.0,0.0,0.0,0.0,0.0,0.0,-3.1,3.1,-1.571,1.571,-1.571,1.571,-1.745,1.745,-2.617,2.617,0.003,0.03,-0.05000000074505806,-0.02500000037252903,-0.02500000037252903,-0.02500000037252903,-0.05000000074505806,-0.0005000000237487257,0.05000000074505806,0.02500000037252903,0.02500000037252903,0.02500000037252903,0.05000000074505806,0.0005000000237487257,-0.023839545358036396,-0.18203536205048074,0.15440060025154176,0.14,0.0,0.26,0.025597689673304558,0.00039269443368539214,0.36368945240974426,0.0,-0.5535959301406135,-1.3878107469318834
0.0,7.0,0.0,0.0,0.0,0.025,0.0,0.0,0.015339807607233524,-1.293145775794983,1.0109710693359375,-1.178767204284668,-0.0715857669711113,0.0,0.015339807607233524,-1.293145775794983,1.0109710693359375,-1.1537672281265259,-0.0715857669711113,0.003,0.0,0.0,0.0,0.0,0.0,0.0,-3.1,3.1,-1.571,1.571,-1.571,1.571,-1.745,1.745,-2.617,2.617,0.003,0.03,-0.05000000074505806,-0.02500000037252903,-0.02500000037252903,-0.02500000037252903,-0.05000000074505806,-0.0005000000237487257,0.05000000074505806,0.02500000037252903,0.02500000037252903,0.02500000037252903,0.05000000074505806,0.0005000000237487257,-0.02312536405921249,-0.20516072610969321,0.15207026027206139,0.14,0.0,0.26,0.028438378125429153,0.00043627346167340875,0.3633401095867157,0.0,-0.5592815950752894,-1.3645595843222225
0.0,8.0,0.0,0.0,0.0,0.025,0.0,0.0,0.015339807607233524,-1.293145775794983,1.0109710693359375,-1.1537672281265259,-0.0715857669711113,0.0,0.015339807607233524,-1.293145775794983,1.0109710693359375,-1.1287672519683838,-0.0715857669711113,0.003,0.0,0.0,0.0,0.0,0.0,0.0,-3.1,3.1,-1.571,1.571,-1.571,1.571,-1.745,1.745,-2.617,2.617,0.003,0.03,-0.05000000074505806,-0.02500000037252903,-0.02500000037252903,-0.02500000037252903,-0.05000000074505806,-0.0005000000237487257,0.05000000074505806,0.02500000037252903,0.02500000037252903,0.02500000037252903,0.05000000074505806,0.0005000000237487257,-0.022415055573292365,-0.2275757816829856,0.1497165841625181,0.14,0.0,0.26,0.03126944974064827,0.0004797049332410097,0.3629198372364044,0.0,-0.5648822662903896,-1.344161091624052
0.0,9.0,0.0,0.0,0.0,0.025,0.0,0.0,0.015339807607233524,-1.293145775794983,1.0109710693359375,-1.1287672519683838,-0.0715857669711113,0.0,0.015339807607233524,-1.293145775794983,1.0109710693359375,-1.1037672758102417,-0.0715857669711113,0.003,0.0,0.0,0.0,0.0,0.0,0.0,-3.1,3.1,-1.571,1.571,-1.571,1.571,-1.745,1.745,-2.617,2.617,0.003,0.03,-0.05000000074505806,-0.02500000037252903,-0.02500000037252903,-0.02500000037252903,-0.05000000074505806,-0.0005000000237487257,0.05000000074505806,0.02500000037252903,0.02500000037252903,0.02500000037252903,0.05000000074505806,0.0005000000237487257,-0.021709072390093336,-0.24928485407307893,0.14733998910714408,0.14,0.0,0.26,0.03408912941813469,0.0005229616654105484,0.3624289333820343,0.0,-0.5703828132897648,-1.3201312798500453
0.0,10.0,0.0,0.0,0.0,0.025,0.0,0.0,0.015339807607233524,-1.293145775794983,1.0109710693359375,-1.1037672758102417,-0.0715857669711113,0.0,0.015339807607233524,-1.293145775794983,1.0109710693359375,-1.0787672996520996,-0.0715857669711113,0.003,0.0,0.0,0.0,0.0,0.0,0.0,-3.1,3.1,-1.571,1.571,-1.571,1.571,-1.745,1.745,-2.617,2.617,0.003,0.03,-0.05000000074505806,-0.02500000037252903,-0.02500000037252903,-0.02500000037252903,-0.05000000074505806,-0.0005000000237487257,0.05000000074505806,0.02500000037252903,0.02500000037252903,0.02500000037252903,0.05000000074505806,0.0005000000237487257,-0.021007846970998962,-0.2702927010440779,0.14494083955531292,0.14,0.0,0.26,0.03689565882086754,0.000566016708035022,0.36186766624450684,0.0,-0.5757958924394768,-1.299138995930882
0.0,11.0,0.0,0.0,0.0,0.025,0.0,0.0,0.015339807607233524,-1.293145775794983,1.0109710693359375,-1.0787672996520996,-0.0715857669711113,0.0,0.015339807607233524,-1.293145775794983,1.0109710693359375,-1.0537673234939575,-0.0715857669711113,0.003,0.0,0.0,0.0,0.0,0.0,0.0,-3.1,3.1,-1.571,1.571,-1.571,1.571,-1.745,1.745,-2.617,2.617,0.003,0.03,-0.05000000074505806,-0.02500000037252903,-0.02500000037252903,-0.02500000037252903,-0.05000000074505806,-0.0005000000237487257,0.05000000074505806,0.02500000037252903,0.02500000037252903,0.02500000037252903,0.05000000074505806,0.0005000000237487257,-0.02031182520741657,-0.29060452625149447,0.14251956078874425,0.14,0.0,0.26,0.03968728333711624,0.0006088430527597666,0.36123642325401306,0.0,-0.5811069039764805,-1.2746427688808737
0.0,12.0,0.0,0.0,0.0,0.025,0.0,0.0,0.015339807607233524,-1.293145775794983,1.0109710693359375,-1.0537673234939575,-0.0715857669711113,0.0,0.015339807607233524,-1.293145775794983,1.0109710693359375,-1.0287673473358154,-0.0715857669711113,0.003,0.0,0.0,0.0,0.0,0.0,0.0,-3.1,3.1,-1.571,1.571,-1.571,1.571,-1.745,1.745,-2.617,2.617,0.003,0.03,-0.05000000074505806,-0.02500000037252903,-0.02500000037252903,-0.02500000037252903,-0.05000000074505806,-0.0005000000237487257,0.05000000074505806,0.02500000037252903,0.02500000037252903,0.02500000037252903,0.05000000074505806,0.0005000000237487257,-0.019621441109375828,-0.31022596736087027,0.14007655445996603,0.14,0.0,0.26,0.04246225580573082,0.0006514139240607619,0.360535591840744,0.0,-0.5863215189067739,-1.251507583270417
0.0,13.0,0.0,0.0,0.0,0.025,0.0,0.0,0.015339807607233524,-1.293145775794983,1.0109710693359375,-1.0287673473358154,-0.0715857669711113,0.0,0.015339807607233524,-1.293145775794983,1.0109710693359375,-1.0037673711776733,-0.0715857669711113,0.003,0.0,0.0,0.0,0.0,0.0,0.0,-3.1,3.1,-1.571,1.571,-1.571,1.571,-1.745,1.745,-2.617,2.617,0.003,0.03,-0.05000000074505806,-0.02500000037252903,-0.02500000037252903,-0.02500000037252903,-0.05000000074505806,-0.0005000000237487257,0.05000000074505806,0.02500000037252903,0.02500000037252903,0.02500000037252903,0.05000000074505806,0.0005000000237487257,-0.018937126798798297,-0.32916309415966855,0.1376122334634472,0.14,0.0,0.26,0.04521884769201279,0.0006937028374522924,0.3597656190395355,0.0,-0.5914370391645196,-1.2277248618589809
0.0,14.0,0.0,0.0,0.0,0.025,0.0,0.0,0.015339807607233524,-1.293145775794983,1.0109710693359375,-1.0037673711776733,-0.0715857669711113,0.0,0.015339807607233524,-1.293145775794983,1.0109710693359375,-0.9787673950195312,-0.0715857669711113,0.003,0.0,0.0,0.0,0.0,0.0,0.0,-3.1,3.1,-1.571,1.571,-1.571,1.571,-1.745,1.745,-2.617,2.617,0.003,0.03,-0.05000000074505806,-0.02500000037252903,-0.02500000037252903,-0.02500000037252903,-0.05000000074505806,-0.0005000000237487257,0.05000000074505806,0.02500000037252903,0.02500000037252903,0.02500000037252903,0.05000000074505806,0.0005000000237487257,-0.018259304229641168,-0.3474223983893097,0.13512699297194905,0.14,0.0,0.26,0.04795533046126366,0.0007356832502409816,0.3589269518852234,0.0,-0.5964577179595554,-1.2049629108085824
0.0,15.0,0.0,0.0,0.0,0.025,0.0,0.0,0.015339807607233524,-1.293145775794983,1.0109710693359375,-0.9787673950195312,-0.0715857669711113,0.0,0.015339807607233524,-1.293145775794983,1.0109710693359375,-0.9537674188613892,-0.0715857669711113,0.003,0.0,0.0,0.0,0.0,0.0,0.0,-3.1,3.1,-1.571,1.571,-1.571,1.571,-1.745,1.745,-2.617,2.617,0.003,0.03,-0.05000000074505806,-0.02500000037252903,-0.02500000037252903,-0.02500000037252903,-0.05000000074505806,-0.0005000000237487257,0.05000000074505806,0.02500000037252903,0.02500000037252903,0.02500000037252903,0.05000000074505806,0.0005000000237487257,-0.017588398771790654,-0.36501079716110035,0.1326212606326401,0.14,0.0,0.26,0.05066999793052673,0.0007773289689794183,0.3580201268196106,0.0,-0.6013757614341486,-1.1803304339023768
0.0,16.0,0.0,0.0,0.0,0.025,0.0,0.0,0.015339807607233524,-1.293145775794983,1.0109710693359375,-0.9537674188613892,-0.0715857669711113,0.0,0.015339807607233524,-1.293145775794983,1.0109710693359375,-0.9287674427032471,-0.0715857669711113,0.003,0.0,0.0,0.0,0.0,0.0,0.0,-3.1,3.1,-1.571,1.571,-1.571,1.571,-1.745,1.745,-2.617,2.617,0.003,0.03,-0.05000000074505806,-0.02500000037252903,-0.02500000037252903,-0.02500000037252903,-0.05000000074505806,-0.0005000000237487257,0.05000000074505806,0.02500000037252903,0.02500000037252903,0.02500000037252903,0.05000000074505806,0.0005000000237487257,-0.016924830712983237,-0.3819356278740836,0.1300954676880914,0.14,0.0,0.26,0.05336114764213562,0.0008186139748431742,0.3570457100868225,0.0,-0.6061903066916852,-1.1554908618087723
0.0,17.0,0.0,0.0,0.0,0.025,0.0,0.0,0.015339807607233524,-1.293145775794983,1.0109710693359375,-0.9287674427032471,-0.0715857669711113,0.0,0.015339807607233524,-1.293145775794983,1.0109710693359375,-0.903767466545105,-0.0715857669711113,0.003,0.0,0.0,0.0,0.0,0.0,0.0,-3.1,3.1,-1.571,1.571,-1.571,1.571,-1.745,1.745,-2.617,2.617,0.003,0.03,-0.05000000074505806,-0.02500000037252903,-0.02500000037252903,-0.02500000037252903,-0.05000000074505806,-0.0005000000237487257,0.05000000074505806,0.02500000037252903,0.02500000037252903,0.02500000037252903,0.05000000074505806,0.0005000000237487257,-0.01626902215822034,-0.39820465003230393,0.12755007706081695,0.14,0.0,0.26,0.05602710694074631,0.0008595124236308038,0.35600435733795166,0.0,-0.6108937505458711,-1.1288265250046337
0.0,18.0,0.0,0.0,0.0,0.025,0.0,0.0,0.015339807607233524,-1.293145775794983,1.0109710693359375,-0.903767466545105,-0.0715857669711113,0.0,0.015339807607233524,-1.293145775794983,1.0109710693359375,-0.8787674903869629,-0.0715857669711113,0.003,0.0,0.0,0.0,0.0,0.0,0.0,-3.1,3.1,-1.571,1.571,-1.571,1.571,-1.745,1.745,-2.617,2.617,0.003,0.03,-0.05000000074505806,-0.02500000037252903,-0.02500000037252903,-0.02500000037252903,-0.05000000074505806,-0.0005000000237487257,0.05000000074505806,0.02500000037252903,0.02500000037252903,0.02500000037252903,0.05000000074505806,0.0005000000237487257,-0.015621368410093843,-0.41382601844239775,0.12498547279621677,0.14,0.0,0.26,0.05866619944572449,0.000899998820386827,0.3548966348171234,0.0,-0.6155050235040416,-1.1067055099609036
0.0,19.0,0.0,0.0,0.0,0.025,0.0,0.0,0.015339807607233524,-1.293145775794983,1.0109710693359375,-0.8787674903869629,-0.0715857669711113,0.0,0.015339807607233524,-1.293145775794983,1.0109710693359375,-0.8537675142288208,-0.0715857669711113,0.003,0.0,0.0,0.0,0.0,0.0,0.0,-3.1,3.1,-1.571,1.571,-1.571,1.571,-1.745,1.745,-2.617,2.617,0.003,0.03,-0.05000000074505806,-0.02500000037252903,-0.02500000037252903,-0.02500000037252903,-0.05000000074505806,-0.0005000000237487257,0.05000000074505806,0.02500000037252903,0.02500000037252903,0.02500000037252903,0.05000000074505806,0.0005000000237487257,-0.014982288329417906,-0.42880830677181564,0.12240215818937959,0.14,0.0,0.26,0.06127678602933884,0.0009400478447787464,0.35372331738471985,0.0,-0.6199955056409234,-1.0777157128516457
0.0,20.0,0.0,0.0,0.0,0.025,0.0,0.0,0.015339807607233524,-1.293145775794983,1.0109710693359375,-0.8537675142288208,-0.0715857669711113,0.0,0.015339807607233524,-1.293145775794983,1.0109710693359375,-0.8287675380706787,-0.0715857669711113,0.003,0.0,0.0,0.0,0.0,0.0,0.0,-3.1,3.1,-1.571,1.571,-1.571,1.571,-1.745,1.745,-2.617,2.617,0.003,0.03,-0.05000000074505806,-0.02500000037252903,-0.02500000037252903,-0.02500000037252903,-0.05000000074505806,-0.0005000000237487257,0.05000000074505806,0.02500000037252903,0.02500000037252903,0.02500000037252903,0.05000000074505806,0.0005000000237487257,-0.014352173441664243,-0.44316048021347987,0.11980055693386506,0.14,0.0,0.26,0.06385722756385803,0.0009796344675123692,0.3524850904941559,0.0,-0.6243843013234884,-1.0533109638156013
0.0,21.0,0.0,0.0,0.0,0.025,0.0,0.0,0.015339807607233524,-1.293145775794983,1.0109710693359375,-0.8287675380706787,-0.0715857669711113,0.0,0.015339807607233524,-1.293145775794983,1.0109710693359375,-0.8037675619125366,-0.0715857669711113,0.003,0.0,0.0,0.0,0.0,0.0,0.0,-3.1,3.1,-1.571,1.571,-1.571,1.571,-1.745,1.745,-2.617,2.617,0.003,0.03,-0.05000000074505806,-0.02500000037252903,-0.02500000037252903,-0.02500000037252903,-0.05000000074505806,-0.0005000000237487257,0.05000000074505806,0.02500000037252903,0.02500000037252903,0.02500000037252903,0.05000000074505806,0.0005000000237487257,-0.013731417275201841,-0.4568918974886817,0.11718113020107734,0.14,0.0,0.26,0.06640591472387314,0.0010187338339164853,0.3511827290058136,0.0,-0.6286624158690512,-1.026747490935076
0.0,22.0,0.0,0.0,0.0,0.025,0.0,0.0,0.015339807607233524,-1.293145775794983,1.0109710693359375,-0.8037675619125366,-0.0715857669711113,0.0,0.015339807607233524,-1.293145775794983,1.0109710693359375,-0.7787675857543945,-0.0715857669711113,0.003,0.0,0.0,0.0,0.0,0.0,0.0,-3.1,3.1,-1.571,1.571,-1.571,1.571,-1.745,1.745,-2.617,2.617,0.003,0.03,-0.05000000074505806,-0.02500000037252903,-0.02500000037252903,-0.02500000037252903,-0.05000000074505806,-0.0005000000237487257,0.05000000074505806,0.02500000037252903,0.02500000037252903,0.02500000037252903,0.05000000074505806,0.0005000000237487257,-0.013120411785695339,-0.47001230927437704,0.11454436601463792,0.14,0.0,0.26,0.06892125308513641,0.001057321671396494,0.34981706738471985,0.0,-0.6328234047454606,-0.9986373303382479
0.0,23.0,0.0,0.0,0.0,0.025,0.0,0.0,0.015339807607233524,-1.293145775794983,1.0109710693359375,-0.7787675857543945,-0.0715857669711113,0.0,0.015339807607233524,-1.293145775794983,1.0109710693359375,-0.7537676095962524,-0.0715857669711113,0.003,0.0,0.0,0.0,0.0,0.0,0.0,-3.1,3.1,-1.571,1.571,-1.571,1.571,-1.745,1.745,-2.617,2.617,0.003,0.03,-0.05000000074505806,-0.02500000037252903,-0.02500000037252903,-0.02500000037252903,-0.05000000074505806,-0.0005000000237487257,0.05000000074505806,0.02500000037252903,0.02500000037252903,0.02500000037252903,0.05000000074505806,0.0005000000237487257,-0.012519535374844504,-0.48253184464922155,0.11189072961977013,0.14,0.0,0.26,0.0714016705751419,0.001095373765565455,0.3483889400959015,0.0,-0.6368727347682701,-0.9718392054742786
0.0,24.0,0.0,0.0,0.0,0.025,0.0,0.0,0.015339807607233524,-1.293145775794983,1.0109710693359375,-0.7537676095962524,-0.0715857669711113,0.0,0.015339807607233524,-1.293145775794983,1.0109710693359375,-0.7287676334381104,-0.0715857669711113,0.003,0.0,0.0,0.0,0.0,0.0,0.0,-3.1,3.1,-1.571,1.571,-1.571,1.571,-1.745,1.745,-2.617,2.617,0.003,0.03,-0.05000000074505806,-0.02500000037252903,-0.02500000037252903,-0.02500000037252903,-0.05000000074505806,-0.0005000000237487257,0.05000000074505806,0.02500000037252903,0.02500000037252903,0.02500000037252903,0.05000000074505806,0.0005000000237487257,-0.011929163836688078,-0.4944610084859096,0.10922071157380397,0.14,0.0,0.26,0.07384561747312546,0.0011328664841130376,0.34689924120903015,0.0,-0.6408043310318778,-0.9435831032658548
0.0,25.0,0.0,0.0,0.0,0.025,0.0,0.0,0.015339807607233524,-1.293145775794983,1.0109710693359375,-0.7287676334381104,-0.0715857669711113,0.0,0.015339807607233524,-1.293145775794983,1.0109710693359375,-0.7037676572799683,-0.0715857669711113,0.003,0.0,0.0,0.0,0.0,0.0,0.0,-3.1,3.1,-1.571,1.571,-1.571,1.571,-1.745,1.745,-2.617,2.617,0.003,0.03,-0.05000000074505806,-0.02500000037252903,-0.02500000037252903,-0.02500000037252903,-0.05000000074505806,-0.0005000000237487257,0.05000000074505806,0.02500000037252903,0.02500000037252903,0.02500000037252903,0.05000000074505806,0.0005000000237487257,-0.011349669107558113,-0.5058106775934678,0.10653482579681685,0.14,0.0,0.26,0.0762515738606453,0.001169776194728911,0.34534892439842224,0.0,-0.6446125864769103,-0.9139813068077984
0.0,26.0,0.0,0.0,0.0,0.025,0.0,0.0,0.015339807607233524,-1.293145775794983,1.0109710693359375,-0.7037676572799683,-0.0715857669711113,0.0,0.015339807607233524,-1.293145775794983,1.0109710693359375,-0.6787676811218262,-0.0715857669711113,0.003,0.0,0.0,0.0,0.0,0.0,0.0,-3.1,3.1,-1.571,1.571,-1.571,1.571,-1.745,1.745,-2.617,2.617,0.003,0.03,-0.05000000074505806,-0.02500000037252903,-0.02500000037252903,-0.02500000037252903,-0.05000000074505806,-0.0005000000237487257,0.05000000074505806,0.02500000037252903,0.02500000037252903,0.02500000037252903,0.05000000074505806,0.0005000000237487257,-0.010781412750937362,-0.5165920903444051,0.10383358199993566,0.14,0.0,0.26,0.07861801981925964,0.0012060798471793532,0.34373894333839417,0.0,-0.6482985112514861,-0.8846219458981786
0.0,27.0,0.0,0.0,0.0,0.025,0.0,0.0,0.015339807607233524,-1.293145775794983,1.0109710693359375,-0.6787676811218262,-0.0715857669711113,0.0,0.015339807607233524,-1.293145775794983,1.0109710693359375,-0.6537677049636841,-0.0715857669711113,0.003,0.0,0.0,0.0,0.0,0.0,0.0,-3.1,3.1,-1.571,1.571,-1.571,1.571,-1.745,1.745,-2.617,2.617,0.003,0.03,-0.05000000074505806,-0.02500000037252903,-0.02500000037252903,-0.02500000037252903,-0.05000000074505806,-0.0005000000237487257,0.05000000074505806,0.02500000037252903,0.02500000037252903,0.02500000037252903,0.05000000074505806,0.0005000000237487257,-0.01022474472049102,-0.5268168350648962,0.1011174797969719,0.14,0.0,0.26,0.08094348758459091,0.001241754973307252,0.3420702815055847,0.0,-0.6518645287113012,-0.8558441903556258
0.0,28.0,0.0,0.0,0.0,0.025,0.0,0.0,0.015339807607233524,-1.293145775794983,1.0109710693359375,-0.6537677049636841,-0.0715857669711113,0.0,0.015339807607233524,-1.293145775794983,1.0109710693359375,-0.628767728805542,-0.0715857669711113,0.003,0.0,0.0,0.0,0.0,0.0,0.0,-3.1,3.1,-1.571,1.571,-1.571,1.571,-1.745,1.745,-2.617,2.617,0.003,0.03,-0.05000000074505806,-0.02500000037252903,-0.02500000037252903,-0.02500000037252903,-0.05000000074505806,-0.0005000000237487257,0.05000000074505806,0.02500000037252903,0.02500000037252903,0.02500000037252903,0.05000000074505806,0.0005000000237487257,-0.009680017937874133,-0.5364968530027703,0.09838708216973473,0.14,0.0,0.26,0.0832265242934227,0.0012767789885401726,0.34034401178359985,0.0,-0.6552954305369219,-0.8234164381489606
0.0,29.0,0.0,0.0,0.0,0.025,0.0,0.0,0.015339807607233524,-1.293145775794983,1.0109710693359375,-0.628767728805542,-0.0715857669711113,0.0,0.015339807607233524,-1.293145775794983,1.0109710693359375,-0.6037677526473999,-0.0715857669711113,0.003,0.0,0.0,0.0,0.0,0.0,0.0,-3.1,3.1,-1.571,1.571,-1.571,1.571,-1.745,1.745,-2.617,2.617,0.003,0.03,-0.05000000074505806,-0.02500000037252903,-0.02500000037252903,-0.02500000037252903,-0.05000000074505806,-0.0005000000237487257,0.05000000074505806,0.02500000037252903,0.02500000037252903,0.02500000037252903,0.05000000074505806,0.0005000000237487257,-0.009147576937414099,-0.5456444299401844,0.0956429659588937,0.14,0.0,0.26,0.0854656994342804,0.0013111302396282554,0.3385612368583679,0.0,-0.6585878906018472,-0.7901904155820816
0.0,30.0,0.0,0.0,0.0,0.025,0.0,0.0,0.015339807607233524,-1.293145775794983,1.0109710693359375,-0.6037677526473999,-0.0715857669711113,0.0,0.015339807607233524,-1.293145775794983,1.0109710693359375,-0.5787677764892578,-0.0715857669711113,0.003,0.0,0.0,0.0,0.0,0.0,0.0,-3.1,3.1,-1.571,1.571,-1.571,1.571,-1.745,1.745,-2.617,2.617,0.003,0.03,-0.05000000074505806,-0.02500000037252903,-0.02500000037252903,-0.02500000037252903,-0.05000000074505806,-0.0005000000237487257,0.05000000074505806,0.02500000037252903,0.02500000037252903,0.02500000037252903,0.05000000074505806,0.0005000000237487257,-0.008627743337092188,-0.5542721732772765,0.09288564656120012,0.14,0.0,0.26,0.08765961229801178,0.0013447870733216405,0.3367229998111725,0.0,-0.6617566554464593,-0.7605035627069157
0.0,31.0,0.0,0.0,0.0,0.025,0.0,0.0,0.015339807607233524,-1.293145775794983,1.0109710693359375,-0.5787677764892578,-0.0715857669711113,0.0,0.015339807607233524,-1.293145775794983,1.0109710693359375,-0.5537678003311157,-0.0715857669711113,0.003,0.0,0.0,0.0,0.0,0.0,0.0,-3.1,3.1,-1.571,1.571,-1.571,1.571,-1.745,1.745,-2.617,2.617,0.003,0.03,-0.05000000074505806,-0.02500000037252903,-0.02500000037252903,-0.02500000037252903,-0.05000000074505806,-0.0005000000237487257,0.05000000074505806,0.02500000037252903,0.02500000037252903,0.02500000037252903,0.05000000074505806,0.0005000000237487257,-0.008120848124179833,-0.5623930214014563,0.090115748480384,0.14,0.0,0.26,0.08980689942836761,0.001377728651277721,0.33483049273490906,0.0,-0.6647755393958665,-0.724532147857726
0.0,32.0,0.0,0.0,0.0,0.025,0.0,0.0,0.015339807607233524,-1.293145775794983,1.0109710693359375,-0.5537678003311157,-0.0715857669711113,0.0,0.015339807607233524,-1.293145775794983,1.0109710693359375,-0.5287678241729736,-0.0715857669711113,0.003,0.0,0.0,0.0,0.0,0.0,0.0,-3.1,3.1,-1.571,1.571,-1.571,1.571,-1.745,1.745,-2.617,2.617,0.003,0.03,-0.05000000074505806,-0.02500000037252903,-0.02500000037252903,-0.02500000037252903,-0.05000000074505806,-0.0005000000237487257,0.05000000074505806,0.02500000037252903,0.02500000037252903,0.02500000037252903,0.05000000074505806,0.0005000000237487257,-0.007627210106172202,-0.5700202315076285,0.08733390009711121,0.14,0.0,0.26,0.09190621227025986,0.0014099341351538897,0.33288490772247314,0.0,-0.6676436119854701,-0.6883374215048477
0.0,33.0,0.0,0.0,0.0,0.025,0.0,0.0,0.015339807607233524,-1.293145775794983,1.0109710693359375,-0.5287678241729736,-0.0715857669711113,0.0,0.015339807607233524,-1.293145775794983,1.0109710693359375,-0.5037678480148315,-0.0715857669711113,0.003,0.0,0.0,0.0,0.0,0.0,0.0,-3.1,3.1,-1.571,1.571,-1.571,1.571,-1.745,1.745,-2.617,2.617,0.003,0.03,-0.05000000074505806,-0.02500000037252903,-0.02500000037252903,-0.02500000037252903,-0.05000000074505806,-0.0005000000237487257,0.05000000074505806,0.02500000037252903,0.02500000037252903,0.02500000037252903,0.05000000074505806,0.0005000000237487257,-0.007147134171274119,-0.5771673656789026,0.0845407249275408,0.14,0.0,0.26,0.09395623952150345,0.0014413836179301143,0.33088743686676025,0.0,-0.670362040696898,-0.6524228907426988
0.0,34.0,0.0,0.0,0.0,0.025,0.0,0.0,0.015339807607233524,-1.293145775794983,1.0109710693359375,-0.5037678480148315,-0.0715857669711113,0.0,0.015339807607233524,-1.293145775794983,1.0109710693359375,-0.47876784205436707,-0.0715857669711113,0.003,0.0,0.0,0.0,0.0,0.0,0.0,-3.1,3.1,-1.571,1.571,-1.571,1.571,-1.745,1.745,-2.617,2.617,0.003,0.03,-0.05000000074505806,-0.02500000037252903,-0.02500000037252903,-0.02500000037252903,-0.05000000074505806,-0.0005000000237487257,0.05000000074505806,0.02500000037252903,0.02500000037252903,0.02500000037252903,0.05000000074505806,0.0005000000237487257,-0.006680925058352325,-0.5838482907372549,0.08173692591694603,0.14,0.0,0.26,0.09595569968223572,0.001472057425417006,0.32883936166763306,0.0,-0.672911762542745,-0.611933243003282
0.0,35.0,0.0,0.0,0.0,0.025,0.0,0.0,0.015339807607233524,-1.293145775794983,1.0109710693359375,-0.47876784205436707,-0.0715857669711113,0.0,0.015339807607233524,-1.293145775794983,1.0109710693359375,-0.4537678360939026,-0.0715857669711113,0.003,0.0,0.0,0.0,0.0,0.0,0.0,-3.1,3.1,-1.571,1.571,-1.571,1.571,-1.745,1.745,-2.617,2.617,0.003,0.03,-0.05000000074505806,-0.02500000037252903,-0.02500000037252903,-0.02500000037252903,-0.05000000074505806,-0.0005000000237487257,0.05000000074505806,0.02500000037252903,0.02500000037252903,0.02500000037252903,0.05000000074505806,0.0005000000237487257,-0.00622886563210255,-0.5900771563693574,0.07892316283641039,0.14,0.0,0.26,0.09790334850549698,0.0015019363490864635,0.32674190402030945,0.0,-0.6753031393285547,-0.573930428594327
0.0,36.0,0.0,0.0,0.0,0.025,0.0,0.0,0.015339807607233524,-1.293145775794983,1.0109710693359375,-0.4537678360939026,-0.0715857669711113,0.0,0.015339807607233524,-1.293145775794983,1.0109710693359375,-0.4287678301334381,-0.0715857669711113,0.003,0.0,0.0,0.0,0.0,0.0,0.0,-3.1,3.1,-1.571,1.571,-1.571,1.571,-1.745,1.745,-2.617,2.617,0.003,0.03,-0.05000000074505806,-0.02500000037252903,-0.02500000037252903,-0.02500000037252903,-0.05000000074505806,-0.0005000000237487257,0.05000000074505806,0.02500000037252903,0.02500000037252903,0.02500000037252903,0.05000000074505806,0.0005000000237487257,-0.005791247049816839,-0.5958684034191742,0.07610024342810501,0.14,0.0,0.26,0.09979796409606934,0.0015310016460716724,0.32459643483161926,0.0,-0.6775006579932918,-0.5274044795369193
0.0,37.0,0.0,0.0,0.0,0.025,0.0,0.0,0.015339807607233524,-1.293145775794983,1.0109710693359375,-0.4287678301334381,-0.0715857669711113,0.0,0.015339807607233524,-1.293145775794983,1.0109710693359375,-0.40376782417297363,-0.0715857669711113,0.003,0.0,0.0,0.0,0.0,0.0,0.0,-3.1,3.1,-1.571,1.571,-1.571,1.571,-1.745,1.745,-2.617,2.617,0.003,0.03,-0.05000000074505806,-0.02500000037252903,-0.02500000037252903,-0.02500000037252903,-0.05000000074505806,-0.0005000000237487257,0.05000000074505806,0.02500000037252903,0.02500000037252903,0.02500000037252903,0.05000000074505806,0.0005000000237487257,-0.005368338839346571,-0.6012367422585209,0.07326894867095181,0.14,0.0,0.26,0.10163836181163788,0.001559235155582428,0.32240426540374756,0.0,-0.6795107417167678,-0.4824200936342393
0.0,38.0,0.0,0.0,0.0,0.025,0.0,0.0,0.015339807607233524,-1.293145775794983,1.0109710693359375,-0.40376782417297363,-0.0715857669711113,0.0,0.015339807607233524,-1.293145775794983,1.0109710693359375,-0.37876781821250916,-0.0715857669711113,0.003,0.0,0.0,0.0,0.0,0.0,0.0,-3.1,3.1,-1.571,1.571,-1.571,1.571,-1.745,1.745,-2.617,2.617,0.003,0.03,-0.05000000074505806,-0.02500000037252903,-0.02500000037252903,-0.02500000037252903,-0.05000000074505806,-0.0005000000237487257,0.05000000074505806,0.02500000037252903,0.02500000037252903,0.02500000037252903,0.05000000074505806,0.0005000000237487257,-0.004960405801425159,-0.6061971480599461,0.07043014838423357,0.14,0.0,0.26,0.10342338681221008,0.0015866192989051342,0.32016676664352417,0.0,-0.6813120688123764,-0.4323185029460497
0.0,39.0,0.0,0.0,0.0,0.025,0.0,0.0,0.015339807607233524,-1.293145775794983,1.0109710693359375,-0.37876781821250916,-0.0715857669711113,0.0,0.015339807607233524,-1.293145775794983,1.0109710693359375,-0.3537678122520447,-0.0715857669711113,0.003,0.0,0.0,0.0,0.0,0.0,0.0,-3.1,3.1,-1.571,1.571,-1.571,1.571,-1.745,1.745,-2.617,2.617,0.003,0.03,-0.05000000074505806,-0.02500000037252903,-0.02500000037252903,-0.02500000037252903,-0.05000000074505806,-0.0005000000237487257,0.05000000074505806,0.02500000037252903,0.02500000037252903,0.02500000037252903,0.05000000074505806,0.0005000000237487257,-0.004567702247961598,-0.6107648503079076,0.06758477822676937,0.14,0.0,0.26,0.1051519364118576,0.0016131369629874825,0.3178853392601013,0.0,-0.68288883779141,-0.3784245549680598
0.0,40.0,0.0,0.0,0.0,0.025,0.0,0.0,0.015339807607233524,-1.293145775794983,1.0109710693359375,-0.3537678122520447,-0.0715857669711113,0.0,0.015339807607233524,-1.293145775794983,1.0109710693359375,-0.3287678062915802,-0.0715857669711113,0.003,0.0,0.0,0.0,0.0,0.0,0.0,-3.1,3.1,-1.571,1.571,-1.571,1.571,-1.745,1.745,-2.617,2.617,0.003,0.03,-0.05000000074505806,-0.02500000037252903,-0.02500000037252903,-0.02500000037252903,-0.05000000074505806,-0.0005000000237487257,0.05000000074505806,0.02500000037252903,0.02500000037252903,0.02500000037252903,0.05000000074505806,0.0005000000237487257,-0.0041904752161715545,-0.6149553255240792,0.06473387997155396,0.14,0.0,0.26,0.1068229153752327,0.0016387716168537736,0.3155614137649536,0.0,-0.6842155812516981,-0.3184184304691584
0.0,41.0,0.0,0.0,0.0,0.025,0.0,0.0,0.015339807607233524,-1.293145775794983,1.0109710693359375,-0.3287678062915802,-0.0715857669711113,0.0,0.015339807607233524,-1.293145775794983,1.0109710693359375,-0.3037678003311157,-0.0715857669711113,0.003,0.0,0.0,0.0,0.0,0.0,0.0,-3.1,3.1,-1.571,1.571,-1.571,1.571,-1.745,1.745,-2.617,2.617,0.003,0.03,-0.05000000074505806,-0.02500000037252903,-0.02500000037252903,-0.02500000037252903,-0.05000000074505806,-0.0005000000237487257,0.05000000074505806,0.02500000037252903,0.02500000037252903,0.02500000037252903,0.05000000074505806,0.0005000000237487257,-0.003828956996623489,-0.6187842825207026,0.06187856653659237,0.14,0.0,0.26,0.10843529552221298,0.0016635070787742734,0.31319642066955566,0.0,-0.6852752243907806,-0.254314353379792
0.0,42.0,0.0,0.0,0.0,0.025,0.0,0.0,0.015339807607233524,-1.293145775794983,1.0109710693359375,-0.3037678003311157,-0.0715857669711113,0.0,0.015339807607233524,-1.293145775794983,1.0109710693359375,-0.27876779437065125,-0.0715857669711113,0.003,0.0,0.0,0.0,0.0,0.0,0.0,-3.1,3.1,-1.571,1.571,-1.571,1.571,-1.745,1.745,-2.617,2.617,0.003,0.03,-0.05000000074505806,-0.02500000037252903,-0.02500000037252903,-0.02500000037252903,-0.05000000074505806,-0.0005000000237487257,0.05000000074505806,0.02500000037252903,0.02500000037252903,0.02500000037252903,0.05000000074505806,0.0005000000237487257,-0.003483378913978214,-0.6222676614346808,0.05902015684474427,0.14,0.0,0.26,0.10998805612325668,0.0016873279819265008,0.31079187989234924,0.0,-0.6860183260435437,-0.17834439666315482
0.0,43.0,0.0,0.0,0.0,0.025,0.0,0.0,0.015339807607233524,-1.293145775794983,1.0109710693359375,-0.27876779437065125,-0.0715857669711113,0.0,0.015339807607233524,-1.293145775794983,1.0109710693359375,-0.25376778841018677,-0.0715857669711113,0.003,0.0,0.0,0.0,0.0,0.0,0.0,-3.1,3.1,-1.571,1.571,-1.571,1.571,-1.745,1.745,-2.617,2.617,0.003,0.03,-0.05000000074505806,-0.02500000037252903,-0.02500000037252903,-0.02500000037252903,-0.05000000074505806,-0.0005000000237487257,0.05000000074505806,0.02500000037252903,0.02500000037252903,0.02500000037252903,0.05000000074505806,0.0005000000237487257,-0.0031539552373741355,-0.625421616672055,0.05616008580276686,0.14,0.0,0.26,0.1114802286028862,0.001710219425149262,0.30834928154945374,0.0,-0.6864170500745792,-0.09569376744851255
0.0,44.0,0.0,0.0,0.0,0.025,0.0,0.0,0.015339807607233524,-1.293145775794983,1.0109710693359375,-0.25376778841018677,-0.0715857669711113,0.0,0.015339807607233524,-1.293145775794983,1.0109710693359375,-0.2287677824497223,-0.0715857669711113,0.003,0.0,0.0,0.0,0.0,0.0,0.0,-3.1,3.1,-1.571,1.571,-1.571,1.571,-1.745,1.745,-2.617,2.617,0.003,0.03,-0.05000000074505806,-0.02500000037252903,-0.02500000037252903,-0.02500000037252903,-0.05000000074505806,-0.0005000000237487257,0.05000000074505806,0.02500000037252903,0.02500000037252903,0.02500000037252903,0.05000000074505806,0.0005000000237487257,-0.0028408878527309174,-0.6282625045247859,0.05329997985675902,0.14,0.0,0.26,0.11291088908910751,0.001732167205773294,0.3058701157569885,0.0,-0.6864254270418807,-0.002010472152358389
0.0,45.0,0.0,0.0,0.0,0.025,0.0,0.0,0.015339807607233524,-1.293145775794983,1.0109710693359375,-0.2287677824497223,-0.0715857669711113,0.0,0.015339807607233524,-1.293145775794983,1.0109710693359375,-0.2037677764892578,-0.0715857669711113,0.003,0.0,0.0,0.0,0.0,0.0,0.0,-3.1,3.1,-1.571,1.571,-1.571,1.571,-1.745,1.745,-2.617,2.617,0.003,0.03,-0.05000000074505806,-0.02500000037252903,-0.02500000037252903,-0.02500000037252903,-0.05000000074505806,-0.0005000000237487257,0.05000000074505806,0.02500000037252903,0.02500000037252903,0.02500000037252903,0.05000000074505806,0.0005000000237487257,-0.002544375847094079,-0.63080688037188,0.05044180654074633,0.14,0.0,0.26,0.1142791360616684,0.0017531574703752995,0.30335596203804016,0.0,-0.6859615958430465,0.11131948772020728
0.0,46.0,0.0,0.0,0.0,0.025,0.0,0.0,0.015339807607233524,-1.293145775794983,1.0109710693359375,-0.2037677764892578,-0.0715857669711113,0.0,0.015339807607233524,-1.293145775794983,1.0109710693359375,-0.17876777052879333,-0.0715857669711113,0.003,0.0,0.0,0.0,0.0,0.0,0.0,-3.1,3.1,-1.571,1.571,-1.571,1.571,-1.745,1.745,-2.617,2.617,0.003,0.03,-0.05000000074505806,-0.02500000037252903,-0.02500000037252903,-0.02500000037252903,-0.05000000074505806,-0.0005000000237487257,0.05000000074505806,0.02500000037252903,0.02500000037252903,0.02500000037252903,0.05000000074505806,0.0005000000237487257,-0.002264605213040423,-0.6330714855849204,0.047587868338899386,0.14,0.0,0.26,0.1155841127038002,0.001773177064023912,0.3008083999156952,0.0,-0.6849451684432661,0.24394257594728685
0.0,47.0,0.0,0.0,0.0,0.025,0.0,0.0,0.015339807607233524,-1.293145775794983,1.0109710693359375,-0.17876777052879333,-0.0715857669711113,0.0,0.015339807607233524,-1.293145775794983,1.0109710693359375,-0.15376776456832886,-0.0715857669711113,0.003,0.0,0.0,0.0,0.0,0.0,0.0,-3.1,3.1,-1.571,1.571,-1.571,1.571,-1.745,1.745,-2.617,2.617,0.003,0.03,-0.05000000074505806,-0.02500000037252903,-0.02500000037252903,-0.02500000037252903,-0.05000000074505806,-0.0005000000237487257,0.05000000074505806,0.02500000037252903,0.02500000037252903,0.02500000037252903,0.05000000074505806,0.0005000000237487257,-0.002001747178685345,-0.6350732327636058,0.044740889337219765,0.14,0.0,0.26,0.11682500690221786,0.0017922136466950178,0.2982289791107178,0.0,-0.6832749604031091,0.40084992963769217
0.0,48.0,0.0,0.0,0.0,0.025,0.0,0.0,0.015339807607233524,-1.293145775794983,1.0109710693359375,-0.15376776456832886,-0.0715857669711113,0.0,0.015339807607233524,-1.293145775794983,1.0109710693359375,-0.12876775860786438,-0.0715857669711113,0.003,0.0,0.0,0.0,0.0,0.0,0.0,-3.1,3.1,-1.571,1.571,-1.571,1.571,-1.745,1.745,-2.617,2.617,0.003,0.03,-0.05000000074505806,-0.02500000037252903,-0.02500000037252903,-0.02500000037252903,-0.05000000074505806,-0.0005000000237487257,0.05000000074505806,0.02500000037252903,0.02500000037252903,0.02500000037252903,0.05000000074505806,0.0005000000237487257,-0.0017559705141568318,-0.6368292032777627,0.04190430185740877,0.14,0.0,0.26,0.1180010437965393,0.0018102552276104689,0.2956193685531616,0.0,-0.6807809951546395,0.5985516596326956
0.0,49.0,0.0,0.0,0.0,0.025,0.0,0.0,0.015339807607233524,-1.293145775794983,1.0109710693359375,-0.12876775860786438,-0.0715857669711113,0.0,0.015339807607233524,-1.293145775794983,1.0109710693359375,-0.1037677600979805,-0.0715857669711113,0.003,0.0,0.0,0.0,0.0,0.0,0.0,-3.1,3.1,-1.571,1.571,-1.571,1.571,-1.745,1.745,-2.617,2.617,0.003,0.03,-0.05000000074505806,-0.02500000037252903,-0.02500000037252903,-0.02500000037252903,-0.05000000074505806,-0.0005000000237487257,0.05000000074505806,0.02500000037252903,0.02500000037252903,0.02500000037252903,0.05000000074505806,0.0005000000237487257,-0.0015274270911994512,-0.6383566303689622,0.039082311743286774,0.14,0.0,0.26,0.11911148577928543,0.0018272906308993697,0.29298117756843567,0.0,-0.6772776273892783,0.8408082636866876
0.0,50.0,0.0,0.0,0.0,0.025,0.0,0.0,0.015339807607233524,-1.293145775794983,1.0109710693359375,-0.1037677600979805,-0.0715857669711113,0.0,0.015339807607233524,-1.293145775794983,1.0109710693359375,-0.07876776158809662,-0.0715857669711113,0.003,0.0,0.0,0.0,0.0,0.0,0.0,-3.1,3.1,-1.571,1.571,-1.571,1.571,-1.745,1.745,-2.617,2.617,0.003,0.03,-0.05000000074505806,-0.02500000037252903,-0.02500000037252903,-0.02500000037252903,-0.05000000074505806,-0.0005000000237487257,0.05000000074505806,0.02500000037252903,0.02500000037252903,0.02500000037252903,0.05000000074505806,0.0005000000237487257,-0.0013162590157923364,-0.6396728893847545,0.036280284119509544,0.14,0.0,0.26,0.12015563994646072,0.0018433090299367905,0.29031604528427124,0.0,-0.6724866297065352,1.1498394438583581
0.0,51.0,0.0,0.0,0.0,0.025,0.0,0.0,0.015339807607233524,-1.293145775794983,1.0109710693359375,-0.07876776158809662,-0.0715857669711113,0.0,0.015339807607233524,-1.293145775794983,1.0109710693359375,-0.05376776307821274,-0.0715857669711113,0.003,0.0,0.0,0.0,0.0,0.0,0.0,-3.1,3.1,-1.571,1.571,-1.571,1.571,-1.745,1.745,-2.617,2.617,0.003,0.03,-0.05000000074505806,-0.02500000037252903,-0.02500000037252903,-0.02500000037252903,-0.05000000074505806,-0.0005000000237487257,0.05000000074505806,0.02500000037252903,0.02500000037252903,0.02500000037252903,0.05000000074505806,0.0005000000237487257,-0.0011225966976342288,-0.6407954860823888,0.03350517419196965,0.14,0.0,0.26,0.12113285809755325,0.001858300413005054,0.28762561082839966,0.0,-0.6660263826095753,1.5504593032703795
0.0,52.0,0.0,0.0,0.0,0.025,0.0,0.0,0.015339807607233524,-1.293145775794983,1.0109710693359375,-0.05376776307821274,-0.0715857669711113,0.0,0.015339807607233524,-1.293145775794983,1.0109710693359375,-0.028767762705683708,-0.0715857669711113,0.003,0.0,0.0,0.0,0.0,0.0,0.0,-3.1,3.1,-1.571,1.571,-1.571,1.571,-1.745,1.745,-2.617,2.617,0.003,0.03,-0.05000000074505806,-0.02500000037252903,-0.02500000037252903,-0.02500000037252903,-0.05000000074505806,-0.0005000000237487257,0.05000000074505806,0.02500000037252903,0.02500000037252903,0.02500000037252903,0.05000000074505806,0.0005000000237487257,-0.0009465657987385859,-0.6417420518811274,0.0307663094754406,0.14,0.0,0.26,0.12204252183437347,0.001872255583293736,0.2849116325378418,0.0,-0.6573275319669716,2.0877241542248814
0.0,53.0,0.0,0.0,0.0,0.025,0.0,0.0,0.015339807607233524,-1.293145775794983,1.0109710693359375,-0.028767762705683708,-0.0715857669711113,0.0,0.015339807607233524,-1.293145775794983,1.0109710693359375,-0.0037677623331546783,-0.0715857669711113,0.003,0.0,0.0,0.0,0.0,0.0,0.0,-3.1,3.1,-1.571,1.571,-1.571,1.571,-1.745,1.745,-2.617,2.617,0.003,0.03,-0.05000000074505806,-0.02500000037252903,-0.02500000037252903,-0.02500000037252903,-0.05000000074505806,-0.0005000000237487257,0.05000000074505806,0.02500000037252903,0.02500000037252903,0.02500000037252903,0.05000000074505806,0.0005000000237487257,-0.0007882716299378827,-0.6425303235110653,0.028076175486306584,0.14,0.0,0.26,0.12288406491279602,0.0018851658096536994,0.2821757197380066,0.0,-0.6456321573921636,2.8068898979539103
0.0,54.0,0.0,0.0,0.0,0.025,0.0,0.0,0.015339807607233524,-1.293145775794983,1.0109710693359375,-0.0037677623331546783,-0.0715857669711113,0.0,0.015339807607233524,-1.293145775794983,1.0109710693359375,0.02123223803937435,-0.0715857669711113,0.003,0.0,0.0,0.0,0.0,0.0,0.0,-3.1,3.1,-1.571,1.571,-1.571,1.571,-1.745,1.745,-2.617,2.617,0.003,0.03,-0.05000000074505806,-0.02500000037252903,-0.02500000037252903,-0.02500000037252903,-0.05000000074505806,-0.0005000000237487257,0.05000000074505806,0.02500000037252903,0.02500000037252903,0.02500000037252903,0.05000000074505806,0.0005000000237487257,-0.0006478166793081853,-0.6431781401903734,0.0254522431095608,0.14,0.0,0.26,0.12365696579217911,0.0018970228265970945,0.2794196605682373,0.0,-0.6297437704189879,3.8132128735621773
0.0,55.0,0.0,0.0,0.0,0.025,0.0,0.0,0.015339807607233524,-1.293145775794983,1.0109710693359375,0.02123223803937435,-0.0715857669711113,0.0,0.015339807607233524,-1.293145775794983,1.0109710693359375,0.04623223841190338,-0.0715857669711113,0.003,0.0,0.0,0.0,0.0,0.0,0.0,-3.1,3.1,-1.571,1.571,-1.571,1.571,-1.745,1.745,-2.617,2.617,0.003,0.03,-0.05000000074505806,-0.02500000037252903,-0.02500000037252903,-0.02500000037252903,-0.05000000074505806,-0.0005000000237487257,0.05000000074505806,0.02500000037252903,0.02500000037252903,0.02500000037252903,0.05000000074505806,0.0005000000237487257,-0.0005252863740900743,-0.6437034265644636,0.02291912681779291,0.14,0.0,0.26,0.12436074018478394,0.0019078194163739681,0.27664512395858765,0.0,-0.6079479100242935,5.231006494726653
0.0,56.0,0.0,0.0,0.0,0.025,0.0,0.0,0.015339807607233524,-1.293145775794983,1.0109710693359375,0.04623223841190338,-0.0715857669711113,0.0,0.015339807607233524,-1.293145775794983,1.0109710693359375,0.07123223692178726,-0.0715857669711113,0.003,0.0,0.0,0.0,0.0,0.0,0.0,-3.1,3.1,-1.571,1.571,-1.571,1.571,-1.745,1.745,-2.617,2.617,0.003,0.03,-0.05000000074505806,-0.02500000037252903,-0.02500000037252903,-0.02500000037252903,-0.05000000074505806,-0.0005000000237487257,0.05000000074505806,0.02500000037252903,0.02500000037252903,0.02500000037252903,0.05000000074505806,0.0005000000237487257,-0.0004207576266024355,-0.644124184191066,0.020512377400058616,0.14,0.0,0.26,0.12499494105577469,0.0019175487104803324,0.2738538384437561,0.0,-0.5776198602562308,7.278731944335046
0.0,57.0,0.0,0.0,0.0,0.025,0.0,0.0,0.015339807607233524,-1.293145775794983,1.0109710693359375,0.07123223692178726,-0.0715857669711113,0.0,0.015339807607233524,-1.293145775794983,1.0109710693359375,0.09623223543167114,-0.0715857669711113,0.003,0.0,0.0,0.0,0.0,0.0,0.0,-3.1,3.1,-1.571,1.571,-1.571,1.571,-1.745,1.745,-2.617,2.617,0.003,0.03,-0.05000000074505806,-0.02500000037252903,-0.02500000037252903,-0.02500000037252903,-0.05000000074505806,-0.0005000000237487257,0.05000000074505806,0.02500000037252903,0.02500000037252903,0.02500000037252903,0.05000000074505806,0.0005000000237487257,-0.0003342968115384795,-0.6444584810026045,0.018283785481635895,0.14,0.0,0.26,0.12555918097496033,0.0019262047717347741,0.27104759216308594,0.0,-0.5348620604214532,10.261871960346616
0.0,58.0,0.0,0.0,0.0,0.025,0.0,0.0,0.015339807607233524,-1.293145775794983,1.0109710693359375,0.09623223543167114,-0.0715857669711113,0.0,0.015339807607233524,-1.293145775794983,1.0109710693359375,0.12123223394155502,-0.0715857669711113,0.003,0.0,0.0,0.0,0.0,0.0,0.0,-3.1,3.1,-1.571,1.571,-1.571,1.571,-1.745,1.745,-2.617,2.617,0.003,0.03,-0.05000000074505806,-0.02500000037252903,-0.02500000037252903,-0.02500000037252903,-0.05000000074505806,-0.0005000000237487257,0.05000000074505806,0.02500000037252903,0.02500000037252903,0.02500000037252903,0.05000000074505806,0.0005000000237487257,-0.0002659571143546898,-0.6447244381169592,0.016308191633491734,0.14,0.0,0.26,0.1260531097650528,0.0019337820122018456,0.26822811365127563,0.0,-0.47414252355459846,14.572688848045146
0.0,59.0,0.0,0.0,0.0,0.025,0.0,0.0,0.015339807607233524,-1.293145775794983,1.0109710693359375,0.12123223394155502,-0.0715857669711113,0.0,0.015339807607233524,-1.293145775794983,1.0109710693359375,0.1462322324514389,-0.0715857669711113,0.003,0.0,0.0,0.0,0.0,0.0,0.0,-3.1,3.1,-1.571,1.571,-1.571,1.571,-1.745,1.745,-2.617,2.617,0.003,0.03,-0.05000000074505806,-0.02500000037252903,-0.02500000037252903,-0.02500000037252903,-0.05000000074505806,-0.0005000000237487257,0.05000000074505806,0.02500000037252903,0.02500000037252903,0.02500000037252903,0.05000000074505806,0.0005000000237487257,-0.00021578158629202083,-0.6449402197032512,0.01468950599210269,0.14,0.0,0.26,0.12647640705108643,0.0019402758916839957,0.26539716124534607,0.0,-0.3884845539333706,20.557912709094683
0.0,60.0,0.0,0.0,0.0,0.025,0.0,0.0,0.015339807607233524,-1.293145775794983,1.0109710693359375,0.1462322324514389,-0.0715857669711113,0.0,0.015339807607233524,-1.293145775794983,1.0109710693359375,0.17123223841190338,-0.0715857669711113,0.003,0.0,0.0,0.0,0.0,0.0,0.0,-3.1,3.1,-1.571,1.571,-1.571,1.571,-1.745,1.745,-2.617,2.617,0.003,0.03,-0.05000000074505806,-0.02500000037252903,-0.02500000037252903,-0.02500000037252903,-0.05000000074505806,-0.0005000000237487257,0.05000000074505806,0.02500000037252903,0.02500000037252903,0.02500000037252903,0.05000000074505806,0.0005000000237487257,-0.0001838018770721769,-0.6451240215803234,0.013557355091321348,0.14,0.0,0.26,0.12682880461215973,0.0019456821028143167,0.2625565230846405,0.0,-0.27171621618752206,28.02440105900365
0.0,61.0,0.0,0.0,0.0,0.025,0.0,0.0,0.015339807607233524,-1.293145775794983,1.0109710693359375,0.17123223841190338,-0.0715857669711113,0.0,0.015339807607233524,-1.293145775794983,1.0109710693359375,0.19623224437236786,-0.0715857669711113,0.003,0.0,0.0,0.0,0.0,0.0,0.0,-3.1,3.1,-1.571,1.571,-1.571,1.571,-1.745,1.745,-2.617,2.617,0.003,0.03,-0.05000000074505806,-0.02500000037252903,-0.02500000037252903,-0.02500000037252903,-0.05000000074505806,-0.0005000000237487257,0.05000000074505806,0.02500000037252903,0.02500000037252903,0.02500000037252903,0.05000000074505806,0.0005000000237487257,-0.0001700370759479969,-0.6452940586562714,0.013039826530594528,0.14,0.0,0.26,0.12711010873317719,0.0019499975023791194,0.2597079575061798,0.0,-0.12420685457443695,35.40224678714043
0.0,62.0,0.0,0.0,0.0,0.025,0.0,0.0,0.015339807607233524,-1.293145775794983,1.0109710693359375,0.19623224437236786,-0.0715857669711113,0.0,0.015339807607233524,-1.293145775794983,1.0109710693359375,0.22123225033283234,-0.0715857669711113,0.003,0.0,0.0,0.0,0.0,0.0,0.0,-3.1,3.1,-1.571,1.571,-1.571,1.571,-1.745,1.745,-2.617,2.617,0.003,0.03,-0.05000000074505806,-0.02500000037252903,-0.02500000037252903,-0.02500000037252903,-0.05000000074505806,-0.0005000000237487257,0.05000000074505806,0.02500000037252903,0.02500000037252903,0.02500000037252903,0.05000000074505806,0.0005000000237487257,-0.0001744966746869499,-0.6454685553309584,0.01320971894806812,0.14,0.0,0.26,0.12732011079788208,0.00195321929641068,0.25685325264930725,0.0,0.040774180193662024,39.59544834434375
0.0,63.0,0.0,0.0,0.0,0.025,0.0,0.0,0.015339807607233524,-1.293145775794983,1.0109710693359375,0.22123225033283234,-0.0715857669711113,0.0,0.015339807607233524,-1.293145775794983,1.0109710693359375,0.24623225629329681,-0.0715857669711113,0.003,0.0,0.0,0.0,0.0,0.0,0.0,-3.1,3.1,-1.571,1.571,-1.571,1.571,-1.745,1.745,-2.617,2.617,0.003,0.03,-0.05000000074505806,-0.02500000037252903,-0.02500000037252903,-0.02500000037252903,-0.05000000074505806,-0.0005000000237487257,0.05000000074505806,0.02500000037252903,0.02500000037252903,0.02500000037252903,0.05000000074505806,0.0005000000237487257,-0.00019717745055998877,-0.6456657327815184,0.01404198883919186,0.14,0.0,0.26,0.12745870649814606,0.001955345505848527,0.2539941668510437,0.0,0.1997447738696978,38.152942482248584
0.0,64.0,0.0,0.0,0.0,0.025,0.0,0.0,0.015339807607233524,-1.293145775794983,1.0109710693359375,0.24623225629329681,-0.0715857669711113,0.0,0.015339807607233524,-1.293145775794983,1.0109710693359375,0.2712322473526001,-0.0715857669711113,0.003,0.0,0.0,0.0,0.0,0.0,0.0,-3.1,3.1,-1.571,1.571,-1.571,1.571,-1.745,1.745,-2.617,2.617,0.003,0.03,-0.05000000074505806,-0.02500000037252903,-0.02500000037252903,-0.02500000037252903,-0.05000000074505806,-0.0005000000237487257,0.05000000074505806,0.02500000037252903,0.02500000037252903,0.02500000037252903,0.05000000074505806,0.0005000000237487257,-0.00023806498623715245,-0.6459037977677555,0.015429354692829913,0.14,0.0,0.26,0.12752579152584076,0.001956374617293477,0.2511325478553772,0.0,0.3329678048731326,31.973527440824352
0.0,65.0,0.0,0.0,0.0,0.025,0.0,0.0,0.015339807607233524,-1.293145775794983,1.0109710693359375,0.2712322473526001,-0.0715857669711113,0.0,0.015339807607233524,-1.293145775794983,1.0109710693359375,0.2962322533130646,-0.0715857669711113,0.003,0.0,0.0,0.0,0.0,0.0,0.0,-3.1,3.1,-1.571,1.571,-1.571,1.571,-1.745,1.745,-2.617,2.617,0.003,0.03,-0.05000000074505806,-0.02500000037252903,-0.02500000037252903,-0.02500000037252903,-0.05000000074505806,-0.0005000000237487257,0.05000000074505806,0.02500000037252903,0.02500000037252903,0.02500000037252903,0.05000000074505806,0.0005000000237487257,-0.00029713417342736286,-0.6462009319411829,0.01723758026601654,0.14,0.0,0.26,0.1275213360786438,0.001956306165084243,0.24827012419700623,0.0,0.43397413756479086,24.241519845997985
0.0,66.0,0.0,0.0,0.0,0.025,0.0,0.0,0.015339807607233524,-1.293145775794983,1.0109710693359375,0.2962322533130646,-0.0715857669711113,0.0,0.015339807607233524,-1.293145775794983,1.0109710693359375,0.32123225927352905,-0.0715857669711113,0.003,0.0,0.0,0.0,0.0,0.0,0.0,-3.1,3.1,-1.571,1.571,-1.571,1.571,-1.745,1.745,-2.617,2.617,0.003,0.03,-0.05000000074505806,-0.02500000037252903,-0.02500000037252903,-0.02500000037252903,-0.05000000074505806,-0.0005000000237487257,0.05000000074505806,0.02500000037252903,0.02500000037252903,0.02500000037252903,0.05000000074505806,0.0005000000237487257,-0.0003743481250093731,-0.6465752800661922,0.01934807807016948,0.14,0.0,0.26,0.12744534015655518,0.001955140382051468,0.24540869891643524,0.0,0.5065194729967051,17.410880503659413
0.0,67.0,0.0,0.0,0.0,0.025,0.0,0.0,0.015339807607233524,-1.293145775794983,1.0109710693359375,0.32123225927352905,-0.0715857669711113,0.0,0.015339807607233524,-1.293145775794983,1.0109710693359375,0.34623226523399353,-0.0715857669711113,0.003,0.0,0.0,0.0,0.0,0.0,0.0,-3.1,3.1,-1.571,1.571,-1.571,1.571,-1.745,1.745,-2.617,2.617,0.003,0.03,-0.05000000074505806,-0.02500000037252903,-0.02500000037252903,-0.02500000037252903,-0.05000000074505806,-0.0005000000237487257,0.05000000074505806,0.02500000037252903,0.02500000037252903,0.02500000037252903,0.05000000074505806,0.0005000000237487257,-0.0004696586433704221,-0.6470449387095627,0.021671609155077112,0.14,0.0,0.26,0.12729783356189728,0.001952877501025796,0.2425500750541687,0.0,0.557647460377832,12.270716971470454
0.0,68.0,0.0,0.0,0.0,0.025,0.0,0.0,0.015339807607233524,-1.293145775794983,1.0109710693359375,0.34623226523399353,-0.0715857669711113,0.0,0.015339807607233524,-1.293145775794983,1.0109710693359375,0.371232271194458,-0.0715857669711113,0.003,0.0,0.0,0.0,0.0,0.0,0.0,-3.1,3.1,-1.571,1.571,-1.571,1.571,-1.745,1.745,-2.617,2.617,0.003,0.03,-0.05000000074505806,-0.02500000037252903,-0.02500000037252903,-0.02500000037252903,-0.05000000074505806,-0.0005000000237487257,0.05000000074505806,0.02500000037252903,0.02500000037252903,0.02500000037252903,0.05000000074505806,0.0005000000237487257,-0.0005830052947859098,-0.6476279440043486,0.024145502578863623,0.14,0.0,0.26,0.12707893550395966,0.0019495193846523762,0.23969604074954987,0.0,0.5937344217087626,8.660870719423341
0.0,69.0,0.0,0.0,0.0,0.025,0.0,0.0,0.015339807607233524,-1.293145775794983,1.0109710693359375,0.371232271194458,-0.0715857669711113,0.0,0.015339807607233524,-1.293145775794983,1.0109710693359375,0.3962322771549225,-0.0715857669711113,0.003,0.0,0.0,0.0,0.0,0.0,0.0,-3.1,3.1,-1.571,1.571,-1.571,1.571,-1.745,1.745,-2.617,2.617,0.003,0.03,-0.05000000074505806,-0.02500000037252903,-0.02500000037252903,-0.02500000037252903,-0.05000000074505806,-0.0005000000237487257,0.05000000074505806,0.02500000037252903,0.02500000037252903,0.02500000037252903,0.05000000074505806,0.0005000000237487257,-0.0007143180210818222,-0.6483422620254304,0.02672672858921986,0.14,0.0,0.26,0.12678876519203186,0.0019450678955763578,0.2368483692407608,0.0,0.6194942424854966,6.18235698641616
0.0,70.0,0.0,0.0,0.0,0.025,0.0,0.0,0.015339807607233524,-1.293145775794983,1.0109710693359375,0.3962322771549225,-0.0715857669711113,0.0,0.015339807607233524,-1.293145775794983,1.0109710693359375,0.42123228311538696,-0.0715857669711113,0.003,0.0,0.0,0.0,0.0,0.0,0.0,-3.1,3.1,-1.571,1.571,-1.571,1.571,-1.745,1.745,-2.617,2.617,0.003,0.03,-0.05000000074505806,-0.02500000037252903,-0.02500000037252903,-0.02500000037252903,-0.05000000074505806,-0.0005000000237487257,0.05000000074505806,0.02500000037252903,0.02500000037252903,0.02500000037252903,0.05000000074505806,0.0005000000237487257,-0.0008635147957605639,-0.649205776821191,0.029385622262605975,0.14,0.0,0.26,0.1264275163412094,0.0019395259441807866,0.23400883376598358,0.0,0.638134481612668,4.473657390521133
0.0,71.0,0.0,0.0,0.0,0.025,0.0,0.0,0.015339807607233524,-1.293145775794983,1.0109710693359375,0.42123228311538696,-0.0715857669711113,0.0,0.015339807607233524,-1.293145775794983,1.0109710693359375,0.44623228907585144,-0.0715857669711113,0.003,0.0,0.0,0.0,0.0,0.0,0.0,-3.1,3.1,-1.571,1.571,-1.571,1.571,-1.745,1.745,-2.617,2.617,0.003,0.03,-0.05000000074505806,-0.02500000037252903,-0.02500000037252903,-0.02500000037252903,-0.05000000074505806,-0.0005000000237487257,0.05000000074505806,0.02500000037252903,0.02500000037252903,0.02500000037252903,0.05000000074505806,0.0005000000237487257,-0.001030503056410171,-0.6502362798776011,0.03210144944406983,0.14,0.0,0.26,0.12599539756774902,0.0019328969065099955,0.23117920756340027,0.0,0.6517985235513244,3.279370065277547
0.0,72.0,0.0,0.0,0.0,0.025,0.0,0.0,0.015339807607233524,-1.293145775794983,1.0109710693359375,0.44623228907585144,-0.0715857669711113,0.0,0.015339807607233524,-1.293145775794983,1.0109710693359375,0.4712322950363159,-0.0715857669711113,0.003,0.0,0.0,0.0,0.0,0.0,0.0,-3.1,3.1,-1.571,1.571,-1.571,1.571,-1.745,1.745,-2.617,2.617,0.003,0.03,-0.05000000074505806,-0.02500000037252903,-0.02500000037252903,-0.02500000037252903,-0.05000000074505806,-0.0005000000237487257,0.05000000074505806,0.02500000037252903,0.02500000037252903,0.02500000037252903,0.05000000074505806,0.0005000000237487257,-0.0012151756284338126,-0.6514514555060349,0.034859369306311505,0.14,0.0,0.26,0.12549270689487457,0.0019251849735155702,0.22836129367351532,0.0,0.6619007669380028,2.4245384128028213
0.0,73.0,0.0,0.0,0.0,0.025,0.0,0.0,0.015339807607233524,-1.293145775794983,1.0109710693359375,0.4712322950363159,-0.0715857669711113,0.0,0.015339807607233524,-1.293145775794983,1.0109710693359375,0.4962323009967804,-0.0715857669711113,0.003,0.0,0.0,0.0,0.0,0.0,0.0,-3.1,3.1,-1.571,1.571,-1.571,1.571,-1.745,1.745,-2.617,2.617,0.003,0.03,-0.05000000074505806,-0.02500000037252903,-0.02500000037252903,-0.02500000037252903,-0.05000000074505806,-0.0005000000237487257,0.05000000074505806,0.02500000037252903,0.02500000037252903,0.02500000037252903,0.05000000074505806,0.0005000000237487257,-0.001417420820910277,-0.6528688763269451,0.03764864965586783,0.14,0.0,0.26,0.12491972744464874,0.0019163948018103838,0.22555680572986603,0.0,0.6694272838935184,1.8063640693237293
0.0,74.0,0.0,0.0,0.0,0.025,0.0,0.0,0.015339807607233524,-1.293145775794983,1.0109710693359375,0.4962323009967804,-0.0715857669711113,0.0,0.015339807607233524,-1.293145775794983,1.0109710693359375,0.5212323069572449,-0.0715857669711113,0.003,0.0,0.0,0.0,0.0,0.0,0.0,-3.1,3.1,-1.571,1.571,-1.571,1.571,-1.745,1.745,-2.617,2.617,0.003,0.03,-0.05000000074505806,-0.02500000037252903,-0.02500000037252903,-0.02500000037252903,-0.05000000074505806,-0.0005000000237487257,0.05000000074505806,0.02500000037252903,0.02500000037252903,0.02500000037252903,0.05000000074505806,0.0005000000237487257,-0.0016371095679341646,-0.6545059858948793,0.040461210658285604,0.14,0.0,0.26,0.12427683174610138,0.0019065322121605277,0.22276753187179565,0.0,0.6750146405802654,1.3409656048192886
0.0,75.0,0.0,0.0,0.0,0.025,0.0,0.0,0.015339807607233524,-1.293145775794983,1.0109710693359375,0.5212323069572449,-0.0715857669711113,0.0,0.015339807607233524,-1.293145775794983,1.0109710693359375,0.546232283115387,-0.0715857669711113,0.003,0.0,0.0,0.0,0.0,0.0,0.0,-3.1,3.1,-1.571,1.571,-1.571,1.571,-1.745,1.745,-2.617,2.617,0.003,0.03,-0.05000000074505806,-0.02500000037252903,-0.02500000037252903,-0.02500000037252903,-0.05000000074505806,-0.0005000000237487257,0.05000000074505806,0.02500000037252903,0.02500000037252903,0.02500000037252903,0.05000000074505806,0.0005000000237487257,-0.0018741055034863165,-0.6563800913983656,0.04329094020099721,0.14,0.0,0.26,0.12356442213058472,0.001895603141747415,0.21999520063400269,0.0,0.6791350902507859,0.9889079209249196
0.0,76.0,0.0,0.0,0.0,0.025,0.0,0.0,0.015339807607233524,-1.293145775794983,1.0109710693359375,0.546232283115387,-0.0715857669711113,0.0,0.015339807607233524,-1.293145775794983,1.0109710693359375,0.571232259273529,-0.0715857669711113,0.003,0.0,0.0,0.0,0.0,0.0,0.0,-3.1,3.1,-1.571,1.571,-1.571,1.571,-1.745,1.745,-2.617,2.617,0.003,0.03,-0.05000000074505806,-0.02500000037252903,-0.02500000037252903,-0.02500000037252903,-0.05000000074505806,-0.0005000000237487257,0.05000000074505806,0.02500000037252903,0.02500000037252903,0.02500000037252903,0.05000000074505806,0.0005000000237487257,-0.002128261075498987,-0.6585083524738646,0.046133080056495114,0.14,0.0,0.26,0.12278293818235397,0.0018836144590750337,0.2172415405511856,0.0,0.6821135653194965,0.7148340164905509
0.0,77.0,0.0,0.0,0.0,0.025,0.0,0.0,0.015339807607233524,-1.293145775794983,1.0109710693359375,0.571232259273529,-0.0715857669711113,0.0,0.015339807607233524,-1.293145775794983,1.0109710693359375,0.5962322354316711,-0.0715857669711113,0.003,0.0,0.0,0.0,0.0,0.0,0.0,-3.1,3.1,-1.571,1.571,-1.571,1.571,-1.745,1.745,-2.617,2.617,0.003,0.03,-0.05000000074505806,-0.02500000037252903,-0.02500000037252903,-0.02500000037252903,-0.05000000074505806,-0.0005000000237487257,0.05000000074505806,0.02500000037252903,0.02500000037252903,0.02500000037252903,0.05000000074505806,0.0005000000237487257,-0.0023994151220339257,-0.6609077675958985,0.04898382510619118,0.14,0.0,0.26,0.12193287909030914,0.0018705736147239804,0.2145082950592041,0.0,0.6841788119270564,0.49565918581437884
0.0,78.0,0.0,0.0,0.0,0.025,0.0,0.0,0.015339807607233524,-1.293145775794983,1.0109710693359375,0.5962322354316711,-0.0715857669711113,0.0,0.015339807607233524,-1.293145775794983,1.0109710693359375,0.6212322115898132,-0.0715857669711113,0.003,0.0,0.0,0.0,0.0,0.0,0.0,-3.1,3.1,-1.571,1.571,-1.571,1.571,-1.745,1.745,-2.617,2.617,0.003,0.03,-0.05000000074505806,-0.02500000037252903,-0.02500000037252903,-0.02500000037252903,-0.05000000074505806,-0.0005000000237487257,0.05000000074505806,0.02500000037252903,0.02500000037252903,0.02500000037252903,0.05000000074505806,0.0005000000237487257,-0.00268740202449809,-0.6635951696203967,0.05184015841505589,0.14,0.0,0.26,0.12101476639509201,0.001856488874182105,0.21179713308811188,0.0,0.6855199941275297,0.3218837281135922
0.0,79.0,0.0,0.0,0.0,0.025,0.0,0.0,0.015339807607233524,-1.293145775794983,1.0109710693359375,0.6212322115898132,-0.0715857669711113,0.0,0.015339807607233524,-1.293145775794983,1.0109710693359375,0.6462321877479553,-0.0715857669711113,0.003,0.0,0.0,0.0,0.0,0.0,0.0,-3.1,3.1,-1.571,1.571,-1.571,1.571,-1.745,1.745,-2.617,2.617,0.003,0.03,-0.05000000074505806,-0.02500000037252903,-0.02500000037252903,-0.02500000037252903,-0.05000000074505806,-0.0005000000237487257,0.05000000074505806,0.02500000037252903,0.02500000037252903,0.02500000037252903,0.05000000074505806,0.0005000000237487257,-0.002992038707442586,-0.6665872083278392,0.054699531144632184,0.14,0.0,0.26,0.12002917379140854,0.0018413688521832228,0.20910978317260742,0.0,0.6862494550983106,0.17507063298740633
0.0,80.0,0.0,0.0,0.0,0.025,0.0,0.0,0.015339807607233524,-1.293145775794983,1.0109710693359375,0.6462321877479553,-0.0715857669711113,0.0,0.015339807607233524,-1.293145775794983,1.0109710693359375,0.6712321639060974,-0.0715857669711113,0.003,0.0,0.0,0.0,0.0,0.0,0.0,-3.1,3.1,-1.571,1.571,-1.571,1.571,-1.745,1.745,-2.617,2.617,0.003,0.03,-0.05000000074505806,-0.02500000037252903,-0.02500000037252903,-0.02500000037252903,-0.05000000074505806,-0.0005000000237487257,0.05000000074505806,0.02500000037252903,0.02500000037252903,0.02500000037252903,0.05000000074505806,0.0005000000237487257,-0.0033131353309725116,-0.6699003436588118,0.05755984130426796,0.14,0.0,0.26,0.11897672712802887,0.0018252232111990452,0.20644791424274445,0.0,0.6864744383125859,0.05399597142607959
0.0,81.0,0.0,0.0,0.0,0.025,0.0,0.0,0.015339807607233524,-1.293145775794983,1.0109710693359375,0.6712321639060974,-0.0715857669711113,0.0,0.015339807607233524,-1.293145775794983,1.0109710693359375,0.6962321400642395,-0.0715857669711113,0.003,0.0,0.0,0.0,0.0,0.0,0.0,-3.1,3.1,-1.571,1.571,-1.571,1.571,-1.745,1.745,-2.617,2.617,0.003,0.03,-0.05000000074505806,-0.02500000037252903,-0.02500000037252903,-0.02500000037252903,-0.05000000074505806,-0.0005000000237487257,0.05000000074505806,0.02500000037252903,0.02500000037252903,0.02500000037252903,0.05000000074505806,0.0005000000237487257,-0.0036504909786610564,-0.6735508346374729,0.06041929309964704,0.14,0.0,0.26,0.11785807460546494,0.0018080619629472494,0.20381319522857666,0.0,0.6862684308909794,-0.0494417811855552
0.0,82.0,0.0,0.0,0.0,0.025,0.0,0.0,0.015339807607233524,-1.293145775794983,1.0109710693359375,0.6962321400642395,-0.0715857669711113,0.0,0.015339807607233524,-1.293145775794983,1.0109710693359375,0.7212321162223816,-0.0715857669711113,0.003,0.0,0.0,0.0,0.0,0.0,0.0,-3.1,3.1,-1.571,1.571,-1.571,1.571,-1.745,1.745,-2.617,2.617,0.003,0.03,-0.05000000074505806,-0.02500000037252903,-0.02500000037252903,-0.02500000037252903,-0.05000000074505806,-0.0005000000237487257,0.05000000074505806,0.02500000037252903,0.02500000037252903,0.02500000037252903,0.05000000074505806,0.0005000000237487257,-0.0040038973054572265,-0.6775547319429301,0.06327635660700785,0.14,0.0,0.26,0.11667391657829285,0.0017898958176374435,0.2012072503566742,0.0,0.6856952417665951,-0.13756538985223443
0.0,83.0,0.0,0.0,0.0,0.025,0.0,0.0,0.015339807607233524,-1.293145775794983,1.0109710693359375,0.7212321162223816,-0.0715857669711113,0.0,0.015339807607233524,-1.293145775794983,1.0109710693359375,0.7462320923805237,-0.0715857669711113,0.003,0.0,0.0,0.0,0.0,0.0,0.0,-3.1,3.1,-1.571,1.571,-1.571,1.571,-1.745,1.745,-2.617,2.617,0.003,0.03,-0.05000000074505806,-0.02500000037252903,-0.02500000037252903,-0.02500000037252903,-0.05000000074505806,-0.0005000000237487257,0.05000000074505806,0.02500000037252903,0.02500000037252903,0.02500000037252903,0.05000000074505806,0.0005000000237487257,-0.004373130338457988,-0.6819278622813881,0.06612964795353131,0.14,0.0,0.26,0.1154249981045723,0.0017707360675558448,0.19863173365592957,0.0,0.6847899231656296,-0.21727646423173042
0.0,84.0,0.0,0.0,0.0,0.025,0.0,0.0,0.015339807607233524,-1.293145775794983,1.0109710693359375,0.7462320923805237,-0.0715857669711113,0.0,0.015339807607233524,-1.293145775794983,1.0109710693359375,0.7712320685386658,-0.0715857669711113,0.003,0.0,0.0,0.0,0.0,0.0,0.0,-3.1,3.1,-1.571,1.571,-1.571,1.571,-1.745,1.745,-2.617,2.617,0.003,0.03,-0.05000000074505806,-0.02500000037252903,-0.02500000037252903,-0.02500000037252903,-0.05000000074505806,-0.0005000000237487257,0.05000000074505806,0.02500000037252903,0.02500000037252903,0.02500000037252903,0.05000000074505806,0.0005000000237487257,-0.0047579594759987,-0.6866858217573868,0.06897796369855158,0.14,0.0,0.26,0.11411209404468536,0.0017505948198959231,0.1960882544517517,0.0,0.6835957788048652,-0.286594646583449
0.0,85.0,0.0,0.0,0.0,0.025,0.0,0.0,0.015339807607233524,-1.293145775794983,1.0109710693359375,0.7712320685386658,-0.0715857669711113,0.0,0.015339807607233524,-1.293145775794983,1.0109710693359375,0.7962320446968079,-0.0715857669711113,0.003,0.0,0.0,0.0,0.0,0.0,0.0,-3.1,3.1,-1.571,1.571,-1.571,1.571,-1.745,1.745,-2.617,2.617,0.003,0.03,-0.05000000074505806,-0.02500000037252903,-0.02500000037252903,-0.02500000037252903,-0.05000000074505806,-0.0005000000237487257,0.05000000074505806,0.02500000037252903,0.02500000037252903,0.02500000037252903,0.05000000074505806,0.0005000000237487257,-0.0051581474594415404,-0.6918439692168283,0.07182024407812564,0.14,0.0,0.26,0.11273602396249771,0.001729484531097114,0.19357837736606598,0.0,0.6821472910977733,-0.3476370497020653
0.0,86.0,0.0,0.0,0.0,0.025,0.0,0.0,0.015339807607233524,-1.293145775794983,1.0109710693359375,0.7962320446968079,-0.0715857669711113,0.0,0.015339807607233524,-1.293145775794983,1.0109710693359375,0.82123202085495,-0.0715857669711113,0.003,0.0,0.0,0.0,0.0,0.0,0.0,-3.1,3.1,-1.571,1.571,-1.571,1.571,-1.745,1.745,-2.617,2.617,0.003,0.03,-0.05000000074505806,-0.02500000037252903,-0.02500000037252903,-0.02500000037252903,-0.05000000074505806,-0.0005000000237487257,0.05000000074505806,0.02500000037252903,0.02500000037252903,0.02500000037252903,0.05000000074505806,0.0005000000237487257,-0.0055734406427977385,-0.6974174098596261,0.07465547965687273,0.14,0.0,0.26,0.11129765212535858,0.001707418472506106,0.19110369682312012,0.0,0.6804565388993034,-0.40578052763278194
0.0,87.0,0.0,0.0,0.0,0.025,0.0,0.0,0.015339807607233524,-1.293145775794983,1.0109710693359375,0.82123202085495,-0.0715857669711113,0.0,0.015339807607233524,-1.293145775794983,1.0109710693359375,0.846231997013092,-0.0715857669711113,0.003,0.0,0.0,0.0,0.0,0.0,0.0,-3.1,3.1,-1.571,1.571,-1.571,1.571,-1.745,1.745,-2.617,2.617,0.003,0.03,-0.05000000074505806,-0.02500000037252903,-0.02500000037252903,-0.02500000037252903,-0.05000000074505806,-0.0005000000237487257,0.05000000074505806,0.02500000037252903,0.02500000037252903,0.02500000037252903,0.05000000074505806,0.0005000000237487257,-0.006003582973313462,-0.7034209928329396,0.07748279146567619,0.14,0.0,0.26,0.1097978800535202,0.001684410497546196,0.1886657327413559,0.0,0.6785548341128289,-0.45640914875386684
0.0,88.0,0.0,0.0,0.0,0.025,0.0,0.0,0.015339807607233524,-1.293145775794983,1.0109710693359375,0.846231997013092,-0.0715857669711113,0.0,0.015339807607233524,-1.293145775794983,1.0109710693359375,0.8712319731712341,-0.0715857669711113,0.003,0.0,0.0,0.0,0.0,0.0,0.0,-3.1,3.1,-1.571,1.571,-1.571,1.571,-1.745,1.745,-2.617,2.617,0.003,0.03,-0.05000000074505806,-0.02500000037252903,-0.02500000037252903,-0.02500000037252903,-0.05000000074505806,-0.0005000000237487257,0.05000000074505806,0.02500000037252903,0.02500000037252903,0.02500000037252903,0.05000000074505806,0.0005000000237487257,-0.0064483001690128555,-0.7098692930019525,0.08030130863823363,0.14,0.0,0.26,0.10823763906955719,0.0016604748088866472,0.18626604974269867,0.0,0.6764441214137873,-0.5065710477699881
0.0,89.0,0.0,0.0,0.0,0.025,0.0,0.0,0.015339807607233524,-1.293145775794983,1.0109710693359375,0.8712319731712341,-0.0715857669711113,0.0,0.015339807607233524,-1.293145775794983,1.0109710693359375,0.8962319493293762,-0.0715857669711113,0.003,0.0,0.0,0.0,0.0,0.0,0.0,-3.1,3.1,-1.571,1.571,-1.571,1.571,-1.745,1.745,-2.617,2.617,0.003,0.03,-0.05000000074505806,-0.02500000037252903,-0.02500000037252903,-0.02500000037252903,-0.05000000074505806,-0.0005000000237487257,0.05000000074505806,0.02500000037252903,0.02500000037252903,0.02500000037252903,0.05000000074505806,0.0005000000237487257,-0.006907319905705262,-0.7167766129076577,0.08311028760451537,0.14,0.0,0.26,0.10661790519952774,0.0016356265405192971,0.18390610814094543,0.0,0.6741549519076173,-0.5494006814807939
0.0,90.0,0.0,0.0,0.0,0.025,0.0,0.0,0.015339807607233524,-1.293145775794983,1.0109710693359375,0.8962319493293762,-0.0715857669711113,0.0,0.015339807607233524,-1.293145775794983,1.0109710693359375,0.9212319254875183,-0.0715857669711113,0.003,0.0,0.0,0.0,0.0,0.0,0.0,-3.1,3.1,-1.571,1.571,-1.571,1.571,-1.745,1.745,-2.617,2.617,0.003,0.03,-0.05000000074505806,-0.02500000037252903,-0.02500000037252903,-0.02500000037252903,-0.05000000074505806,-0.0005000000237487257,0.05000000074505806,0.02500000037252903,0.02500000037252903,0.02500000037252903,0.05000000074505806,0.0005000000237487257,-0.007380352555328259,-0.7241569654629859,0.08590897831617053,0.14,0.0,0.26,0.10493969917297363,0.0016098810592666268,0.18158739805221558,0.0,0.6716857707972379,-0.5926034664910595
0.0,91.0,0.0,0.0,0.0,0.025,0.0,0.0,0.015339807607233524,-1.293145775794983,1.0109710693359375,0.9212319254875183,-0.0715857669711113,0.0,0.015339807607233524,-1.293145775794983,1.0109710693359375,0.9462319016456604,-0.0715857669711113,0.003,0.0,0.0,0.0,0.0,0.0,0.0,-3.1,3.1,-1.571,1.571,-1.571,1.571,-1.745,1.745,-2.617,2.617,0.003,0.03,-0.05000000074505806,-0.02500000037252903,-0.02500000037252903,-0.02500000037252903,-0.05000000074505806,-0.0005000000237487257,0.05000000074505806,0.02500000037252903,0.02500000037252903,0.02500000037252903,0.05000000074505806,0.0005000000237487257,-0.007867103980193038,-0.732024069443179,0.08869669655738616,0.14,0.0,0.26,0.10320405662059784,0.0015832545468583703,0.1793113648891449,0.0,0.6690523778917501,-0.6320142973170739
0.0,92.0,0.0,0.0,0.0,0.025,0.0,0.0,0.015339807607233524,-1.293145775794983,1.0109710693359375,0.9462319016456604,-0.0715857669711113,0.0,0.015339807607233524,-1.293145775794983,1.0109710693359375,0.9712318778038025,-0.0715857669711113,0.003,0.0,0.0,0.0,0.0,0.0,0.0,-3.1,3.1,-1.571,1.571,-1.571,1.571,-1.745,1.745,-2.617,2.617,0.003,0.03,-0.05000000074505806,-0.02500000037252903,-0.02500000037252903,-0.02500000037252903,-0.05000000074505806,-0.0005000000237487257,0.05000000074505806,0.02500000037252903,0.02500000037252903,0.02500000037252903,0.05000000074505806,0.0005000000237487257,-0.008367268512339706,-0.7403913379555187,0.09147277470559044,0.14,0.0,0.26,0.10141206532716751,0.0015557636506855488,0.177079439163208,0.0,0.666258755569028,-0.670469357453296
0.0,93.0,0.0,0.0,0.0,0.025,0.0,0.0,0.015339807607233524,-1.293145775794983,1.0109710693359375,0.9712318778038025,-0.0715857669711113,0.0,0.015339807607233524,-1.293145775794983,1.0109710693359375,0.9962318539619446,-0.0715857669711113,0.003,0.0,0.0,0.0,0.0,0.0,0.0,-3.1,3.1,-1.571,1.571,-1.571,1.571,-1.745,1.745,-2.617,2.617,0.003,0.03,-0.05000000074505806,-0.02500000037252903,-0.02500000037252903,-0.02500000037252903,-0.05000000074505806,-0.0005000000237487257,0.05000000074505806,0.02500000037252903,0.02500000037252903,0.02500000037252903,0.05000000074505806,0.0005000000237487257,-0.00888053406644741,-0.7492718720219661,0.09423658560478203,0.14,0.0,0.26,0.09956485778093338,0.0015274254838004708,0.17489300668239594,0.0,0.6633146158059811,-0.7065935431312731
0.0,94.0,0.0,0.0,0.0,0.025,0.0,0.0,0.015339807607233524,-1.293145775794983,1.0109710693359375,0.9962318539619446,-0.0715857669711113,0.0,0.015339807607233524,-1.293145775794983,1.0109710693359375,1.0212318897247314,-0.0715857669711113,0.003,0.0,0.0,0.0,0.0,0.0,0.0,-3.1,3.1,-1.571,1.571,-1.571,1.571,-1.745,1.745,-2.617,2.617,0.003,0.03,-0.05000000074505806,-0.02500000037252903,-0.02500000037252903,-0.02500000037252903,-0.05000000074505806,-0.0005000000237487257,0.05000000074505806,0.02500000037252903,0.02500000037252903,0.02500000037252903,0.05000000074505806,0.0005000000237487257,-0.009406580899765838,-0.758678452921732,0.09698752960956289,0.14,0.0,0.26,0.09766356647014618,0.001498257857747376,0.1727534383535385,0.0,0.6602265611474067,-0.7411331180578351
0.0,95.0,0.0,0.0,0.0,0.025,0.0,0.0,0.015339807607233524,-1.293145775794983,1.0109710693359375,1.0212318897247314,-0.0715857669711113,0.0,0.015339807607233524,-1.293145775794983,1.0109710693359375,1.0462318658828735,-0.0715857669711113,0.003,0.0,0.0,0.0,0.0,0.0,0.0,-3.1,3.1,-1.571,1.571,-1.571,1.571,-1.745,1.745,-2.617,2.617,0.003,0.03,-0.05000000074505806,-0.02500000037252903,-0.02500000037252903,-0.02500000037252903,-0.05000000074505806,-0.0005000000237487257,0.05000000074505806,0.02500000037252903,0.02500000037252903,0.02500000037252903,0.05000000074505806,0.0005000000237487257,-0.009945075364697225,-0.7686235282864292,0.09972499869489708,0.14,0.0,0.26,0.09570939838886261,0.0014682789333164692,0.17066209018230438,0.0,0.6569925804802057,-0.77615536012825
0.0,96.0,0.0,0.0,0.0,0.025,0.0,0.0,0.015339807607233524,-1.293145775794983,1.0109710693359375,1.0462318658828735,-0.0715857669711113,0.0,0.015339807607233524,-1.293145775794983,1.0109710693359375,1.0712318420410156,-0.0715857669711113,0.003,0.0,0.0,0.0,0.0,0.0,0.0,-3.1,3.1,-1.571,1.571,-1.571,1.571,-1.745,1.745,-2.617,2.617,0.003,0.03,-0.05000000074505806,-0.02500000037252903,-0.02500000037252903,-0.02500000037252903,-0.05000000074505806,-0.0005000000237487257,0.05000000074505806,0.02500000037252903,0.02500000037252903,0.02500000037252903,0.05000000074505806,0.0005000000237487257,-0.010495688635824956,-0.7791192169222542,0.10244846819657655,0.14,0.0,0.26,0.09370356798171997,0.0014375074533745646,0.16862022876739502,0.0,0.6536326804030723,-0.8063760185120117
0.0,97.0,0.0,0.0,0.0,0.025,0.0,0.0,0.015339807607233524,-1.293145775794983,1.0109710693359375,1.0712318420410156,-0.0715857669711113,0.0,0.015339807607233524,-1.293145775794983,1.0109710693359375,1.0962318181991577,-0.0715857669711113,0.003,0.0,0.0,0.0,0.0,0.0,0.0,-3.1,3.1,-1.571,1.571,-1.571,1.571,-1.745,1.745,-2.617,2.617,0.003,0.03,-0.05000000074505806,-0.02500000037252903,-0.02500000037252903,-0.02500000037252903,-0.05000000074505806,-0.0005000000237487257,0.05000000074505806,0.02500000037252903,0.02500000037252903,0.02500000037252903,0.05000000074505806,0.0005000000237487257,-0.011058069754012667,-0.7901772866762669,0.10515735710834818,0.14,0.0,0.26,0.09164733439683914,0.0014059627428650856,0.16662916541099548,0.0,0.6501333388251929,-0.8398419786910694
0.0,98.0,0.0,0.0,0.0,0.025,0.0,0.0,0.015339807607233524,-1.293145775794983,1.0109710693359375,1.0962318181991577,-0.0715857669711113,0.0,0.015339807607233524,-1.293145775794983,1.0109710693359375,1.1212317943572998,-0.0715857669711113,0.003,0.0,0.0,0.0,0.0,0.0,0.0,-3.1,3.1,-1.571,1.571,-1.571,1.571,-1.745,1.745,-2.617,2.617,0.003,0.03,-0.05000000074505806,-0.02500000037252903,-0.02500000037252903,-0.02500000037252903,-0.05000000074505806,-0.0005000000237487257,0.05000000074505806,0.02500000037252903,0.02500000037252903,0.02500000037252903,0.05000000074505806,0.0005000000237487257,-0.011631872418149456,-0.8018091590944163,0.10785115863146513,0.14,0.0,0.26,0.0895419716835022,0.001373664359562099,0.16469012200832367,0.0,0.6465123655480676,-0.8690335865100707
0.0,99.0,0.0,0.0,0.0,0.025,0.0,0.0,0.015339807607233524,-1.293145775794983,1.0109710693359375,1.1212317943572998,-0.0715857669711113,0.0,0.015339807607233524,-1.293145775794983,1.0109710693359375,1.146231770515442,-0.0715857669711113,0.003,0.0,0.0,0.0,0.0,0.0,0.0,-3.1,3.1,-1.571,1.571,-1.571,1.571,-1.745,1.745,-2.617,2.617,0.003,0.03,-0.05000000074505806,-0.02500000037252903,-0.02500000037252903,-0.02500000037252903,-0.05000000074505806,-0.0005000000237487257,0.05000000074505806,0.02500000037252903,0.02500000037252903,0.02500000037252903,0.05000000074505806,0.0005000000237487257,-0.012216735147317597,-0.8140258942417339,0.11052934066263852,0.14,0.0,0.26,0.08738880604505539,0.0013406325597316027,0.16280432045459747,1.0,0.6427636874816123,-0.8996827359492698
