PierreExeter/WidowX-reacher/tests/Check_env_consistency/logs/12_action4_-0.025.csv
episode,timestep,action_1,action_2,action_3,action_4,action_5,action_6,current_joint_pos_1,current_joint_pos_2,current_joint_pos_3,current_joint_pos_4,current_joint_pos_5,current_joint_pos_6,new_joint_pos_1,new_joint_pos_2,new_joint_pos_3,new_joint_pos_4,new_joint_pos_5,new_joint_pos_6,joint_vel_1,joint_vel_2,joint_vel_3,joint_vel_4,joint_vel_5,joint_vel_6,joint1_min,joint1_max,joint2_min,joint2_max,joint3_min,joint3_max,joint4_min,joint4_max,joint5_min,joint5_max,joint6_min,joint6_max,action_low1,action_low2,action_low3,action_low4,action_low5,action_low6,action_high1,action_high2,action_high3,action_high4,action_high5,action_high6,reward,return,dist,target_x,target_y,target_z,tip_x,tip_y,tip_z,done,est_vel
0.0,0.0,0.0,0.0,0.0,-0.025,0.0,0.0,0.015339807607233524,-1.293145775794983,1.0109710693359375,-1.3537670373916626,-0.0715857669711113,0.0,0.015339807607233524,-1.293145775794983,1.0109710693359375,-1.3787670135498047,-0.0715857669711113,0.003,0.0,0.0,0.0,0.0,0.0,0.0,-3.1,3.1,-1.571,1.571,-1.571,1.571,-1.745,1.745,-2.617,2.617,0.003,0.03,-0.05000000074505806,-0.02500000037252903,-0.02500000037252903,-0.02500000037252903,-0.05000000074505806,-0.0005000000237487257,0.05000000074505806,0.02500000037252903,0.02500000037252903,0.02500000037252903,0.05000000074505806,0.0005000000237487257,-0.02963868008064998,-0.02963868008064998,0.172158880342113,0.14,0.0,0.26,0.002739658346399665,4.20291289628949e-05,0.36391475796699524,0.0,
0.0,1.0,0.0,0.0,0.0,-0.025,0.0,0.0,0.015339807607233524,-1.293145775794983,1.0109710693359375,-1.3787670135498047,-0.0715857669711113,0.0,0.015339807607233524,-1.293145775794983,1.0109710693359375,-1.4037669897079468,-0.0715857669711113,0.003,0.0,0.0,0.0,0.0,0.0,0.0,-3.1,3.1,-1.571,1.571,-1.571,1.571,-1.745,1.745,-2.617,2.617,0.003,0.03,-0.05000000074505806,-0.02500000037252903,-0.02500000037252903,-0.02500000037252903,-0.05000000074505806,-0.0005000000237487257,0.05000000074505806,0.02500000037252903,0.02500000037252903,0.02500000037252903,0.05000000074505806,0.0005000000237487257,-0.03036747679729484,-0.06000615687794482,0.17426266610291155,0.14,0.0,0.26,-0.00010736325930338353,-1.6470609125462943e-06,0.36362144351005554,0.0,0.5049085825916544
0.0,2.0,0.0,0.0,0.0,-0.025,0.0,0.0,0.015339807607233524,-1.293145775794983,1.0109710693359375,-1.4037669897079468,-0.0715857669711113,0.0,0.015339807607233524,-1.293145775794983,1.0109710693359375,-1.4287669658660889,-0.0715857669711113,0.003,0.0,0.0,0.0,0.0,0.0,0.0,-3.1,3.1,-1.571,1.571,-1.571,1.571,-1.745,1.745,-2.617,2.617,0.003,0.03,-0.05000000074505806,-0.02500000037252903,-0.02500000037252903,-0.02500000037252903,-0.05000000074505806,-0.0005000000237487257,0.05000000074505806,0.02500000037252903,0.02500000037252903,0.02500000037252903,0.05000000074505806,0.0005000000237487257,-0.03109562645721446,-0.09110178333515928,0.1763395204065568,0.14,0.0,0.26,-0.002946164458990097,-4.519713911577128e-05,0.3632570505142212,0.0,0.49844503287485686
0.0,3.0,0.0,0.0,0.0,-0.025,0.0,0.0,0.015339807607233524,-1.293145775794983,1.0109710693359375,-1.4287669658660889,-0.0715857669711113,0.0,0.015339807607233524,-1.293145775794983,1.0109710693359375,-1.453766942024231,-0.0715857669711113,0.003,0.0,0.0,0.0,0.0,0.0,0.0,-3.1,3.1,-1.571,1.571,-1.571,1.571,-1.745,1.745,-2.617,2.617,0.003,0.03,-0.05000000074505806,-0.02500000037252903,-0.02500000037252903,-0.02500000037252903,-0.05000000074505806,-0.0005000000237487257,0.05000000074505806,0.02500000037252903,0.02500000037252903,0.02500000037252903,0.05000000074505806,0.0005000000237487257,-0.0318226761804578,-0.12292445951561709,0.17838911452344228,0.14,0.0,0.26,-0.005774971097707748,-8.859389345161617e-05,0.3628218173980713,0.0,0.4919025880525174
0.0,4.0,0.0,0.0,0.0,-0.025,0.0,0.0,0.015339807607233524,-1.293145775794983,1.0109710693359375,-1.453766942024231,-0.0715857669711113,0.0,0.015339807607233524,-1.293145775794983,1.0109710693359375,-1.478766918182373,-0.0715857669711113,0.003,0.0,0.0,0.0,0.0,0.0,0.0,-3.1,3.1,-1.571,1.571,-1.571,1.571,-1.745,1.745,-2.617,2.617,0.003,0.03,-0.05000000074505806,-0.02500000037252903,-0.02500000037252903,-0.02500000037252903,-0.05000000074505806,-0.0005000000237487257,0.05000000074505806,0.02500000037252903,0.02500000037252903,0.02500000037252903,0.05000000074505806,0.0005000000237487257,-0.032548170724866377,-0.15547263024048347,0.18041111585727299,0.14,0.0,0.26,-0.008592015132308006,-0.0001318102004006505,0.3623160123825073,0.0,0.48528032011937006
0.0,5.0,0.0,0.0,0.0,-0.025,0.0,0.0,0.015339807607233524,-1.293145775794983,1.0109710693359375,-1.478766918182373,-0.0715857669711113,0.0,0.015339807607233524,-1.293145775794983,1.0109710693359375,-1.5037668943405151,-0.0715857669711113,0.003,0.0,0.0,0.0,0.0,0.0,0.0,-3.1,3.1,-1.571,1.571,-1.571,1.571,-1.745,1.745,-2.617,2.617,0.003,0.03,-0.05000000074505806,-0.02500000037252903,-0.02500000037252903,-0.02500000037252903,-0.05000000074505806,-0.0005000000237487257,0.05000000074505806,0.02500000037252903,0.02500000037252903,0.02500000037252903,0.05000000074505806,0.0005000000237487257,-0.033271646712910254,-0.1887442769533937,0.18240517183706786,0.14,0.0,0.26,-0.011395535431802273,-0.000174819040694274,0.3617399036884308,0.0,0.4785734351507709
0.0,6.0,0.0,0.0,0.0,-0.025,0.0,0.0,0.015339807607233524,-1.293145775794983,1.0109710693359375,-1.5037668943405151,-0.0715857669711113,0.0,0.015339807607233524,-1.293145775794983,1.0109710693359375,-1.5287668704986572,-0.0715857669711113,0.003,0.0,0.0,0.0,0.0,0.0,0.0,-3.1,3.1,-1.571,1.571,-1.571,1.571,-1.745,1.745,-2.617,2.617,0.003,0.03,-0.05000000074505806,-0.02500000037252903,-0.02500000037252903,-0.02500000037252903,-0.05000000074505806,-0.0005000000237487257,0.05000000074505806,0.02500000037252903,0.02500000037252903,0.02500000037252903,0.05000000074505806,0.0005000000237487257,-0.033992664049829896,-0.2227369410032236,0.18437099568486875,0.14,0.0,0.26,-0.01418378110975027,-0.0002175935369450599,0.3610939085483551,0.0,0.4717977234722137
0.0,7.0,0.0,0.0,0.0,-0.025,0.0,0.0,0.015339807607233524,-1.293145775794983,1.0109710693359375,-1.5287668704986572,-0.0715857669711113,0.0,0.015339807607233524,-1.293145775794983,1.0109710693359375,-1.5537668466567993,-0.0715857669711113,0.003,0.0,0.0,0.0,0.0,0.0,0.0,-3.1,3.1,-1.571,1.571,-1.571,1.571,-1.745,1.745,-2.617,2.617,0.003,0.03,-0.05000000074505806,-0.02500000037252903,-0.02500000037252903,-0.02500000037252903,-0.05000000074505806,-0.0005000000237487257,0.05000000074505806,0.02500000037252903,0.02500000037252903,0.02500000037252903,0.05000000074505806,0.0005000000237487257,-0.03471076251409835,-0.25744770351732194,0.18630824596377465,0.14,0.0,0.26,-0.01695500873029232,-0.0002601069863885641,0.3603783845901489,0.0,0.46494006693741596
0.0,8.0,0.0,0.0,0.0,-0.025,0.0,0.0,0.015339807607233524,-1.293145775794983,1.0109710693359375,-1.5537668466567993,-0.0715857669711113,0.0,0.015339807607233524,-1.293145775794983,1.0109710693359375,-1.5787668228149414,-0.0715857669711113,0.003,0.0,0.0,0.0,0.0,0.0,0.0,-3.1,3.1,-1.571,1.571,-1.571,1.571,-1.745,1.745,-2.617,2.617,0.003,0.03,-0.05000000074505806,-0.02500000037252903,-0.02500000037252903,-0.02500000037252903,-0.05000000074505806,-0.0005000000237487257,0.05000000074505806,0.02500000037252903,0.02500000037252903,0.02500000037252903,0.05000000074505806,0.0005000000237487257,-0.03542550575304464,-0.2928732092703666,0.18821664579161068,0.14,0.0,0.26,-0.019707487896084785,-0.00030233277357183397,0.35959383845329285,0.0,0.4580159586806465
0.0,9.0,0.0,0.0,0.0,-0.025,0.0,0.0,0.015339807607233524,-1.293145775794983,1.0109710693359375,-1.5787668228149414,-0.0715857669711113,0.0,0.015339807607233524,-1.293145775794983,1.0109710693359375,-1.6037667989730835,-0.0715857669711113,0.003,0.0,0.0,0.0,0.0,0.0,0.0,-3.1,3.1,-1.571,1.571,-1.571,1.571,-1.745,1.745,-2.617,2.617,0.003,0.03,-0.05000000074505806,-0.02500000037252903,-0.02500000037252903,-0.02500000037252903,-0.05000000074505806,-0.0005000000237487257,0.05000000074505806,0.02500000037252903,0.02500000037252903,0.02500000037252903,0.05000000074505806,0.0005000000237487257,-0.03613643129450262,-0.3290096405648692,0.1900958476519217,0.14,0.0,0.26,-0.022439494729042053,-0.0003442445595283061,0.3587406873703003,0.0,0.45100844647464333
0.0,10.0,0.0,0.0,0.0,-0.025,0.0,0.0,0.015339807607233524,-1.293145775794983,1.0109710693359375,-1.6037667989730835,-0.0715857669711113,0.0,0.015339807607233524,-1.293145775794983,1.0109710693359375,-1.6287667751312256,-0.0715857669711113,0.003,0.0,0.0,0.0,0.0,0.0,0.0,-3.1,3.1,-1.571,1.571,-1.571,1.571,-1.745,1.745,-2.617,2.617,0.003,0.03,-0.05000000074505806,-0.02500000037252903,-0.02500000037252903,-0.02500000037252903,-0.05000000074505806,-0.0005000000237487257,0.05000000074505806,0.02500000037252903,0.02500000037252903,0.02500000037252903,0.05000000074505806,0.0005000000237487257,-0.0368431089254734,-0.3658527494903426,0.1919455884501475,0.14,0.0,0.26,-0.025149326771497726,-0.0003858160926029086,0.357819527387619,0.0,0.4439377915741938
0.0,11.0,0.0,0.0,0.0,-0.025,0.0,0.0,0.015339807607233524,-1.293145775794983,1.0109710693359375,-1.6287667751312256,-0.0715857669711113,0.0,0.015339807607233524,-1.293145775794983,1.0109710693359375,-1.6537667512893677,-0.0715857669711113,0.003,0.0,0.0,0.0,0.0,0.0,0.0,-3.1,3.1,-1.571,1.571,-1.571,1.571,-1.745,1.745,-2.617,2.617,0.003,0.03,-0.05000000074505806,-0.02500000037252903,-0.02500000037252903,-0.02500000037252903,-0.05000000074505806,-0.0005000000237487257,0.05000000074505806,0.02500000037252903,0.02500000037252903,0.02500000037252903,0.05000000074505806,0.0005000000237487257,-0.03754508817753027,-0.40339783766787285,0.19376554951159475,0.14,0.0,0.26,-0.027835287153720856,-0.00042702144128270447,0.356830894947052,0.0,0.4367906547473388
0.0,12.0,0.0,0.0,0.0,-0.025,0.0,0.0,0.015339807607233524,-1.293145775794983,1.0109710693359375,-1.6537667512893677,-0.0715857669711113,0.0,0.015339807607233524,-1.293145775794983,1.0109710693359375,-1.6787667274475098,-0.0715857669711113,0.003,0.0,0.0,0.0,0.0,0.0,0.0,-3.1,3.1,-1.571,1.571,-1.571,1.571,-1.745,1.745,-2.617,2.617,0.003,0.03,-0.05000000074505806,-0.02500000037252903,-0.02500000037252903,-0.02500000037252903,-0.05000000074505806,-0.0005000000237487257,0.05000000074505806,0.02500000037252903,0.02500000037252903,0.02500000037252903,0.05000000074505806,0.0005000000237487257,-0.03824193207090215,-0.441639769738775,0.195555445004485,0.14,0.0,0.26,-0.030495697632431984,-0.00046783481957390904,0.3557754158973694,0.0,0.4295749182936581
0.0,13.0,0.0,0.0,0.0,-0.025,0.0,0.0,0.015339807607233524,-1.293145775794983,1.0109710693359375,-1.6787667274475098,-0.0715857669711113,0.0,0.015339807607233524,-1.293145775794983,1.0109710693359375,-1.7037667036056519,-0.0715857669711113,0.003,0.0,0.0,0.0,0.0,0.0,0.0,-3.1,3.1,-1.571,1.571,-1.571,1.571,-1.745,1.745,-2.617,2.617,0.003,0.03,-0.05000000074505806,-0.02500000037252903,-0.02500000037252903,-0.02500000037252903,-0.05000000074505806,-0.0005000000237487257,0.05000000074505806,0.02500000037252903,0.02500000037252903,0.02500000037252903,0.05000000074505806,0.0005000000237487257,-0.03893320978860968,-0.4805729795273847,0.19731500142819774,0.14,0.0,0.26,-0.03312889486551285,-0.0005082307616248727,0.3546537756919861,0.0,0.42229354169106115
0.0,14.0,0.0,0.0,0.0,-0.025,0.0,0.0,0.015339807607233524,-1.293145775794983,1.0109710693359375,-1.7037667036056519,-0.0715857669711113,0.0,0.015339807607233524,-1.293145775794983,1.0109710693359375,-1.728766679763794,-0.0715857669711113,0.003,0.0,0.0,0.0,0.0,0.0,0.0,-3.1,3.1,-1.571,1.571,-1.571,1.571,-1.745,1.745,-2.617,2.617,0.003,0.03,-0.05000000074505806,-0.02500000037252903,-0.02500000037252903,-0.02500000037252903,-0.05000000074505806,-0.0005000000237487257,0.05000000074505806,0.02500000037252903,0.02500000037252903,0.02500000037252903,0.05000000074505806,0.0005000000237487257,-0.03961848788657761,-0.5201914674139623,0.19904393456364755,0.14,0.0,0.26,-0.035733237862586975,-0.0005481839762069285,0.353466659784317,0.0,0.41494395250795346
0.0,15.0,0.0,0.0,0.0,-0.025,0.0,0.0,0.015339807607233524,-1.293145775794983,1.0109710693359375,-1.728766679763794,-0.0715857669711113,0.0,0.015339807607233524,-1.293145775794983,1.0109710693359375,-1.745,-0.0715857669711113,0.003,0.0,0.0,0.0,0.0,0.0,0.0,-3.1,3.1,-1.571,1.571,-1.571,1.571,-1.745,1.745,-2.617,2.617,0.003,0.03,-0.05000000074505806,-0.02500000037252903,-0.02500000037252903,-0.02500000037252903,-0.05000000074505806,-0.0005000000237487257,0.05000000074505806,0.02500000037252903,0.02500000037252903,0.02500000037252903,0.05000000074505806,0.0005000000237487257,-0.040060042788312725,-0.560251510202275,0.20015005068276331,0.14,0.0,0.26,-0.037408098578453064,-0.0005738780600950122,0.3526611030101776,0.0,0.26546786858778315
0.0,16.0,0.0,0.0,0.0,-0.025,0.0,0.0,0.015339807607233524,-1.293145775794983,1.0109710693359375,-1.7450000047683716,-0.0715857669711113,0.0,0.015339807607233524,-1.293145775794983,1.0109710693359375,-1.745,-0.0715857669711113,0.003,0.0,0.0,0.0,0.0,0.0,0.0,-3.1,3.1,-1.571,1.571,-1.571,1.571,-1.745,1.745,-2.617,2.617,0.003,0.03,-0.05000000074505806,-0.02500000037252903,-0.02500000037252903,-0.02500000037252903,-0.05000000074505806,-0.0005000000237487257,0.05000000074505806,0.02500000037252903,0.02500000037252903,0.02500000037252903,0.05000000074505806,0.0005000000237487257,-0.040060042788312725,-0.6003115529905878,0.20015005068276331,0.14,0.0,0.26,-0.037408098578453064,-0.0005738780600950122,0.3526611030101776,0.0,0.0
0.0,17.0,0.0,0.0,0.0,-0.025,0.0,0.0,0.015339807607233524,-1.293145775794983,1.0109710693359375,-1.7450000047683716,-0.0715857669711113,0.0,0.015339807607233524,-1.293145775794983,1.0109710693359375,-1.745,-0.0715857669711113,0.003,0.0,0.0,0.0,0.0,0.0,0.0,-3.1,3.1,-1.571,1.571,-1.571,1.571,-1.745,1.745,-2.617,2.617,0.003,0.03,-0.05000000074505806,-0.02500000037252903,-0.02500000037252903,-0.02500000037252903,-0.05000000074505806,-0.0005000000237487257,0.05000000074505806,0.02500000037252903,0.02500000037252903,0.02500000037252903,0.05000000074505806,0.0005000000237487257,-0.040060042788312725,-0.6403715957789006,0.20015005068276331,0.14,0.0,0.26,-0.037408098578453064,-0.0005738780600950122,0.3526611030101776,0.0,0.0
0.0,18.0,0.0,0.0,0.0,-0.025,0.0,0.0,0.015339807607233524,-1.293145775794983,1.0109710693359375,-1.7450000047683716,-0.0715857669711113,0.0,0.015339807607233524,-1.293145775794983,1.0109710693359375,-1.745,-0.0715857669711113,0.003,0.0,0.0,0.0,0.0,0.0,0.0,-3.1,3.1,-1.571,1.571,-1.571,1.571,-1.745,1.745,-2.617,2.617,0.003,0.03,-0.05000000074505806,-0.02500000037252903,-0.02500000037252903,-0.02500000037252903,-0.05000000074505806,-0.0005000000237487257,0.05000000074505806,0.02500000037252903,0.02500000037252903,0.02500000037252903,0.05000000074505806,0.0005000000237487257,-0.040060042788312725,-0.6804316385672133,0.20015005068276331,0.14,0.0,0.26,-0.037408098578453064,-0.0005738780600950122,0.3526611030101776,0.0,0.0
0.0,19.0,0.0,0.0,0.0,-0.025,0.0,0.0,0.015339807607233524,-1.293145775794983,1.0109710693359375,-1.7450000047683716,-0.0715857669711113,0.0,0.015339807607233524,-1.293145775794983,1.0109710693359375,-1.745,-0.0715857669711113,0.003,0.0,0.0,0.0,0.0,0.0,0.0,-3.1,3.1,-1.571,1.571,-1.571,1.571,-1.745,1.745,-2.617,2.617,0.003,0.03,-0.05000000074505806,-0.02500000037252903,-0.02500000037252903,-0.02500000037252903,-0.05000000074505806,-0.0005000000237487257,0.05000000074505806,0.02500000037252903,0.02500000037252903,0.02500000037252903,0.05000000074505806,0.0005000000237487257,-0.040060042788312725,-0.7204916813555261,0.20015005068276331,0.14,0.0,0.26,-0.037408098578453064,-0.0005738780600950122,0.3526611030101776,0.0,0.0
0.0,20.0,0.0,0.0,0.0,-0.025,0.0,0.0,0.015339807607233524,-1.293145775794983,1.0109710693359375,-1.7450000047683716,-0.0715857669711113,0.0,0.015339807607233524,-1.293145775794983,1.0109710693359375,-1.745,-0.0715857669711113,0.003,0.0,0.0,0.0,0.0,0.0,0.0,-3.1,3.1,-1.571,1.571,-1.571,1.571,-1.745,1.745,-2.617,2.617,0.003,0.03,-0.05000000074505806,-0.02500000037252903,-0.02500000037252903,-0.02500000037252903,-0.05000000074505806,-0.0005000000237487257,0.05000000074505806,0.02500000037252903,0.02500000037252903,0.02500000037252903,0.05000000074505806,0.0005000000237487257,-0.040060042788312725,-0.7605517241438389,0.20015005068276331,0.14,0.0,0.26,-0.037408098578453064,-0.0005738780600950122,0.3526611030101776,0.0,0.0
0.0,21.0,0.0,0.0,0.0,-0.025,0.0,0.0,0.015339807607233524,-1.293145775794983,1.0109710693359375,-1.7450000047683716,-0.0715857669711113,0.0,0.015339807607233524,-1.293145775794983,1.0109710693359375,-1.745,-0.0715857669711113,0.003,0.0,0.0,0.0,0.0,0.0,0.0,-3.1,3.1,-1.571,1.571,-1.571,1.571,-1.745,1.745,-2.617,2.617,0.003,0.03,-0.05000000074505806,-0.02500000037252903,-0.02500000037252903,-0.02500000037252903,-0.05000000074505806,-0.0005000000237487257,0.05000000074505806,0.02500000037252903,0.02500000037252903,0.02500000037252903,0.05000000074505806,0.0005000000237487257,-0.040060042788312725,-0.8006117669321516,0.20015005068276331,0.14,0.0,0.26,-0.037408098578453064,-0.0005738780600950122,0.3526611030101776,0.0,0.0
0.0,22.0,0.0,0.0,0.0,-0.025,0.0,0.0,0.015339807607233524,-1.293145775794983,1.0109710693359375,-1.7450000047683716,-0.0715857669711113,0.0,0.015339807607233524,-1.293145775794983,1.0109710693359375,-1.745,-0.0715857669711113,0.003,0.0,0.0,0.0,0.0,0.0,0.0,-3.1,3.1,-1.571,1.571,-1.571,1.571,-1.745,1.745,-2.617,2.617,0.003,0.03,-0.05000000074505806,-0.02500000037252903,-0.02500000037252903,-0.02500000037252903,-0.05000000074505806,-0.0005000000237487257,0.05000000074505806,0.02500000037252903,0.02500000037252903,0.02500000037252903,0.05000000074505806,0.0005000000237487257,-0.040060042788312725,-0.8406718097204644,0.20015005068276331,0.14,0.0,0.26,-0.037408098578453064,-0.0005738780600950122,0.3526611030101776,0.0,0.0
0.0,23.0,0.0,0.0,0.0,-0.025,0.0,0.0,0.015339807607233524,-1.293145775794983,1.0109710693359375,-1.7450000047683716,-0.0715857669711113,0.0,0.015339807607233524,-1.293145775794983,1.0109710693359375,-1.745,-0.0715857669711113,0.003,0.0,0.0,0.0,0.0,0.0,0.0,-3.1,3.1,-1.571,1.571,-1.571,1.571,-1.745,1.745,-2.617,2.617,0.003,0.03,-0.05000000074505806,-0.02500000037252903,-0.02500000037252903,-0.02500000037252903,-0.05000000074505806,-0.0005000000237487257,0.05000000074505806,0.02500000037252903,0.02500000037252903,0.02500000037252903,0.05000000074505806,0.0005000000237487257,-0.040060042788312725,-0.8807318525087772,0.20015005068276331,0.14,0.0,0.26,-0.037408098578453064,-0.0005738780600950122,0.3526611030101776,0.0,0.0
0.0,24.0,0.0,0.0,0.0,-0.025,0.0,0.0,0.015339807607233524,-1.293145775794983,1.0109710693359375,-1.7450000047683716,-0.0715857669711113,0.0,0.015339807607233524,-1.293145775794983,1.0109710693359375,-1.745,-0.0715857669711113,0.003,0.0,0.0,0.0,0.0,0.0,0.0,-3.1,3.1,-1.571,1.571,-1.571,1.571,-1.745,1.745,-2.617,2.617,0.003,0.03,-0.05000000074505806,-0.02500000037252903,-0.02500000037252903,-0.02500000037252903,-0.05000000074505806,-0.0005000000237487257,0.05000000074505806,0.02500000037252903,0.02500000037252903,0.02500000037252903,0.05000000074505806,0.0005000000237487257,-0.040060042788312725,-0.9207918952970899,0.20015005068276331,0.14,0.0,0.26,-0.037408098578453064,-0.0005738780600950122,0.3526611030101776,0.0,0.0
0.0,25.0,0.0,0.0,0.0,-0.025,0.0,0.0,0.015339807607233524,-1.293145775794983,1.0109710693359375,-1.7450000047683716,-0.0715857669711113,0.0,0.015339807607233524,-1.293145775794983,1.0109710693359375,-1.745,-0.0715857669711113,0.003,0.0,0.0,0.0,0.0,0.0,0.0,-3.1,3.1,-1.571,1.571,-1.571,1.571,-1.745,1.745,-2.617,2.617,0.003,0.03,-0.05000000074505806,-0.02500000037252903,-0.02500000037252903,-0.02500000037252903,-0.05000000074505806,-0.0005000000237487257,0.05000000074505806,0.02500000037252903,0.02500000037252903,0.02500000037252903,0.05000000074505806,0.0005000000237487257,-0.040060042788312725,-0.9608519380854027,0.20015005068276331,0.14,0.0,0.26,-0.037408098578453064,-0.0005738780600950122,0.3526611030101776,0.0,0.0
0.0,26.0,0.0,0.0,0.0,-0.025,0.0,0.0,0.015339807607233524,-1.293145775794983,1.0109710693359375,-1.7450000047683716,-0.0715857669711113,0.0,0.015339807607233524,-1.293145775794983,1.0109710693359375,-1.745,-0.0715857669711113,0.003,0.0,0.0,0.0,0.0,0.0,0.0,-3.1,3.1,-1.571,1.571,-1.571,1.571,-1.745,1.745,-2.617,2.617,0.003,0.03,-0.05000000074505806,-0.02500000037252903,-0.02500000037252903,-0.02500000037252903,-0.05000000074505806,-0.0005000000237487257,0.05000000074505806,0.02500000037252903,0.02500000037252903,0.02500000037252903,0.05000000074505806,0.0005000000237487257,-0.040060042788312725,-1.0009119808737155,0.20015005068276331,0.14,0.0,0.26,-0.037408098578453064,-0.0005738780600950122,0.3526611030101776,0.0,0.0
0.0,27.0,0.0,0.0,0.0,-0.025,0.0,0.0,0.015339807607233524,-1.293145775794983,1.0109710693359375,-1.7450000047683716,-0.0715857669711113,0.0,0.015339807607233524,-1.293145775794983,1.0109710693359375,-1.745,-0.0715857669711113,0.003,0.0,0.0,0.0,0.0,0.0,0.0,-3.1,3.1,-1.571,1.571,-1.571,1.571,-1.745,1.745,-2.617,2.617,0.003,0.03,-0.05000000074505806,-0.02500000037252903,-0.02500000037252903,-0.02500000037252903,-0.05000000074505806,-0.0005000000237487257,0.05000000074505806,0.02500000037252903,0.02500000037252903,0.02500000037252903,0.05000000074505806,0.0005000000237487257,-0.040060042788312725,-1.0409720236620281,0.20015005068276331,0.14,0.0,0.26,-0.037408098578453064,-0.0005738780600950122,0.3526611030101776,0.0,0.0
0.0,28.0,0.0,0.0,0.0,-0.025,0.0,0.0,0.015339807607233524,-1.293145775794983,1.0109710693359375,-1.7450000047683716,-0.0715857669711113,0.0,0.015339807607233524,-1.293145775794983,1.0109710693359375,-1.745,-0.0715857669711113,0.003,0.0,0.0,0.0,0.0,0.0,0.0,-3.1,3.1,-1.571,1.571,-1.571,1.571,-1.745,1.745,-2.617,2.617,0.003,0.03,-0.05000000074505806,-0.02500000037252903,-0.02500000037252903,-0.02500000037252903,-0.05000000074505806,-0.0005000000237487257,0.05000000074505806,0.02500000037252903,0.02500000037252903,0.02500000037252903,0.05000000074505806,0.0005000000237487257,-0.040060042788312725,-1.0810320664503408,0.20015005068276331,0.14,0.0,0.26,-0.037408098578453064,-0.0005738780600950122,0.3526611030101776,0.0,0.0
0.0,29.0,0.0,0.0,0.0,-0.025,0.0,0.0,0.015339807607233524,-1.293145775794983,1.0109710693359375,-1.7450000047683716,-0.0715857669711113,0.0,0.015339807607233524,-1.293145775794983,1.0109710693359375,-1.745,-0.0715857669711113,0.003,0.0,0.0,0.0,0.0,0.0,0.0,-3.1,3.1,-1.571,1.571,-1.571,1.571,-1.745,1.745,-2.617,2.617,0.003,0.03,-0.05000000074505806,-0.02500000037252903,-0.02500000037252903,-0.02500000037252903,-0.05000000074505806,-0.0005000000237487257,0.05000000074505806,0.02500000037252903,0.02500000037252903,0.02500000037252903,0.05000000074505806,0.0005000000237487257,-0.040060042788312725,-1.1210921092386534,0.20015005068276331,0.14,0.0,0.26,-0.037408098578453064,-0.0005738780600950122,0.3526611030101776,0.0,0.0
0.0,30.0,0.0,0.0,0.0,-0.025,0.0,0.0,0.015339807607233524,-1.293145775794983,1.0109710693359375,-1.7450000047683716,-0.0715857669711113,0.0,0.015339807607233524,-1.293145775794983,1.0109710693359375,-1.745,-0.0715857669711113,0.003,0.0,0.0,0.0,0.0,0.0,0.0,-3.1,3.1,-1.571,1.571,-1.571,1.571,-1.745,1.745,-2.617,2.617,0.003,0.03,-0.05000000074505806,-0.02500000037252903,-0.02500000037252903,-0.02500000037252903,-0.05000000074505806,-0.0005000000237487257,0.05000000074505806,0.02500000037252903,0.02500000037252903,0.02500000037252903,0.05000000074505806,0.0005000000237487257,-0.040060042788312725,-1.161152152026966,0.20015005068276331,0.14,0.0,0.26,-0.037408098578453064,-0.0005738780600950122,0.3526611030101776,0.0,0.0
0.0,31.0,0.0,0.0,0.0,-0.025,0.0,0.0,0.015339807607233524,-1.293145775794983,1.0109710693359375,-1.7450000047683716,-0.0715857669711113,0.0,0.015339807607233524,-1.293145775794983,1.0109710693359375,-1.745,-0.0715857669711113,0.003,0.0,0.0,0.0,0.0,0.0,0.0,-3.1,3.1,-1.571,1.571,-1.571,1.571,-1.745,1.745,-2.617,2.617,0.003,0.03,-0.05000000074505806,-0.02500000037252903,-0.02500000037252903,-0.02500000037252903,-0.05000000074505806,-0.0005000000237487257,0.05000000074505806,0.02500000037252903,0.02500000037252903,0.02500000037252903,0.05000000074505806,0.0005000000237487257,-0.040060042788312725,-1.2012121948152787,0.20015005068276331,0.14,0.0,0.26,-0.037408098578453064,-0.0005738780600950122,0.3526611030101776,0.0,0.0
0.0,32.0,0.0,0.0,0.0,-0.025,0.0,0.0,0.015339807607233524,-1.293145775794983,1.0109710693359375,-1.7450000047683716,-0.0715857669711113,0.0,0.015339807607233524,-1.293145775794983,1.0109710693359375,-1.745,-0.0715857669711113,0.003,0.0,0.0,0.0,0.0,0.0,0.0,-3.1,3.1,-1.571,1.571,-1.571,1.571,-1.745,1.745,-2.617,2.617,0.003,0.03,-0.05000000074505806,-0.02500000037252903,-0.02500000037252903,-0.02500000037252903,-0.05000000074505806,-0.0005000000237487257,0.05000000074505806,0.02500000037252903,0.02500000037252903,0.02500000037252903,0.05000000074505806,0.0005000000237487257,-0.040060042788312725,-1.2412722376035914,0.20015005068276331,0.14,0.0,0.26,-0.037408098578453064,-0.0005738780600950122,0.3526611030101776,0.0,0.0
0.0,33.0,0.0,0.0,0.0,-0.025,0.0,0.0,0.015339807607233524,-1.293145775794983,1.0109710693359375,-1.7450000047683716,-0.0715857669711113,0.0,0.015339807607233524,-1.293145775794983,1.0109710693359375,-1.745,-0.0715857669711113,0.003,0.0,0.0,0.0,0.0,0.0,0.0,-3.1,3.1,-1.571,1.571,-1.571,1.571,-1.745,1.745,-2.617,2.617,0.003,0.03,-0.05000000074505806,-0.02500000037252903,-0.02500000037252903,-0.02500000037252903,-0.05000000074505806,-0.0005000000237487257,0.05000000074505806,0.02500000037252903,0.02500000037252903,0.02500000037252903,0.05000000074505806,0.0005000000237487257,-0.040060042788312725,-1.281332280391904,0.20015005068276331,0.14,0.0,0.26,-0.037408098578453064,-0.0005738780600950122,0.3526611030101776,0.0,0.0
0.0,34.0,0.0,0.0,0.0,-0.025,0.0,0.0,0.015339807607233524,-1.293145775794983,1.0109710693359375,-1.7450000047683716,-0.0715857669711113,0.0,0.015339807607233524,-1.293145775794983,1.0109710693359375,-1.745,-0.0715857669711113,0.003,0.0,0.0,0.0,0.0,0.0,0.0,-3.1,3.1,-1.571,1.571,-1.571,1.571,-1.745,1.745,-2.617,2.617,0.003,0.03,-0.05000000074505806,-0.02500000037252903,-0.02500000037252903,-0.02500000037252903,-0.05000000074505806,-0.0005000000237487257,0.05000000074505806,0.02500000037252903,0.02500000037252903,0.02500000037252903,0.05000000074505806,0.0005000000237487257,-0.040060042788312725,-1.3213923231802167,0.20015005068276331,0.14,0.0,0.26,-0.037408098578453064,-0.0005738780600950122,0.3526611030101776,0.0,0.0
0.0,35.0,0.0,0.0,0.0,-0.025,0.0,0.0,0.015339807607233524,-1.293145775794983,1.0109710693359375,-1.7450000047683716,-0.0715857669711113,0.0,0.015339807607233524,-1.293145775794983,1.0109710693359375,-1.745,-0.0715857669711113,0.003,0.0,0.0,0.0,0.0,0.0,0.0,-3.1,3.1,-1.571,1.571,-1.571,1.571,-1.745,1.745,-2.617,2.617,0.003,0.03,-0.05000000074505806,-0.02500000037252903,-0.02500000037252903,-0.02500000037252903,-0.05000000074505806,-0.0005000000237487257,0.05000000074505806,0.02500000037252903,0.02500000037252903,0.02500000037252903,0.05000000074505806,0.0005000000237487257,-0.040060042788312725,-1.3614523659685294,0.20015005068276331,0.14,0.0,0.26,-0.037408098578453064,-0.0005738780600950122,0.3526611030101776,0.0,0.0
0.0,36.0,0.0,0.0,0.0,-0.025,0.0,0.0,0.015339807607233524,-1.293145775794983,1.0109710693359375,-1.7450000047683716,-0.0715857669711113,0.0,0.015339807607233524,-1.293145775794983,1.0109710693359375,-1.745,-0.0715857669711113,0.003,0.0,0.0,0.0,0.0,0.0,0.0,-3.1,3.1,-1.571,1.571,-1.571,1.571,-1.745,1.745,-2.617,2.617,0.003,0.03,-0.05000000074505806,-0.02500000037252903,-0.02500000037252903,-0.02500000037252903,-0.05000000074505806,-0.0005000000237487257,0.05000000074505806,0.02500000037252903,0.02500000037252903,0.02500000037252903,0.05000000074505806,0.0005000000237487257,-0.040060042788312725,-1.401512408756842,0.20015005068276331,0.14,0.0,0.26,-0.037408098578453064,-0.0005738780600950122,0.3526611030101776,0.0,0.0
0.0,37.0,0.0,0.0,0.0,-0.025,0.0,0.0,0.015339807607233524,-1.293145775794983,1.0109710693359375,-1.7450000047683716,-0.0715857669711113,0.0,0.015339807607233524,-1.293145775794983,1.0109710693359375,-1.745,-0.0715857669711113,0.003,0.0,0.0,0.0,0.0,0.0,0.0,-3.1,3.1,-1.571,1.571,-1.571,1.571,-1.745,1.745,-2.617,2.617,0.003,0.03,-0.05000000074505806,-0.02500000037252903,-0.02500000037252903,-0.02500000037252903,-0.05000000074505806,-0.0005000000237487257,0.05000000074505806,0.02500000037252903,0.02500000037252903,0.02500000037252903,0.05000000074505806,0.0005000000237487257,-0.040060042788312725,-1.4415724515451547,0.20015005068276331,0.14,0.0,0.26,-0.037408098578453064,-0.0005738780600950122,0.3526611030101776,0.0,0.0
0.0,38.0,0.0,0.0,0.0,-0.025,0.0,0.0,0.015339807607233524,-1.293145775794983,1.0109710693359375,-1.7450000047683716,-0.0715857669711113,0.0,0.015339807607233524,-1.293145775794983,1.0109710693359375,-1.745,-0.0715857669711113,0.003,0.0,0.0,0.0,0.0,0.0,0.0,-3.1,3.1,-1.571,1.571,-1.571,1.571,-1.745,1.745,-2.617,2.617,0.003,0.03,-0.05000000074505806,-0.02500000037252903,-0.02500000037252903,-0.02500000037252903,-0.05000000074505806,-0.0005000000237487257,0.05000000074505806,0.02500000037252903,0.02500000037252903,0.02500000037252903,0.05000000074505806,0.0005000000237487257,-0.040060042788312725,-1.4816324943334673,0.20015005068276331,0.14,0.0,0.26,-0.037408098578453064,-0.0005738780600950122,0.3526611030101776,0.0,0.0
0.0,39.0,0.0,0.0,0.0,-0.025,0.0,0.0,0.015339807607233524,-1.293145775794983,1.0109710693359375,-1.7450000047683716,-0.0715857669711113,0.0,0.015339807607233524,-1.293145775794983,1.0109710693359375,-1.745,-0.0715857669711113,0.003,0.0,0.0,0.0,0.0,0.0,0.0,-3.1,3.1,-1.571,1.571,-1.571,1.571,-1.745,1.745,-2.617,2.617,0.003,0.03,-0.05000000074505806,-0.02500000037252903,-0.02500000037252903,-0.02500000037252903,-0.05000000074505806,-0.0005000000237487257,0.05000000074505806,0.02500000037252903,0.02500000037252903,0.02500000037252903,0.05000000074505806,0.0005000000237487257,-0.040060042788312725,-1.52169253712178,0.20015005068276331,0.14,0.0,0.26,-0.037408098578453064,-0.0005738780600950122,0.3526611030101776,0.0,0.0
0.0,40.0,0.0,0.0,0.0,-0.025,0.0,0.0,0.015339807607233524,-1.293145775794983,1.0109710693359375,-1.7450000047683716,-0.0715857669711113,0.0,0.015339807607233524,-1.293145775794983,1.0109710693359375,-1.745,-0.0715857669711113,0.003,0.0,0.0,0.0,0.0,0.0,0.0,-3.1,3.1,-1.571,1.571,-1.571,1.571,-1.745,1.745,-2.617,2.617,0.003,0.03,-0.05000000074505806,-0.02500000037252903,-0.02500000037252903,-0.02500000037252903,-0.05000000074505806,-0.0005000000237487257,0.05000000074505806,0.02500000037252903,0.02500000037252903,0.02500000037252903,0.05000000074505806,0.0005000000237487257,-0.040060042788312725,-1.5617525799100926,0.20015005068276331,0.14,0.0,0.26,-0.037408098578453064,-0.0005738780600950122,0.3526611030101776,0.0,0.0
0.0,41.0,0.0,0.0,0.0,-0.025,0.0,0.0,0.015339807607233524,-1.293145775794983,1.0109710693359375,-1.7450000047683716,-0.0715857669711113,0.0,0.015339807607233524,-1.293145775794983,1.0109710693359375,-1.745,-0.0715857669711113,0.003,0.0,0.0,0.0,0.0,0.0,0.0,-3.1,3.1,-1.571,1.571,-1.571,1.571,-1.745,1.745,-2.617,2.617,0.003,0.03,-0.05000000074505806,-0.02500000037252903,-0.02500000037252903,-0.02500000037252903,-0.05000000074505806,-0.0005000000237487257,0.05000000074505806,0.02500000037252903,0.02500000037252903,0.02500000037252903,0.05000000074505806,0.0005000000237487257,-0.040060042788312725,-1.6018126226984053,0.20015005068276331,0.14,0.0,0.26,-0.037408098578453064,-0.0005738780600950122,0.3526611030101776,0.0,0.0
0.0,42.0,0.0,0.0,0.0,-0.025,0.0,0.0,0.015339807607233524,-1.293145775794983,1.0109710693359375,-1.7450000047683716,-0.0715857669711113,0.0,0.015339807607233524,-1.293145775794983,1.0109710693359375,-1.745,-0.0715857669711113,0.003,0.0,0.0,0.0,0.0,0.0,0.0,-3.1,3.1,-1.571,1.571,-1.571,1.571,-1.745,1.745,-2.617,2.617,0.003,0.03,-0.05000000074505806,-0.02500000037252903,-0.02500000037252903,-0.02500000037252903,-0.05000000074505806,-0.0005000000237487257,0.05000000074505806,0.02500000037252903,0.02500000037252903,0.02500000037252903,0.05000000074505806,0.0005000000237487257,-0.040060042788312725,-1.641872665486718,0.20015005068276331,0.14,0.0,0.26,-0.037408098578453064,-0.0005738780600950122,0.3526611030101776,0.0,0.0
0.0,43.0,0.0,0.0,0.0,-0.025,0.0,0.0,0.015339807607233524,-1.293145775794983,1.0109710693359375,-1.7450000047683716,-0.0715857669711113,0.0,0.015339807607233524,-1.293145775794983,1.0109710693359375,-1.745,-0.0715857669711113,0.003,0.0,0.0,0.0,0.0,0.0,0.0,-3.1,3.1,-1.571,1.571,-1.571,1.571,-1.745,1.745,-2.617,2.617,0.003,0.03,-0.05000000074505806,-0.02500000037252903,-0.02500000037252903,-0.02500000037252903,-0.05000000074505806,-0.0005000000237487257,0.05000000074505806,0.02500000037252903,0.02500000037252903,0.02500000037252903,0.05000000074505806,0.0005000000237487257,-0.040060042788312725,-1.6819327082750306,0.20015005068276331,0.14,0.0,0.26,-0.037408098578453064,-0.0005738780600950122,0.3526611030101776,0.0,0.0
0.0,44.0,0.0,0.0,0.0,-0.025,0.0,0.0,0.015339807607233524,-1.293145775794983,1.0109710693359375,-1.7450000047683716,-0.0715857669711113,0.0,0.015339807607233524,-1.293145775794983,1.0109710693359375,-1.745,-0.0715857669711113,0.003,0.0,0.0,0.0,0.0,0.0,0.0,-3.1,3.1,-1.571,1.571,-1.571,1.571,-1.745,1.745,-2.617,2.617,0.003,0.03,-0.05000000074505806,-0.02500000037252903,-0.02500000037252903,-0.02500000037252903,-0.05000000074505806,-0.0005000000237487257,0.05000000074505806,0.02500000037252903,0.02500000037252903,0.02500000037252903,0.05000000074505806,0.0005000000237487257,-0.040060042788312725,-1.7219927510633433,0.20015005068276331,0.14,0.0,0.26,-0.037408098578453064,-0.0005738780600950122,0.3526611030101776,0.0,0.0
0.0,45.0,0.0,0.0,0.0,-0.025,0.0,0.0,0.015339807607233524,-1.293145775794983,1.0109710693359375,-1.7450000047683716,-0.0715857669711113,0.0,0.015339807607233524,-1.293145775794983,1.0109710693359375,-1.745,-0.0715857669711113,0.003,0.0,0.0,0.0,0.0,0.0,0.0,-3.1,3.1,-1.571,1.571,-1.571,1.571,-1.745,1.745,-2.617,2.617,0.003,0.03,-0.05000000074505806,-0.02500000037252903,-0.02500000037252903,-0.02500000037252903,-0.05000000074505806,-0.0005000000237487257,0.05000000074505806,0.02500000037252903,0.02500000037252903,0.02500000037252903,0.05000000074505806,0.0005000000237487257,-0.040060042788312725,-1.762052793851656,0.20015005068276331,0.14,0.0,0.26,-0.037408098578453064,-0.0005738780600950122,0.3526611030101776,0.0,0.0
0.0,46.0,0.0,0.0,0.0,-0.025,0.0,0.0,0.015339807607233524,-1.293145775794983,1.0109710693359375,-1.7450000047683716,-0.0715857669711113,0.0,0.015339807607233524,-1.293145775794983,1.0109710693359375,-1.745,-0.0715857669711113,0.003,0.0,0.0,0.0,0.0,0.0,0.0,-3.1,3.1,-1.571,1.571,-1.571,1.571,-1.745,1.745,-2.617,2.617,0.003,0.03,-0.05000000074505806,-0.02500000037252903,-0.02500000037252903,-0.02500000037252903,-0.05000000074505806,-0.0005000000237487257,0.05000000074505806,0.02500000037252903,0.02500000037252903,0.02500000037252903,0.05000000074505806,0.0005000000237487257,-0.040060042788312725,-1.8021128366399686,0.20015005068276331,0.14,0.0,0.26,-0.037408098578453064,-0.0005738780600950122,0.3526611030101776,0.0,0.0
0.0,47.0,0.0,0.0,0.0,-0.025,0.0,0.0,0.015339807607233524,-1.293145775794983,1.0109710693359375,-1.7450000047683716,-0.0715857669711113,0.0,0.015339807607233524,-1.293145775794983,1.0109710693359375,-1.745,-0.0715857669711113,0.003,0.0,0.0,0.0,0.0,0.0,0.0,-3.1,3.1,-1.571,1.571,-1.571,1.571,-1.745,1.745,-2.617,2.617,0.003,0.03,-0.05000000074505806,-0.02500000037252903,-0.02500000037252903,-0.02500000037252903,-0.05000000074505806,-0.0005000000237487257,0.05000000074505806,0.02500000037252903,0.02500000037252903,0.02500000037252903,0.05000000074505806,0.0005000000237487257,-0.040060042788312725,-1.8421728794282812,0.20015005068276331,0.14,0.0,0.26,-0.037408098578453064,-0.0005738780600950122,0.3526611030101776,0.0,0.0
0.0,48.0,0.0,0.0,0.0,-0.025,0.0,0.0,0.015339807607233524,-1.293145775794983,1.0109710693359375,-1.7450000047683716,-0.0715857669711113,0.0,0.015339807607233524,-1.293145775794983,1.0109710693359375,-1.745,-0.0715857669711113,0.003,0.0,0.0,0.0,0.0,0.0,0.0,-3.1,3.1,-1.571,1.571,-1.571,1.571,-1.745,1.745,-2.617,2.617,0.003,0.03,-0.05000000074505806,-0.02500000037252903,-0.02500000037252903,-0.02500000037252903,-0.05000000074505806,-0.0005000000237487257,0.05000000074505806,0.02500000037252903,0.02500000037252903,0.02500000037252903,0.05000000074505806,0.0005000000237487257,-0.040060042788312725,-1.8822329222165939,0.20015005068276331,0.14,0.0,0.26,-0.037408098578453064,-0.0005738780600950122,0.3526611030101776,0.0,0.0
0.0,49.0,0.0,0.0,0.0,-0.025,0.0,0.0,0.015339807607233524,-1.293145775794983,1.0109710693359375,-1.7450000047683716,-0.0715857669711113,0.0,0.015339807607233524,-1.293145775794983,1.0109710693359375,-1.745,-0.0715857669711113,0.003,0.0,0.0,0.0,0.0,0.0,0.0,-3.1,3.1,-1.571,1.571,-1.571,1.571,-1.745,1.745,-2.617,2.617,0.003,0.03,-0.05000000074505806,-0.02500000037252903,-0.02500000037252903,-0.02500000037252903,-0.05000000074505806,-0.0005000000237487257,0.05000000074505806,0.02500000037252903,0.02500000037252903,0.02500000037252903,0.05000000074505806,0.0005000000237487257,-0.040060042788312725,-1.9222929650049065,0.20015005068276331,0.14,0.0,0.26,-0.037408098578453064,-0.0005738780600950122,0.3526611030101776,0.0,0.0
0.0,50.0,0.0,0.0,0.0,-0.025,0.0,0.0,0.015339807607233524,-1.293145775794983,1.0109710693359375,-1.7450000047683716,-0.0715857669711113,0.0,0.015339807607233524,-1.293145775794983,1.0109710693359375,-1.745,-0.0715857669711113,0.003,0.0,0.0,0.0,0.0,0.0,0.0,-3.1,3.1,-1.571,1.571,-1.571,1.571,-1.745,1.745,-2.617,2.617,0.003,0.03,-0.05000000074505806,-0.02500000037252903,-0.02500000037252903,-0.02500000037252903,-0.05000000074505806,-0.0005000000237487257,0.05000000074505806,0.02500000037252903,0.02500000037252903,0.02500000037252903,0.05000000074505806,0.0005000000237487257,-0.040060042788312725,-1.9623530077932192,0.20015005068276331,0.14,0.0,0.26,-0.037408098578453064,-0.0005738780600950122,0.3526611030101776,0.0,0.0
0.0,51.0,0.0,0.0,0.0,-0.025,0.0,0.0,0.015339807607233524,-1.293145775794983,1.0109710693359375,-1.7450000047683716,-0.0715857669711113,0.0,0.015339807607233524,-1.293145775794983,1.0109710693359375,-1.745,-0.0715857669711113,0.003,0.0,0.0,0.0,0.0,0.0,0.0,-3.1,3.1,-1.571,1.571,-1.571,1.571,-1.745,1.745,-2.617,2.617,0.003,0.03,-0.05000000074505806,-0.02500000037252903,-0.02500000037252903,-0.02500000037252903,-0.05000000074505806,-0.0005000000237487257,0.05000000074505806,0.02500000037252903,0.02500000037252903,0.02500000037252903,0.05000000074505806,0.0005000000237487257,-0.040060042788312725,-2.002413050581532,0.20015005068276331,0.14,0.0,0.26,-0.037408098578453064,-0.0005738780600950122,0.3526611030101776,0.0,0.0
0.0,52.0,0.0,0.0,0.0,-0.025,0.0,0.0,0.015339807607233524,-1.293145775794983,1.0109710693359375,-1.7450000047683716,-0.0715857669711113,0.0,0.015339807607233524,-1.293145775794983,1.0109710693359375,-1.745,-0.0715857669711113,0.003,0.0,0.0,0.0,0.0,0.0,0.0,-3.1,3.1,-1.571,1.571,-1.571,1.571,-1.745,1.745,-2.617,2.617,0.003,0.03,-0.05000000074505806,-0.02500000037252903,-0.02500000037252903,-0.02500000037252903,-0.05000000074505806,-0.0005000000237487257,0.05000000074505806,0.02500000037252903,0.02500000037252903,0.02500000037252903,0.05000000074505806,0.0005000000237487257,-0.040060042788312725,-2.042473093369845,0.20015005068276331,0.14,0.0,0.26,-0.037408098578453064,-0.0005738780600950122,0.3526611030101776,0.0,0.0
0.0,53.0,0.0,0.0,0.0,-0.025,0.0,0.0,0.015339807607233524,-1.293145775794983,1.0109710693359375,-1.7450000047683716,-0.0715857669711113,0.0,0.015339807607233524,-1.293145775794983,1.0109710693359375,-1.745,-0.0715857669711113,0.003,0.0,0.0,0.0,0.0,0.0,0.0,-3.1,3.1,-1.571,1.571,-1.571,1.571,-1.745,1.745,-2.617,2.617,0.003,0.03,-0.05000000074505806,-0.02500000037252903,-0.02500000037252903,-0.02500000037252903,-0.05000000074505806,-0.0005000000237487257,0.05000000074505806,0.02500000037252903,0.02500000037252903,0.02500000037252903,0.05000000074505806,0.0005000000237487257,-0.040060042788312725,-2.082533136158158,0.20015005068276331,0.14,0.0,0.26,-0.037408098578453064,-0.0005738780600950122,0.3526611030101776,0.0,0.0
0.0,54.0,0.0,0.0,0.0,-0.025,0.0,0.0,0.015339807607233524,-1.293145775794983,1.0109710693359375,-1.7450000047683716,-0.0715857669711113,0.0,0.015339807607233524,-1.293145775794983,1.0109710693359375,-1.745,-0.0715857669711113,0.003,0.0,0.0,0.0,0.0,0.0,0.0,-3.1,3.1,-1.571,1.571,-1.571,1.571,-1.745,1.745,-2.617,2.617,0.003,0.03,-0.05000000074505806,-0.02500000037252903,-0.02500000037252903,-0.02500000037252903,-0.05000000074505806,-0.0005000000237487257,0.05000000074505806,0.02500000037252903,0.02500000037252903,0.02500000037252903,0.05000000074505806,0.0005000000237487257,-0.040060042788312725,-2.1225931789464707,0.20015005068276331,0.14,0.0,0.26,-0.037408098578453064,-0.0005738780600950122,0.3526611030101776,0.0,0.0
0.0,55.0,0.0,0.0,0.0,-0.025,0.0,0.0,0.015339807607233524,-1.293145775794983,1.0109710693359375,-1.7450000047683716,-0.0715857669711113,0.0,0.015339807607233524,-1.293145775794983,1.0109710693359375,-1.745,-0.0715857669711113,0.003,0.0,0.0,0.0,0.0,0.0,0.0,-3.1,3.1,-1.571,1.571,-1.571,1.571,-1.745,1.745,-2.617,2.617,0.003,0.03,-0.05000000074505806,-0.02500000037252903,-0.02500000037252903,-0.02500000037252903,-0.05000000074505806,-0.0005000000237487257,0.05000000074505806,0.02500000037252903,0.02500000037252903,0.02500000037252903,0.05000000074505806,0.0005000000237487257,-0.040060042788312725,-2.1626532217347836,0.20015005068276331,0.14,0.0,0.26,-0.037408098578453064,-0.0005738780600950122,0.3526611030101776,0.0,0.0
0.0,56.0,0.0,0.0,0.0,-0.025,0.0,0.0,0.015339807607233524,-1.293145775794983,1.0109710693359375,-1.7450000047683716,-0.0715857669711113,0.0,0.015339807607233524,-1.293145775794983,1.0109710693359375,-1.745,-0.0715857669711113,0.003,0.0,0.0,0.0,0.0,0.0,0.0,-3.1,3.1,-1.571,1.571,-1.571,1.571,-1.745,1.745,-2.617,2.617,0.003,0.03,-0.05000000074505806,-0.02500000037252903,-0.02500000037252903,-0.02500000037252903,-0.05000000074505806,-0.0005000000237487257,0.05000000074505806,0.02500000037252903,0.02500000037252903,0.02500000037252903,0.05000000074505806,0.0005000000237487257,-0.040060042788312725,-2.2027132645230965,0.20015005068276331,0.14,0.0,0.26,-0.037408098578453064,-0.0005738780600950122,0.3526611030101776,0.0,0.0
0.0,57.0,0.0,0.0,0.0,-0.025,0.0,0.0,0.015339807607233524,-1.293145775794983,1.0109710693359375,-1.7450000047683716,-0.0715857669711113,0.0,0.015339807607233524,-1.293145775794983,1.0109710693359375,-1.745,-0.0715857669711113,0.003,0.0,0.0,0.0,0.0,0.0,0.0,-3.1,3.1,-1.571,1.571,-1.571,1.571,-1.745,1.745,-2.617,2.617,0.003,0.03,-0.05000000074505806,-0.02500000037252903,-0.02500000037252903,-0.02500000037252903,-0.05000000074505806,-0.0005000000237487257,0.05000000074505806,0.02500000037252903,0.02500000037252903,0.02500000037252903,0.05000000074505806,0.0005000000237487257,-0.040060042788312725,-2.2427733073114093,0.20015005068276331,0.14,0.0,0.26,-0.037408098578453064,-0.0005738780600950122,0.3526611030101776,0.0,0.0
0.0,58.0,0.0,0.0,0.0,-0.025,0.0,0.0,0.015339807607233524,-1.293145775794983,1.0109710693359375,-1.7450000047683716,-0.0715857669711113,0.0,0.015339807607233524,-1.293145775794983,1.0109710693359375,-1.745,-0.0715857669711113,0.003,0.0,0.0,0.0,0.0,0.0,0.0,-3.1,3.1,-1.571,1.571,-1.571,1.571,-1.745,1.745,-2.617,2.617,0.003,0.03,-0.05000000074505806,-0.02500000037252903,-0.02500000037252903,-0.02500000037252903,-0.05000000074505806,-0.0005000000237487257,0.05000000074505806,0.02500000037252903,0.02500000037252903,0.02500000037252903,0.05000000074505806,0.0005000000237487257,-0.040060042788312725,-2.282833350099722,0.20015005068276331,0.14,0.0,0.26,-0.037408098578453064,-0.0005738780600950122,0.3526611030101776,0.0,0.0
0.0,59.0,0.0,0.0,0.0,-0.025,0.0,0.0,0.015339807607233524,-1.293145775794983,1.0109710693359375,-1.7450000047683716,-0.0715857669711113,0.0,0.015339807607233524,-1.293145775794983,1.0109710693359375,-1.745,-0.0715857669711113,0.003,0.0,0.0,0.0,0.0,0.0,0.0,-3.1,3.1,-1.571,1.571,-1.571,1.571,-1.745,1.745,-2.617,2.617,0.003,0.03,-0.05000000074505806,-0.02500000037252903,-0.02500000037252903,-0.02500000037252903,-0.05000000074505806,-0.0005000000237487257,0.05000000074505806,0.02500000037252903,0.02500000037252903,0.02500000037252903,0.05000000074505806,0.0005000000237487257,-0.040060042788312725,-2.322893392888035,0.20015005068276331,0.14,0.0,0.26,-0.037408098578453064,-0.0005738780600950122,0.3526611030101776,0.0,0.0
0.0,60.0,0.0,0.0,0.0,-0.025,0.0,0.0,0.015339807607233524,-1.293145775794983,1.0109710693359375,-1.7450000047683716,-0.0715857669711113,0.0,0.015339807607233524,-1.293145775794983,1.0109710693359375,-1.745,-0.0715857669711113,0.003,0.0,0.0,0.0,0.0,0.0,0.0,-3.1,3.1,-1.571,1.571,-1.571,1.571,-1.745,1.745,-2.617,2.617,0.003,0.03,-0.05000000074505806,-0.02500000037252903,-0.02500000037252903,-0.02500000037252903,-0.05000000074505806,-0.0005000000237487257,0.05000000074505806,0.02500000037252903,0.02500000037252903,0.02500000037252903,0.05000000074505806,0.0005000000237487257,-0.040060042788312725,-2.362953435676348,0.20015005068276331,0.14,0.0,0.26,-0.037408098578453064,-0.0005738780600950122,0.3526611030101776,0.0,0.0
0.0,61.0,0.0,0.0,0.0,-0.025,0.0,0.0,0.015339807607233524,-1.293145775794983,1.0109710693359375,-1.7450000047683716,-0.0715857669711113,0.0,0.015339807607233524,-1.293145775794983,1.0109710693359375,-1.745,-0.0715857669711113,0.003,0.0,0.0,0.0,0.0,0.0,0.0,-3.1,3.1,-1.571,1.571,-1.571,1.571,-1.745,1.745,-2.617,2.617,0.003,0.03,-0.05000000074505806,-0.02500000037252903,-0.02500000037252903,-0.02500000037252903,-0.05000000074505806,-0.0005000000237487257,0.05000000074505806,0.02500000037252903,0.02500000037252903,0.02500000037252903,0.05000000074505806,0.0005000000237487257,-0.040060042788312725,-2.403013478464661,0.20015005068276331,0.14,0.0,0.26,-0.037408098578453064,-0.0005738780600950122,0.3526611030101776,0.0,0.0
0.0,62.0,0.0,0.0,0.0,-0.025,0.0,0.0,0.015339807607233524,-1.293145775794983,1.0109710693359375,-1.7450000047683716,-0.0715857669711113,0.0,0.015339807607233524,-1.293145775794983,1.0109710693359375,-1.745,-0.0715857669711113,0.003,0.0,0.0,0.0,0.0,0.0,0.0,-3.1,3.1,-1.571,1.571,-1.571,1.571,-1.745,1.745,-2.617,2.617,0.003,0.03,-0.05000000074505806,-0.02500000037252903,-0.02500000037252903,-0.02500000037252903,-0.05000000074505806,-0.0005000000237487257,0.05000000074505806,0.02500000037252903,0.02500000037252903,0.02500000037252903,0.05000000074505806,0.0005000000237487257,-0.040060042788312725,-2.4430735212529737,0.20015005068276331,0.14,0.0,0.26,-0.037408098578453064,-0.0005738780600950122,0.3526611030101776,0.0,0.0
0.0,63.0,0.0,0.0,0.0,-0.025,0.0,0.0,0.015339807607233524,-1.293145775794983,1.0109710693359375,-1.7450000047683716,-0.0715857669711113,0.0,0.015339807607233524,-1.293145775794983,1.0109710693359375,-1.745,-0.0715857669711113,0.003,0.0,0.0,0.0,0.0,0.0,0.0,-3.1,3.1,-1.571,1.571,-1.571,1.571,-1.745,1.745,-2.617,2.617,0.003,0.03,-0.05000000074505806,-0.02500000037252903,-0.02500000037252903,-0.02500000037252903,-0.05000000074505806,-0.0005000000237487257,0.05000000074505806,0.02500000037252903,0.02500000037252903,0.02500000037252903,0.05000000074505806,0.0005000000237487257,-0.040060042788312725,-2.4831335640412866,0.20015005068276331,0.14,0.0,0.26,-0.037408098578453064,-0.0005738780600950122,0.3526611030101776,0.0,0.0
0.0,64.0,0.0,0.0,0.0,-0.025,0.0,0.0,0.015339807607233524,-1.293145775794983,1.0109710693359375,-1.7450000047683716,-0.0715857669711113,0.0,0.015339807607233524,-1.293145775794983,1.0109710693359375,-1.745,-0.0715857669711113,0.003,0.0,0.0,0.0,0.0,0.0,0.0,-3.1,3.1,-1.571,1.571,-1.571,1.571,-1.745,1.745,-2.617,2.617,0.003,0.03,-0.05000000074505806,-0.02500000037252903,-0.02500000037252903,-0.02500000037252903,-0.05000000074505806,-0.0005000000237487257,0.05000000074505806,0.02500000037252903,0.02500000037252903,0.02500000037252903,0.05000000074505806,0.0005000000237487257,-0.040060042788312725,-2.5231936068295995,0.20015005068276331,0.14,0.0,0.26,-0.037408098578453064,-0.0005738780600950122,0.3526611030101776,0.0,0.0
0.0,65.0,0.0,0.0,0.0,-0.025,0.0,0.0,0.015339807607233524,-1.293145775794983,1.0109710693359375,-1.7450000047683716,-0.0715857669711113,0.0,0.015339807607233524,-1.293145775794983,1.0109710693359375,-1.745,-0.0715857669711113,0.003,0.0,0.0,0.0,0.0,0.0,0.0,-3.1,3.1,-1.571,1.571,-1.571,1.571,-1.745,1.745,-2.617,2.617,0.003,0.03,-0.05000000074505806,-0.02500000037252903,-0.02500000037252903,-0.02500000037252903,-0.05000000074505806,-0.0005000000237487257,0.05000000074505806,0.02500000037252903,0.02500000037252903,0.02500000037252903,0.05000000074505806,0.0005000000237487257,-0.040060042788312725,-2.5632536496179124,0.20015005068276331,0.14,0.0,0.26,-0.037408098578453064,-0.0005738780600950122,0.3526611030101776,0.0,0.0
0.0,66.0,0.0,0.0,0.0,-0.025,0.0,0.0,0.015339807607233524,-1.293145775794983,1.0109710693359375,-1.7450000047683716,-0.0715857669711113,0.0,0.015339807607233524,-1.293145775794983,1.0109710693359375,-1.745,-0.0715857669711113,0.003,0.0,0.0,0.0,0.0,0.0,0.0,-3.1,3.1,-1.571,1.571,-1.571,1.571,-1.745,1.745,-2.617,2.617,0.003,0.03,-0.05000000074505806,-0.02500000037252903,-0.02500000037252903,-0.02500000037252903,-0.05000000074505806,-0.0005000000237487257,0.05000000074505806,0.02500000037252903,0.02500000037252903,0.02500000037252903,0.05000000074505806,0.0005000000237487257,-0.040060042788312725,-2.6033136924062252,0.20015005068276331,0.14,0.0,0.26,-0.037408098578453064,-0.0005738780600950122,0.3526611030101776,0.0,0.0
0.0,67.0,0.0,0.0,0.0,-0.025,0.0,0.0,0.015339807607233524,-1.293145775794983,1.0109710693359375,-1.7450000047683716,-0.0715857669711113,0.0,0.015339807607233524,-1.293145775794983,1.0109710693359375,-1.745,-0.0715857669711113,0.003,0.0,0.0,0.0,0.0,0.0,0.0,-3.1,3.1,-1.571,1.571,-1.571,1.571,-1.745,1.745,-2.617,2.617,0.003,0.03,-0.05000000074505806,-0.02500000037252903,-0.02500000037252903,-0.02500000037252903,-0.05000000074505806,-0.0005000000237487257,0.05000000074505806,0.02500000037252903,0.02500000037252903,0.02500000037252903,0.05000000074505806,0.0005000000237487257,-0.040060042788312725,-2.643373735194538,0.20015005068276331,0.14,0.0,0.26,-0.037408098578453064,-0.0005738780600950122,0.3526611030101776,0.0,0.0
0.0,68.0,0.0,0.0,0.0,-0.025,0.0,0.0,0.015339807607233524,-1.293145775794983,1.0109710693359375,-1.7450000047683716,-0.0715857669711113,0.0,0.015339807607233524,-1.293145775794983,1.0109710693359375,-1.745,-0.0715857669711113,0.003,0.0,0.0,0.0,0.0,0.0,0.0,-3.1,3.1,-1.571,1.571,-1.571,1.571,-1.745,1.745,-2.617,2.617,0.003,0.03,-0.05000000074505806,-0.02500000037252903,-0.02500000037252903,-0.02500000037252903,-0.05000000074505806,-0.0005000000237487257,0.05000000074505806,0.02500000037252903,0.02500000037252903,0.02500000037252903,0.05000000074505806,0.0005000000237487257,-0.040060042788312725,-2.683433777982851,0.20015005068276331,0.14,0.0,0.26,-0.037408098578453064,-0.0005738780600950122,0.3526611030101776,0.0,0.0
0.0,69.0,0.0,0.0,0.0,-0.025,0.0,0.0,0.015339807607233524,-1.293145775794983,1.0109710693359375,-1.7450000047683716,-0.0715857669711113,0.0,0.015339807607233524,-1.293145775794983,1.0109710693359375,-1.745,-0.0715857669711113,0.003,0.0,0.0,0.0,0.0,0.0,0.0,-3.1,3.1,-1.571,1.571,-1.571,1.571,-1.745,1.745,-2.617,2.617,0.003,0.03,-0.05000000074505806,-0.02500000037252903,-0.02500000037252903,-0.02500000037252903,-0.05000000074505806,-0.0005000000237487257,0.05000000074505806,0.02500000037252903,0.02500000037252903,0.02500000037252903,0.05000000074505806,0.0005000000237487257,-0.040060042788312725,-2.723493820771164,0.20015005068276331,0.14,0.0,0.26,-0.037408098578453064,-0.0005738780600950122,0.3526611030101776,0.0,0.0
0.0,70.0,0.0,0.0,0.0,-0.025,0.0,0.0,0.015339807607233524,-1.293145775794983,1.0109710693359375,-1.7450000047683716,-0.0715857669711113,0.0,0.015339807607233524,-1.293145775794983,1.0109710693359375,-1.745,-0.0715857669711113,0.003,0.0,0.0,0.0,0.0,0.0,0.0,-3.1,3.1,-1.571,1.571,-1.571,1.571,-1.745,1.745,-2.617,2.617,0.003,0.03,-0.05000000074505806,-0.02500000037252903,-0.02500000037252903,-0.02500000037252903,-0.05000000074505806,-0.0005000000237487257,0.05000000074505806,0.02500000037252903,0.02500000037252903,0.02500000037252903,0.05000000074505806,0.0005000000237487257,-0.040060042788312725,-2.7635538635594767,0.20015005068276331,0.14,0.0,0.26,-0.037408098578453064,-0.0005738780600950122,0.3526611030101776,0.0,0.0
0.0,71.0,0.0,0.0,0.0,-0.025,0.0,0.0,0.015339807607233524,-1.293145775794983,1.0109710693359375,-1.7450000047683716,-0.0715857669711113,0.0,0.015339807607233524,-1.293145775794983,1.0109710693359375,-1.745,-0.0715857669711113,0.003,0.0,0.0,0.0,0.0,0.0,0.0,-3.1,3.1,-1.571,1.571,-1.571,1.571,-1.745,1.745,-2.617,2.617,0.003,0.03,-0.05000000074505806,-0.02500000037252903,-0.02500000037252903,-0.02500000037252903,-0.05000000074505806,-0.0005000000237487257,0.05000000074505806,0.02500000037252903,0.02500000037252903,0.02500000037252903,0.05000000074505806,0.0005000000237487257,-0.040060042788312725,-2.8036139063477896,0.20015005068276331,0.14,0.0,0.26,-0.037408098578453064,-0.0005738780600950122,0.3526611030101776,0.0,0.0
0.0,72.0,0.0,0.0,0.0,-0.025,0.0,0.0,0.015339807607233524,-1.293145775794983,1.0109710693359375,-1.7450000047683716,-0.0715857669711113,0.0,0.015339807607233524,-1.293145775794983,1.0109710693359375,-1.745,-0.0715857669711113,0.003,0.0,0.0,0.0,0.0,0.0,0.0,-3.1,3.1,-1.571,1.571,-1.571,1.571,-1.745,1.745,-2.617,2.617,0.003,0.03,-0.05000000074505806,-0.02500000037252903,-0.02500000037252903,-0.02500000037252903,-0.05000000074505806,-0.0005000000237487257,0.05000000074505806,0.02500000037252903,0.02500000037252903,0.02500000037252903,0.05000000074505806,0.0005000000237487257,-0.040060042788312725,-2.8436739491361025,0.20015005068276331,0.14,0.0,0.26,-0.037408098578453064,-0.0005738780600950122,0.3526611030101776,0.0,0.0
0.0,73.0,0.0,0.0,0.0,-0.025,0.0,0.0,0.015339807607233524,-1.293145775794983,1.0109710693359375,-1.7450000047683716,-0.0715857669711113,0.0,0.015339807607233524,-1.293145775794983,1.0109710693359375,-1.745,-0.0715857669711113,0.003,0.0,0.0,0.0,0.0,0.0,0.0,-3.1,3.1,-1.571,1.571,-1.571,1.571,-1.745,1.745,-2.617,2.617,0.003,0.03,-0.05000000074505806,-0.02500000037252903,-0.02500000037252903,-0.02500000037252903,-0.05000000074505806,-0.0005000000237487257,0.05000000074505806,0.02500000037252903,0.02500000037252903,0.02500000037252903,0.05000000074505806,0.0005000000237487257,-0.040060042788312725,-2.8837339919244154,0.20015005068276331,0.14,0.0,0.26,-0.037408098578453064,-0.0005738780600950122,0.3526611030101776,0.0,0.0
0.0,74.0,0.0,0.0,0.0,-0.025,0.0,0.0,0.015339807607233524,-1.293145775794983,1.0109710693359375,-1.7450000047683716,-0.0715857669711113,0.0,0.015339807607233524,-1.293145775794983,1.0109710693359375,-1.745,-0.0715857669711113,0.003,0.0,0.0,0.0,0.0,0.0,0.0,-3.1,3.1,-1.571,1.571,-1.571,1.571,-1.745,1.745,-2.617,2.617,0.003,0.03,-0.05000000074505806,-0.02500000037252903,-0.02500000037252903,-0.02500000037252903,-0.05000000074505806,-0.0005000000237487257,0.05000000074505806,0.02500000037252903,0.02500000037252903,0.02500000037252903,0.05000000074505806,0.0005000000237487257,-0.040060042788312725,-2.9237940347127283,0.20015005068276331,0.14,0.0,0.26,-0.037408098578453064,-0.0005738780600950122,0.3526611030101776,0.0,0.0
0.0,75.0,0.0,0.0,0.0,-0.025,0.0,0.0,0.015339807607233524,-1.293145775794983,1.0109710693359375,-1.7450000047683716,-0.0715857669711113,0.0,0.015339807607233524,-1.293145775794983,1.0109710693359375,-1.745,-0.0715857669711113,0.003,0.0,0.0,0.0,0.0,0.0,0.0,-3.1,3.1,-1.571,1.571,-1.571,1.571,-1.745,1.745,-2.617,2.617,0.003,0.03,-0.05000000074505806,-0.02500000037252903,-0.02500000037252903,-0.02500000037252903,-0.05000000074505806,-0.0005000000237487257,0.05000000074505806,0.02500000037252903,0.02500000037252903,0.02500000037252903,0.05000000074505806,0.0005000000237487257,-0.040060042788312725,-2.963854077501041,0.20015005068276331,0.14,0.0,0.26,-0.037408098578453064,-0.0005738780600950122,0.3526611030101776,0.0,0.0
0.0,76.0,0.0,0.0,0.0,-0.025,0.0,0.0,0.015339807607233524,-1.293145775794983,1.0109710693359375,-1.7450000047683716,-0.0715857669711113,0.0,0.015339807607233524,-1.293145775794983,1.0109710693359375,-1.745,-0.0715857669711113,0.003,0.0,0.0,0.0,0.0,0.0,0.0,-3.1,3.1,-1.571,1.571,-1.571,1.571,-1.745,1.745,-2.617,2.617,0.003,0.03,-0.05000000074505806,-0.02500000037252903,-0.02500000037252903,-0.02500000037252903,-0.05000000074505806,-0.0005000000237487257,0.05000000074505806,0.02500000037252903,0.02500000037252903,0.02500000037252903,0.05000000074505806,0.0005000000237487257,-0.040060042788312725,-3.003914120289354,0.20015005068276331,0.14,0.0,0.26,-0.037408098578453064,-0.0005738780600950122,0.3526611030101776,0.0,0.0
0.0,77.0,0.0,0.0,0.0,-0.025,0.0,0.0,0.015339807607233524,-1.293145775794983,1.0109710693359375,-1.7450000047683716,-0.0715857669711113,0.0,0.015339807607233524,-1.293145775794983,1.0109710693359375,-1.745,-0.0715857669711113,0.003,0.0,0.0,0.0,0.0,0.0,0.0,-3.1,3.1,-1.571,1.571,-1.571,1.571,-1.745,1.745,-2.617,2.617,0.003,0.03,-0.05000000074505806,-0.02500000037252903,-0.02500000037252903,-0.02500000037252903,-0.05000000074505806,-0.0005000000237487257,0.05000000074505806,0.02500000037252903,0.02500000037252903,0.02500000037252903,0.05000000074505806,0.0005000000237487257,-0.040060042788312725,-3.043974163077667,0.20015005068276331,0.14,0.0,0.26,-0.037408098578453064,-0.0005738780600950122,0.3526611030101776,0.0,0.0
0.0,78.0,0.0,0.0,0.0,-0.025,0.0,0.0,0.015339807607233524,-1.293145775794983,1.0109710693359375,-1.7450000047683716,-0.0715857669711113,0.0,0.015339807607233524,-1.293145775794983,1.0109710693359375,-1.745,-0.0715857669711113,0.003,0.0,0.0,0.0,0.0,0.0,0.0,-3.1,3.1,-1.571,1.571,-1.571,1.571,-1.745,1.745,-2.617,2.617,0.003,0.03,-0.05000000074505806,-0.02500000037252903,-0.02500000037252903,-0.02500000037252903,-0.05000000074505806,-0.0005000000237487257,0.05000000074505806,0.02500000037252903,0.02500000037252903,0.02500000037252903,0.05000000074505806,0.0005000000237487257,-0.040060042788312725,-3.0840342058659798,0.20015005068276331,0.14,0.0,0.26,-0.037408098578453064,-0.0005738780600950122,0.3526611030101776,0.0,0.0
0.0,79.0,0.0,0.0,0.0,-0.025,0.0,0.0,0.015339807607233524,-1.293145775794983,1.0109710693359375,-1.7450000047683716,-0.0715857669711113,0.0,0.015339807607233524,-1.293145775794983,1.0109710693359375,-1.745,-0.0715857669711113,0.003,0.0,0.0,0.0,0.0,0.0,0.0,-3.1,3.1,-1.571,1.571,-1.571,1.571,-1.745,1.745,-2.617,2.617,0.003,0.03,-0.05000000074505806,-0.02500000037252903,-0.02500000037252903,-0.02500000037252903,-0.05000000074505806,-0.0005000000237487257,0.05000000074505806,0.02500000037252903,0.02500000037252903,0.02500000037252903,0.05000000074505806,0.0005000000237487257,-0.040060042788312725,-3.1240942486542926,0.20015005068276331,0.14,0.0,0.26,-0.037408098578453064,-0.0005738780600950122,0.3526611030101776,0.0,0.0
0.0,80.0,0.0,0.0,0.0,-0.025,0.0,0.0,0.015339807607233524,-1.293145775794983,1.0109710693359375,-1.7450000047683716,-0.0715857669711113,0.0,0.015339807607233524,-1.293145775794983,1.0109710693359375,-1.745,-0.0715857669711113,0.003,0.0,0.0,0.0,0.0,0.0,0.0,-3.1,3.1,-1.571,1.571,-1.571,1.571,-1.745,1.745,-2.617,2.617,0.003,0.03,-0.05000000074505806,-0.02500000037252903,-0.02500000037252903,-0.02500000037252903,-0.05000000074505806,-0.0005000000237487257,0.05000000074505806,0.02500000037252903,0.02500000037252903,0.02500000037252903,0.05000000074505806,0.0005000000237487257,-0.040060042788312725,-3.1641542914426055,0.20015005068276331,0.14,0.0,0.26,-0.037408098578453064,-0.0005738780600950122,0.3526611030101776,0.0,0.0
0.0,81.0,0.0,0.0,0.0,-0.025,0.0,0.0,0.015339807607233524,-1.293145775794983,1.0109710693359375,-1.7450000047683716,-0.0715857669711113,0.0,0.015339807607233524,-1.293145775794983,1.0109710693359375,-1.745,-0.0715857669711113,0.003,0.0,0.0,0.0,0.0,0.0,0.0,-3.1,3.1,-1.571,1.571,-1.571,1.571,-1.745,1.745,-2.617,2.617,0.003,0.03,-0.05000000074505806,-0.02500000037252903,-0.02500000037252903,-0.02500000037252903,-0.05000000074505806,-0.0005000000237487257,0.05000000074505806,0.02500000037252903,0.02500000037252903,0.02500000037252903,0.05000000074505806,0.0005000000237487257,-0.040060042788312725,-3.2042143342309184,0.20015005068276331,0.14,0.0,0.26,-0.037408098578453064,-0.0005738780600950122,0.3526611030101776,0.0,0.0
0.0,82.0,0.0,0.0,0.0,-0.025,0.0,0.0,0.015339807607233524,-1.293145775794983,1.0109710693359375,-1.7450000047683716,-0.0715857669711113,0.0,0.015339807607233524,-1.293145775794983,1.0109710693359375,-1.745,-0.0715857669711113,0.003,0.0,0.0,0.0,0.0,0.0,0.0,-3.1,3.1,-1.571,1.571,-1.571,1.571,-1.745,1.745,-2.617,2.617,0.003,0.03,-0.05000000074505806,-0.02500000037252903,-0.02500000037252903,-0.02500000037252903,-0.05000000074505806,-0.0005000000237487257,0.05000000074505806,0.02500000037252903,0.02500000037252903,0.02500000037252903,0.05000000074505806,0.0005000000237487257,-0.040060042788312725,-3.2442743770192313,0.20015005068276331,0.14,0.0,0.26,-0.037408098578453064,-0.0005738780600950122,0.3526611030101776,0.0,0.0
0.0,83.0,0.0,0.0,0.0,-0.025,0.0,0.0,0.015339807607233524,-1.293145775794983,1.0109710693359375,-1.7450000047683716,-0.0715857669711113,0.0,0.015339807607233524,-1.293145775794983,1.0109710693359375,-1.745,-0.0715857669711113,0.003,0.0,0.0,0.0,0.0,0.0,0.0,-3.1,3.1,-1.571,1.571,-1.571,1.571,-1.745,1.745,-2.617,2.617,0.003,0.03,-0.05000000074505806,-0.02500000037252903,-0.02500000037252903,-0.02500000037252903,-0.05000000074505806,-0.0005000000237487257,0.05000000074505806,0.02500000037252903,0.02500000037252903,0.02500000037252903,0.05000000074505806,0.0005000000237487257,-0.040060042788312725,-3.284334419807544,0.20015005068276331,0.14,0.0,0.26,-0.037408098578453064,-0.0005738780600950122,0.3526611030101776,0.0,0.0
0.0,84.0,0.0,0.0,0.0,-0.025,0.0,0.0,0.015339807607233524,-1.293145775794983,1.0109710693359375,-1.7450000047683716,-0.0715857669711113,0.0,0.015339807607233524,-1.293145775794983,1.0109710693359375,-1.745,-0.0715857669711113,0.003,0.0,0.0,0.0,0.0,0.0,0.0,-3.1,3.1,-1.571,1.571,-1.571,1.571,-1.745,1.745,-2.617,2.617,0.003,0.03,-0.05000000074505806,-0.02500000037252903,-0.02500000037252903,-0.02500000037252903,-0.05000000074505806,-0.0005000000237487257,0.05000000074505806,0.02500000037252903,0.02500000037252903,0.02500000037252903,0.05000000074505806,0.0005000000237487257,-0.040060042788312725,-3.324394462595857,0.20015005068276331,0.14,0.0,0.26,-0.037408098578453064,-0.0005738780600950122,0.3526611030101776,0.0,0.0
0.0,85.0,0.0,0.0,0.0,-0.025,0.0,0.0,0.015339807607233524,-1.293145775794983,1.0109710693359375,-1.7450000047683716,-0.0715857669711113,0.0,0.015339807607233524,-1.293145775794983,1.0109710693359375,-1.745,-0.0715857669711113,0.003,0.0,0.0,0.0,0.0,0.0,0.0,-3.1,3.1,-1.571,1.571,-1.571,1.571,-1.745,1.745,-2.617,2.617,0.003,0.03,-0.05000000074505806,-0.02500000037252903,-0.02500000037252903,-0.02500000037252903,-0.05000000074505806,-0.0005000000237487257,0.05000000074505806,0.02500000037252903,0.02500000037252903,0.02500000037252903,0.05000000074505806,0.0005000000237487257,-0.040060042788312725,-3.36445450538417,0.20015005068276331,0.14,0.0,0.26,-0.037408098578453064,-0.0005738780600950122,0.3526611030101776,0.0,0.0
0.0,86.0,0.0,0.0,0.0,-0.025,0.0,0.0,0.015339807607233524,-1.293145775794983,1.0109710693359375,-1.7450000047683716,-0.0715857669711113,0.0,0.015339807607233524,-1.293145775794983,1.0109710693359375,-1.745,-0.0715857669711113,0.003,0.0,0.0,0.0,0.0,0.0,0.0,-3.1,3.1,-1.571,1.571,-1.571,1.571,-1.745,1.745,-2.617,2.617,0.003,0.03,-0.05000000074505806,-0.02500000037252903,-0.02500000037252903,-0.02500000037252903,-0.05000000074505806,-0.0005000000237487257,0.05000000074505806,0.02500000037252903,0.02500000037252903,0.02500000037252903,0.05000000074505806,0.0005000000237487257,-0.040060042788312725,-3.404514548172483,0.20015005068276331,0.14,0.0,0.26,-0.037408098578453064,-0.0005738780600950122,0.3526611030101776,0.0,0.0
0.0,87.0,0.0,0.0,0.0,-0.025,0.0,0.0,0.015339807607233524,-1.293145775794983,1.0109710693359375,-1.7450000047683716,-0.0715857669711113,0.0,0.015339807607233524,-1.293145775794983,1.0109710693359375,-1.745,-0.0715857669711113,0.003,0.0,0.0,0.0,0.0,0.0,0.0,-3.1,3.1,-1.571,1.571,-1.571,1.571,-1.745,1.745,-2.617,2.617,0.003,0.03,-0.05000000074505806,-0.02500000037252903,-0.02500000037252903,-0.02500000037252903,-0.05000000074505806,-0.0005000000237487257,0.05000000074505806,0.02500000037252903,0.02500000037252903,0.02500000037252903,0.05000000074505806,0.0005000000237487257,-0.040060042788312725,-3.4445745909607957,0.20015005068276331,0.14,0.0,0.26,-0.037408098578453064,-0.0005738780600950122,0.3526611030101776,0.0,0.0
0.0,88.0,0.0,0.0,0.0,-0.025,0.0,0.0,0.015339807607233524,-1.293145775794983,1.0109710693359375,-1.7450000047683716,-0.0715857669711113,0.0,0.015339807607233524,-1.293145775794983,1.0109710693359375,-1.745,-0.0715857669711113,0.003,0.0,0.0,0.0,0.0,0.0,0.0,-3.1,3.1,-1.571,1.571,-1.571,1.571,-1.745,1.745,-2.617,2.617,0.003,0.03,-0.05000000074505806,-0.02500000037252903,-0.02500000037252903,-0.02500000037252903,-0.05000000074505806,-0.0005000000237487257,0.05000000074505806,0.02500000037252903,0.02500000037252903,0.02500000037252903,0.05000000074505806,0.0005000000237487257,-0.040060042788312725,-3.4846346337491085,0.20015005068276331,0.14,0.0,0.26,-0.037408098578453064,-0.0005738780600950122,0.3526611030101776,0.0,0.0
0.0,89.0,0.0,0.0,0.0,-0.025,0.0,0.0,0.015339807607233524,-1.293145775794983,1.0109710693359375,-1.7450000047683716,-0.0715857669711113,0.0,0.015339807607233524,-1.293145775794983,1.0109710693359375,-1.745,-0.0715857669711113,0.003,0.0,0.0,0.0,0.0,0.0,0.0,-3.1,3.1,-1.571,1.571,-1.571,1.571,-1.745,1.745,-2.617,2.617,0.003,0.03,-0.05000000074505806,-0.02500000037252903,-0.02500000037252903,-0.02500000037252903,-0.05000000074505806,-0.0005000000237487257,0.05000000074505806,0.02500000037252903,0.02500000037252903,0.02500000037252903,0.05000000074505806,0.0005000000237487257,-0.040060042788312725,-3.5246946765374214,0.20015005068276331,0.14,0.0,0.26,-0.037408098578453064,-0.0005738780600950122,0.3526611030101776,0.0,0.0
0.0,90.0,0.0,0.0,0.0,-0.025,0.0,0.0,0.015339807607233524,-1.293145775794983,1.0109710693359375,-1.7450000047683716,-0.0715857669711113,0.0,0.015339807607233524,-1.293145775794983,1.0109710693359375,-1.745,-0.0715857669711113,0.003,0.0,0.0,0.0,0.0,0.0,0.0,-3.1,3.1,-1.571,1.571,-1.571,1.571,-1.745,1.745,-2.617,2.617,0.003,0.03,-0.05000000074505806,-0.02500000037252903,-0.02500000037252903,-0.02500000037252903,-0.05000000074505806,-0.0005000000237487257,0.05000000074505806,0.02500000037252903,0.02500000037252903,0.02500000037252903,0.05000000074505806,0.0005000000237487257,-0.040060042788312725,-3.5647547193257343,0.20015005068276331,0.14,0.0,0.26,-0.037408098578453064,-0.0005738780600950122,0.3526611030101776,0.0,0.0
0.0,91.0,0.0,0.0,0.0,-0.025,0.0,0.0,0.015339807607233524,-1.293145775794983,1.0109710693359375,-1.7450000047683716,-0.0715857669711113,0.0,0.015339807607233524,-1.293145775794983,1.0109710693359375,-1.745,-0.0715857669711113,0.003,0.0,0.0,0.0,0.0,0.0,0.0,-3.1,3.1,-1.571,1.571,-1.571,1.571,-1.745,1.745,-2.617,2.617,0.003,0.03,-0.05000000074505806,-0.02500000037252903,-0.02500000037252903,-0.02500000037252903,-0.05000000074505806,-0.0005000000237487257,0.05000000074505806,0.02500000037252903,0.02500000037252903,0.02500000037252903,0.05000000074505806,0.0005000000237487257,-0.040060042788312725,-3.604814762114047,0.20015005068276331,0.14,0.0,0.26,-0.037408098578453064,-0.0005738780600950122,0.3526611030101776,0.0,0.0
0.0,92.0,0.0,0.0,0.0,-0.025,0.0,0.0,0.015339807607233524,-1.293145775794983,1.0109710693359375,-1.7450000047683716,-0.0715857669711113,0.0,0.015339807607233524,-1.293145775794983,1.0109710693359375,-1.745,-0.0715857669711113,0.003,0.0,0.0,0.0,0.0,0.0,0.0,-3.1,3.1,-1.571,1.571,-1.571,1.571,-1.745,1.745,-2.617,2.617,0.003,0.03,-0.05000000074505806,-0.02500000037252903,-0.02500000037252903,-0.02500000037252903,-0.05000000074505806,-0.0005000000237487257,0.05000000074505806,0.02500000037252903,0.02500000037252903,0.02500000037252903,0.05000000074505806,0.0005000000237487257,-0.040060042788312725,-3.64487480490236,0.20015005068276331,0.14,0.0,0.26,-0.037408098578453064,-0.0005738780600950122,0.3526611030101776,0.0,0.0
0.0,93.0,0.0,0.0,0.0,-0.025,0.0,0.0,0.015339807607233524,-1.293145775794983,1.0109710693359375,-1.7450000047683716,-0.0715857669711113,0.0,0.015339807607233524,-1.293145775794983,1.0109710693359375,-1.745,-0.0715857669711113,0.003,0.0,0.0,0.0,0.0,0.0,0.0,-3.1,3.1,-1.571,1.571,-1.571,1.571,-1.745,1.745,-2.617,2.617,0.003,0.03,-0.05000000074505806,-0.02500000037252903,-0.02500000037252903,-0.02500000037252903,-0.05000000074505806,-0.0005000000237487257,0.05000000074505806,0.02500000037252903,0.02500000037252903,0.02500000037252903,0.05000000074505806,0.0005000000237487257,-0.040060042788312725,-3.684934847690673,0.20015005068276331,0.14,0.0,0.26,-0.037408098578453064,-0.0005738780600950122,0.3526611030101776,0.0,0.0
0.0,94.0,0.0,0.0,0.0,-0.025,0.0,0.0,0.015339807607233524,-1.293145775794983,1.0109710693359375,-1.7450000047683716,-0.0715857669711113,0.0,0.015339807607233524,-1.293145775794983,1.0109710693359375,-1.745,-0.0715857669711113,0.003,0.0,0.0,0.0,0.0,0.0,0.0,-3.1,3.1,-1.571,1.571,-1.571,1.571,-1.745,1.745,-2.617,2.617,0.003,0.03,-0.05000000074505806,-0.02500000037252903,-0.02500000037252903,-0.02500000037252903,-0.05000000074505806,-0.0005000000237487257,0.05000000074505806,0.02500000037252903,0.02500000037252903,0.02500000037252903,0.05000000074505806,0.0005000000237487257,-0.040060042788312725,-3.724994890478986,0.20015005068276331,0.14,0.0,0.26,-0.037408098578453064,-0.0005738780600950122,0.3526611030101776,0.0,0.0
0.0,95.0,0.0,0.0,0.0,-0.025,0.0,0.0,0.015339807607233524,-1.293145775794983,1.0109710693359375,-1.7450000047683716,-0.0715857669711113,0.0,0.015339807607233524,-1.293145775794983,1.0109710693359375,-1.745,-0.0715857669711113,0.003,0.0,0.0,0.0,0.0,0.0,0.0,-3.1,3.1,-1.571,1.571,-1.571,1.571,-1.745,1.745,-2.617,2.617,0.003,0.03,-0.05000000074505806,-0.02500000037252903,-0.02500000037252903,-0.02500000037252903,-0.05000000074505806,-0.0005000000237487257,0.05000000074505806,0.02500000037252903,0.02500000037252903,0.02500000037252903,0.05000000074505806,0.0005000000237487257,-0.040060042788312725,-3.7650549332672987,0.20015005068276331,0.14,0.0,0.26,-0.037408098578453064,-0.0005738780600950122,0.3526611030101776,0.0,0.0
0.0,96.0,0.0,0.0,0.0,-0.025,0.0,0.0,0.015339807607233524,-1.293145775794983,1.0109710693359375,-1.7450000047683716,-0.0715857669711113,0.0,0.015339807607233524,-1.293145775794983,1.0109710693359375,-1.745,-0.0715857669711113,0.003,0.0,0.0,0.0,0.0,0.0,0.0,-3.1,3.1,-1.571,1.571,-1.571,1.571,-1.745,1.745,-2.617,2.617,0.003,0.03,-0.05000000074505806,-0.02500000037252903,-0.02500000037252903,-0.02500000037252903,-0.05000000074505806,-0.0005000000237487257,0.05000000074505806,0.02500000037252903,0.02500000037252903,0.02500000037252903,0.05000000074505806,0.0005000000237487257,-0.040060042788312725,-3.8051149760556116,0.20015005068276331,0.14,0.0,0.26,-0.037408098578453064,-0.0005738780600950122,0.3526611030101776,0.0,0.0
0.0,97.0,0.0,0.0,0.0,-0.025,0.0,0.0,0.015339807607233524,-1.293145775794983,1.0109710693359375,-1.7450000047683716,-0.0715857669711113,0.0,0.015339807607233524,-1.293145775794983,1.0109710693359375,-1.745,-0.0715857669711113,0.003,0.0,0.0,0.0,0.0,0.0,0.0,-3.1,3.1,-1.571,1.571,-1.571,1.571,-1.745,1.745,-2.617,2.617,0.003,0.03,-0.05000000074505806,-0.02500000037252903,-0.02500000037252903,-0.02500000037252903,-0.05000000074505806,-0.0005000000237487257,0.05000000074505806,0.02500000037252903,0.02500000037252903,0.02500000037252903,0.05000000074505806,0.0005000000237487257,-0.040060042788312725,-3.8451750188439244,0.20015005068276331,0.14,0.0,0.26,-0.037408098578453064,-0.0005738780600950122,0.3526611030101776,0.0,0.0
0.0,98.0,0.0,0.0,0.0,-0.025,0.0,0.0,0.015339807607233524,-1.293145775794983,1.0109710693359375,-1.7450000047683716,-0.0715857669711113,0.0,0.015339807607233524,-1.293145775794983,1.0109710693359375,-1.745,-0.0715857669711113,0.003,0.0,0.0,0.0,0.0,0.0,0.0,-3.1,3.1,-1.571,1.571,-1.571,1.571,-1.745,1.745,-2.617,2.617,0.003,0.03,-0.05000000074505806,-0.02500000037252903,-0.02500000037252903,-0.02500000037252903,-0.05000000074505806,-0.0005000000237487257,0.05000000074505806,0.02500000037252903,0.02500000037252903,0.02500000037252903,0.05000000074505806,0.0005000000237487257,-0.040060042788312725,-3.8852350616322373,0.20015005068276331,0.14,0.0,0.26,-0.037408098578453064,-0.0005738780600950122,0.3526611030101776,0.0,0.0
0.0,99.0,0.0,0.0,0.0,-0.025,0.0,0.0,0.015339807607233524,-1.293145775794983,1.0109710693359375,-1.7450000047683716,-0.0715857669711113,0.0,0.015339807607233524,-1.293145775794983,1.0109710693359375,-1.745,-0.0715857669711113,0.003,0.0,0.0,0.0,0.0,0.0,0.0,-3.1,3.1,-1.571,1.571,-1.571,1.571,-1.745,1.745,-2.617,2.617,0.003,0.03,-0.05000000074505806,-0.02500000037252903,-0.02500000037252903,-0.02500000037252903,-0.05000000074505806,-0.0005000000237487257,0.05000000074505806,0.02500000037252903,0.02500000037252903,0.02500000037252903,0.05000000074505806,0.0005000000237487257,-0.040060042788312725,-3.92529510442055,0.20015005068276331,0.14,0.0,0.26,-0.037408098578453064,-0.0005738780600950122,0.3526611030101776,1.0,0.0
