PierreExeter/WidowX-reacher/tests/Check_env_consistency/logs/2_action0.05alt.csv
episode,timestep,action_1,action_2,action_3,action_4,action_5,action_6,current_joint_pos_1,current_joint_pos_2,current_joint_pos_3,current_joint_pos_4,current_joint_pos_5,current_joint_pos_6,new_joint_pos_1,new_joint_pos_2,new_joint_pos_3,new_joint_pos_4,new_joint_pos_5,new_joint_pos_6,joint_vel_1,joint_vel_2,joint_vel_3,joint_vel_4,joint_vel_5,joint_vel_6,joint1_min,joint1_max,joint2_min,joint2_max,joint3_min,joint3_max,joint4_min,joint4_max,joint5_min,joint5_max,joint6_min,joint6_max,action_low1,action_low2,action_low3,action_low4,action_low5,action_low6,action_high1,action_high2,action_high3,action_high4,action_high5,action_high6,reward,return,dist,target_x,target_y,target_z,tip_x,tip_y,tip_z,done,est_vel,est_acc
0.0,0.0,0.05,0.0,0.0,0.0,0.0,0.0,0.015339807607233524,-1.293145775794983,1.0109710693359375,-1.3537670373916626,-0.0715857669711113,0.0,0.06533981114625931,-1.293145775794983,1.0109710693359375,-1.3537670373916626,-0.0715857669711113,0.003,0.0,0.0,0.0,0.0,0.0,0.0,-3.1,3.1,-1.571,1.571,-1.571,1.571,-1.745,1.745,-2.617,2.617,0.003,0.03,-0.05000000074505806,-0.02500000037252903,-0.02500000037252903,-0.02500000037252903,-0.05000000074505806,-0.0005000000237487257,0.05000000074505806,0.02500000037252903,0.02500000037252903,0.02500000037252903,0.05000000074505806,0.0005000000237487257,-0.028912844446213407,-0.028912844446213407,0.1700377735863811,0.14,0.0,0.26,0.005581842735409737,0.00036523648304864764,0.36413678526878357,0.0,0.0,0.0
0.0,1.0,-0.05,0.0,0.0,0.0,0.0,0.0,0.06533981114625931,-1.293145775794983,1.0109710693359375,-1.3537670373916626,-0.0715857669711113,0.0,0.015339810401201248,-1.293145775794983,1.0109710693359375,-1.3537670373916626,-0.0715857669711113,0.003,0.0,0.0,0.0,0.0,0.0,0.0,-3.1,3.1,-1.571,1.571,-1.571,1.571,-1.745,1.745,-2.617,2.617,0.003,0.03,-0.05000000074505806,-0.02500000037252903,-0.02500000037252903,-0.02500000037252903,-0.05000000074505806,-0.0005000000237487257,0.05000000074505806,0.02500000037252903,0.02500000037252903,0.02500000037252903,0.05000000074505806,0.0005000000237487257,-0.0289096865170674,-0.057822530963280806,0.17002848736922704,0.14,0.0,0.26,0.00559312105178833,8.580414578318596e-05,0.36413678526878357,0.0,-0.002228692116976738,-0.5348861080744172
0.0,2.0,0.05,0.0,0.0,0.0,0.0,0.0,0.015339810401201248,-1.293145775794983,1.0109710693359375,-1.3537670373916626,-0.0715857669711113,0.0,0.06533981114625931,-1.293145775794983,1.0109710693359375,-1.3537670373916626,-0.0715857669711113,0.003,0.0,0.0,0.0,0.0,0.0,0.0,-3.1,3.1,-1.571,1.571,-1.571,1.571,-1.745,1.745,-2.617,2.617,0.003,0.03,-0.05000000074505806,-0.02500000037252903,-0.02500000037252903,-0.02500000037252903,-0.05000000074505806,-0.0005000000237487257,0.05000000074505806,0.02500000037252903,0.02500000037252903,0.02500000037252903,0.05000000074505806,0.0005000000237487257,-0.028912844446213407,-0.08673537540949422,0.1700377735863811,0.14,0.0,0.26,0.005581842735409737,0.00036523648304864764,0.36413678526878357,0.0,0.002228692116976738,1.0697722161488343
0.0,3.0,-0.05,0.0,0.0,0.0,0.0,0.0,0.06533981114625931,-1.293145775794983,1.0109710693359375,-1.3537670373916626,-0.0715857669711113,0.0,0.015339810401201248,-1.293145775794983,1.0109710693359375,-1.3537670373916626,-0.0715857669711113,0.003,0.0,0.0,0.0,0.0,0.0,0.0,-3.1,3.1,-1.571,1.571,-1.571,1.571,-1.745,1.745,-2.617,2.617,0.003,0.03,-0.05000000074505806,-0.02500000037252903,-0.02500000037252903,-0.02500000037252903,-0.05000000074505806,-0.0005000000237487257,0.05000000074505806,0.02500000037252903,0.02500000037252903,0.02500000037252903,0.05000000074505806,0.0005000000237487257,-0.0289096865170674,-0.11564506192656163,0.17002848736922704,0.14,0.0,0.26,0.00559312105178833,8.580414578318596e-05,0.36413678526878357,0.0,-0.002228692116976738,-1.0697722161488343
0.0,4.0,0.05,0.0,0.0,0.0,0.0,0.0,0.015339810401201248,-1.293145775794983,1.0109710693359375,-1.3537670373916626,-0.0715857669711113,0.0,0.06533981114625931,-1.293145775794983,1.0109710693359375,-1.3537670373916626,-0.0715857669711113,0.003,0.0,0.0,0.0,0.0,0.0,0.0,-3.1,3.1,-1.571,1.571,-1.571,1.571,-1.745,1.745,-2.617,2.617,0.003,0.03,-0.05000000074505806,-0.02500000037252903,-0.02500000037252903,-0.02500000037252903,-0.05000000074505806,-0.0005000000237487257,0.05000000074505806,0.02500000037252903,0.02500000037252903,0.02500000037252903,0.05000000074505806,0.0005000000237487257,-0.028912844446213407,-0.14455790637277505,0.1700377735863811,0.14,0.0,0.26,0.005581842735409737,0.00036523648304864764,0.36413678526878357,0.0,0.002228692116976738,1.0697722161488343
0.0,5.0,-0.05,0.0,0.0,0.0,0.0,0.0,0.06533981114625931,-1.293145775794983,1.0109710693359375,-1.3537670373916626,-0.0715857669711113,0.0,0.015339810401201248,-1.293145775794983,1.0109710693359375,-1.3537670373916626,-0.0715857669711113,0.003,0.0,0.0,0.0,0.0,0.0,0.0,-3.1,3.1,-1.571,1.571,-1.571,1.571,-1.745,1.745,-2.617,2.617,0.003,0.03,-0.05000000074505806,-0.02500000037252903,-0.02500000037252903,-0.02500000037252903,-0.05000000074505806,-0.0005000000237487257,0.05000000074505806,0.02500000037252903,0.02500000037252903,0.02500000037252903,0.05000000074505806,0.0005000000237487257,-0.0289096865170674,-0.17346759288984245,0.17002848736922704,0.14,0.0,0.26,0.00559312105178833,8.580414578318596e-05,0.36413678526878357,0.0,-0.002228692116976738,-1.0697722161488343
0.0,6.0,0.05,0.0,0.0,0.0,0.0,0.0,0.015339810401201248,-1.293145775794983,1.0109710693359375,-1.3537670373916626,-0.0715857669711113,0.0,0.06533981114625931,-1.293145775794983,1.0109710693359375,-1.3537670373916626,-0.0715857669711113,0.003,0.0,0.0,0.0,0.0,0.0,0.0,-3.1,3.1,-1.571,1.571,-1.571,1.571,-1.745,1.745,-2.617,2.617,0.003,0.03,-0.05000000074505806,-0.02500000037252903,-0.02500000037252903,-0.02500000037252903,-0.05000000074505806,-0.0005000000237487257,0.05000000074505806,0.02500000037252903,0.02500000037252903,0.02500000037252903,0.05000000074505806,0.0005000000237487257,-0.028912844446213407,-0.20238043733605587,0.1700377735863811,0.14,0.0,0.26,0.005581842735409737,0.00036523648304864764,0.36413678526878357,0.0,0.002228692116976738,1.0697722161488343
0.0,7.0,-0.05,0.0,0.0,0.0,0.0,0.0,0.06533981114625931,-1.293145775794983,1.0109710693359375,-1.3537670373916626,-0.0715857669711113,0.0,0.015339810401201248,-1.293145775794983,1.0109710693359375,-1.3537670373916626,-0.0715857669711113,0.003,0.0,0.0,0.0,0.0,0.0,0.0,-3.1,3.1,-1.571,1.571,-1.571,1.571,-1.745,1.745,-2.617,2.617,0.003,0.03,-0.05000000074505806,-0.02500000037252903,-0.02500000037252903,-0.02500000037252903,-0.05000000074505806,-0.0005000000237487257,0.05000000074505806,0.02500000037252903,0.02500000037252903,0.02500000037252903,0.05000000074505806,0.0005000000237487257,-0.0289096865170674,-0.23129012385312328,0.17002848736922704,0.14,0.0,0.26,0.00559312105178833,8.580414578318596e-05,0.36413678526878357,0.0,-0.002228692116976738,-1.0697722161488343
0.0,8.0,0.05,0.0,0.0,0.0,0.0,0.0,0.015339810401201248,-1.293145775794983,1.0109710693359375,-1.3537670373916626,-0.0715857669711113,0.0,0.06533981114625931,-1.293145775794983,1.0109710693359375,-1.3537670373916626,-0.0715857669711113,0.003,0.0,0.0,0.0,0.0,0.0,0.0,-3.1,3.1,-1.571,1.571,-1.571,1.571,-1.745,1.745,-2.617,2.617,0.003,0.03,-0.05000000074505806,-0.02500000037252903,-0.02500000037252903,-0.02500000037252903,-0.05000000074505806,-0.0005000000237487257,0.05000000074505806,0.02500000037252903,0.02500000037252903,0.02500000037252903,0.05000000074505806,0.0005000000237487257,-0.028912844446213407,-0.2602029682993367,0.1700377735863811,0.14,0.0,0.26,0.005581842735409737,0.00036523648304864764,0.36413678526878357,0.0,0.002228692116976738,1.0697722161488343
0.0,9.0,-0.05,0.0,0.0,0.0,0.0,0.0,0.06533981114625931,-1.293145775794983,1.0109710693359375,-1.3537670373916626,-0.0715857669711113,0.0,0.015339810401201248,-1.293145775794983,1.0109710693359375,-1.3537670373916626,-0.0715857669711113,0.003,0.0,0.0,0.0,0.0,0.0,0.0,-3.1,3.1,-1.571,1.571,-1.571,1.571,-1.745,1.745,-2.617,2.617,0.003,0.03,-0.05000000074505806,-0.02500000037252903,-0.02500000037252903,-0.02500000037252903,-0.05000000074505806,-0.0005000000237487257,0.05000000074505806,0.02500000037252903,0.02500000037252903,0.02500000037252903,0.05000000074505806,0.0005000000237487257,-0.0289096865170674,-0.2891126548164041,0.17002848736922704,0.14,0.0,0.26,0.00559312105178833,8.580414578318596e-05,0.36413678526878357,0.0,-0.002228692116976738,-1.0697722161488343
0.0,10.0,0.05,0.0,0.0,0.0,0.0,0.0,0.015339810401201248,-1.293145775794983,1.0109710693359375,-1.3537670373916626,-0.0715857669711113,0.0,0.06533981114625931,-1.293145775794983,1.0109710693359375,-1.3537670373916626,-0.0715857669711113,0.003,0.0,0.0,0.0,0.0,0.0,0.0,-3.1,3.1,-1.571,1.571,-1.571,1.571,-1.745,1.745,-2.617,2.617,0.003,0.03,-0.05000000074505806,-0.02500000037252903,-0.02500000037252903,-0.02500000037252903,-0.05000000074505806,-0.0005000000237487257,0.05000000074505806,0.02500000037252903,0.02500000037252903,0.02500000037252903,0.05000000074505806,0.0005000000237487257,-0.028912844446213407,-0.3180254992626175,0.1700377735863811,0.14,0.0,0.26,0.005581842735409737,0.00036523648304864764,0.36413678526878357,0.0,0.002228692116976738,1.0697722161488343
0.0,11.0,-0.05,0.0,0.0,0.0,0.0,0.0,0.06533981114625931,-1.293145775794983,1.0109710693359375,-1.3537670373916626,-0.0715857669711113,0.0,0.015339810401201248,-1.293145775794983,1.0109710693359375,-1.3537670373916626,-0.0715857669711113,0.003,0.0,0.0,0.0,0.0,0.0,0.0,-3.1,3.1,-1.571,1.571,-1.571,1.571,-1.745,1.745,-2.617,2.617,0.003,0.03,-0.05000000074505806,-0.02500000037252903,-0.02500000037252903,-0.02500000037252903,-0.05000000074505806,-0.0005000000237487257,0.05000000074505806,0.02500000037252903,0.02500000037252903,0.02500000037252903,0.05000000074505806,0.0005000000237487257,-0.0289096865170674,-0.34693518577968485,0.17002848736922704,0.14,0.0,0.26,0.00559312105178833,8.580414578318596e-05,0.36413678526878357,0.0,-0.002228692116976738,-1.0697722161488343
0.0,12.0,0.05,0.0,0.0,0.0,0.0,0.0,0.015339810401201248,-1.293145775794983,1.0109710693359375,-1.3537670373916626,-0.0715857669711113,0.0,0.06533981114625931,-1.293145775794983,1.0109710693359375,-1.3537670373916626,-0.0715857669711113,0.003,0.0,0.0,0.0,0.0,0.0,0.0,-3.1,3.1,-1.571,1.571,-1.571,1.571,-1.745,1.745,-2.617,2.617,0.003,0.03,-0.05000000074505806,-0.02500000037252903,-0.02500000037252903,-0.02500000037252903,-0.05000000074505806,-0.0005000000237487257,0.05000000074505806,0.02500000037252903,0.02500000037252903,0.02500000037252903,0.05000000074505806,0.0005000000237487257,-0.028912844446213407,-0.37584803022589824,0.1700377735863811,0.14,0.0,0.26,0.005581842735409737,0.00036523648304864764,0.36413678526878357,0.0,0.002228692116976738,1.0697722161488343
0.0,13.0,-0.05,0.0,0.0,0.0,0.0,0.0,0.06533981114625931,-1.293145775794983,1.0109710693359375,-1.3537670373916626,-0.0715857669711113,0.0,0.015339810401201248,-1.293145775794983,1.0109710693359375,-1.3537670373916626,-0.0715857669711113,0.003,0.0,0.0,0.0,0.0,0.0,0.0,-3.1,3.1,-1.571,1.571,-1.571,1.571,-1.745,1.745,-2.617,2.617,0.003,0.03,-0.05000000074505806,-0.02500000037252903,-0.02500000037252903,-0.02500000037252903,-0.05000000074505806,-0.0005000000237487257,0.05000000074505806,0.02500000037252903,0.02500000037252903,0.02500000037252903,0.05000000074505806,0.0005000000237487257,-0.0289096865170674,-0.4047577167429656,0.17002848736922704,0.14,0.0,0.26,0.00559312105178833,8.580414578318596e-05,0.36413678526878357,0.0,-0.002228692116976738,-1.0697722161488343
0.0,14.0,0.05,0.0,0.0,0.0,0.0,0.0,0.015339810401201248,-1.293145775794983,1.0109710693359375,-1.3537670373916626,-0.0715857669711113,0.0,0.06533981114625931,-1.293145775794983,1.0109710693359375,-1.3537670373916626,-0.0715857669711113,0.003,0.0,0.0,0.0,0.0,0.0,0.0,-3.1,3.1,-1.571,1.571,-1.571,1.571,-1.745,1.745,-2.617,2.617,0.003,0.03,-0.05000000074505806,-0.02500000037252903,-0.02500000037252903,-0.02500000037252903,-0.05000000074505806,-0.0005000000237487257,0.05000000074505806,0.02500000037252903,0.02500000037252903,0.02500000037252903,0.05000000074505806,0.0005000000237487257,-0.028912844446213407,-0.433670561189179,0.1700377735863811,0.14,0.0,0.26,0.005581842735409737,0.00036523648304864764,0.36413678526878357,0.0,0.002228692116976738,1.0697722161488343
0.0,15.0,-0.05,0.0,0.0,0.0,0.0,0.0,0.06533981114625931,-1.293145775794983,1.0109710693359375,-1.3537670373916626,-0.0715857669711113,0.0,0.015339810401201248,-1.293145775794983,1.0109710693359375,-1.3537670373916626,-0.0715857669711113,0.003,0.0,0.0,0.0,0.0,0.0,0.0,-3.1,3.1,-1.571,1.571,-1.571,1.571,-1.745,1.745,-2.617,2.617,0.003,0.03,-0.05000000074505806,-0.02500000037252903,-0.02500000037252903,-0.02500000037252903,-0.05000000074505806,-0.0005000000237487257,0.05000000074505806,0.02500000037252903,0.02500000037252903,0.02500000037252903,0.05000000074505806,0.0005000000237487257,-0.0289096865170674,-0.4625802477062464,0.17002848736922704,0.14,0.0,0.26,0.00559312105178833,8.580414578318596e-05,0.36413678526878357,0.0,-0.002228692116976738,-1.0697722161488343
0.0,16.0,0.05,0.0,0.0,0.0,0.0,0.0,0.015339810401201248,-1.293145775794983,1.0109710693359375,-1.3537670373916626,-0.0715857669711113,0.0,0.06533981114625931,-1.293145775794983,1.0109710693359375,-1.3537670373916626,-0.0715857669711113,0.003,0.0,0.0,0.0,0.0,0.0,0.0,-3.1,3.1,-1.571,1.571,-1.571,1.571,-1.745,1.745,-2.617,2.617,0.003,0.03,-0.05000000074505806,-0.02500000037252903,-0.02500000037252903,-0.02500000037252903,-0.05000000074505806,-0.0005000000237487257,0.05000000074505806,0.02500000037252903,0.02500000037252903,0.02500000037252903,0.05000000074505806,0.0005000000237487257,-0.028912844446213407,-0.4914930921524598,0.1700377735863811,0.14,0.0,0.26,0.005581842735409737,0.00036523648304864764,0.36413678526878357,0.0,0.002228692116976738,1.0697722161488343
0.0,17.0,-0.05,0.0,0.0,0.0,0.0,0.0,0.06533981114625931,-1.293145775794983,1.0109710693359375,-1.3537670373916626,-0.0715857669711113,0.0,0.015339810401201248,-1.293145775794983,1.0109710693359375,-1.3537670373916626,-0.0715857669711113,0.003,0.0,0.0,0.0,0.0,0.0,0.0,-3.1,3.1,-1.571,1.571,-1.571,1.571,-1.745,1.745,-2.617,2.617,0.003,0.03,-0.05000000074505806,-0.02500000037252903,-0.02500000037252903,-0.02500000037252903,-0.05000000074505806,-0.0005000000237487257,0.05000000074505806,0.02500000037252903,0.02500000037252903,0.02500000037252903,0.05000000074505806,0.0005000000237487257,-0.0289096865170674,-0.5204027786695272,0.17002848736922704,0.14,0.0,0.26,0.00559312105178833,8.580414578318596e-05,0.36413678526878357,0.0,-0.002228692116976738,-1.0697722161488343
0.0,18.0,0.05,0.0,0.0,0.0,0.0,0.0,0.015339810401201248,-1.293145775794983,1.0109710693359375,-1.3537670373916626,-0.0715857669711113,0.0,0.06533981114625931,-1.293145775794983,1.0109710693359375,-1.3537670373916626,-0.0715857669711113,0.003,0.0,0.0,0.0,0.0,0.0,0.0,-3.1,3.1,-1.571,1.571,-1.571,1.571,-1.745,1.745,-2.617,2.617,0.003,0.03,-0.05000000074505806,-0.02500000037252903,-0.02500000037252903,-0.02500000037252903,-0.05000000074505806,-0.0005000000237487257,0.05000000074505806,0.02500000037252903,0.02500000037252903,0.02500000037252903,0.05000000074505806,0.0005000000237487257,-0.028912844446213407,-0.5493156231157407,0.1700377735863811,0.14,0.0,0.26,0.005581842735409737,0.00036523648304864764,0.36413678526878357,0.0,0.002228692116976738,1.0697722161488343
0.0,19.0,-0.05,0.0,0.0,0.0,0.0,0.0,0.06533981114625931,-1.293145775794983,1.0109710693359375,-1.3537670373916626,-0.0715857669711113,0.0,0.015339810401201248,-1.293145775794983,1.0109710693359375,-1.3537670373916626,-0.0715857669711113,0.003,0.0,0.0,0.0,0.0,0.0,0.0,-3.1,3.1,-1.571,1.571,-1.571,1.571,-1.745,1.745,-2.617,2.617,0.003,0.03,-0.05000000074505806,-0.02500000037252903,-0.02500000037252903,-0.02500000037252903,-0.05000000074505806,-0.0005000000237487257,0.05000000074505806,0.02500000037252903,0.02500000037252903,0.02500000037252903,0.05000000074505806,0.0005000000237487257,-0.0289096865170674,-0.578225309632808,0.17002848736922704,0.14,0.0,0.26,0.00559312105178833,8.580414578318596e-05,0.36413678526878357,0.0,-0.002228692116976738,-1.0697722161488343
0.0,20.0,0.05,0.0,0.0,0.0,0.0,0.0,0.015339810401201248,-1.293145775794983,1.0109710693359375,-1.3537670373916626,-0.0715857669711113,0.0,0.06533981114625931,-1.293145775794983,1.0109710693359375,-1.3537670373916626,-0.0715857669711113,0.003,0.0,0.0,0.0,0.0,0.0,0.0,-3.1,3.1,-1.571,1.571,-1.571,1.571,-1.745,1.745,-2.617,2.617,0.003,0.03,-0.05000000074505806,-0.02500000037252903,-0.02500000037252903,-0.02500000037252903,-0.05000000074505806,-0.0005000000237487257,0.05000000074505806,0.02500000037252903,0.02500000037252903,0.02500000037252903,0.05000000074505806,0.0005000000237487257,-0.028912844446213407,-0.6071381540790215,0.1700377735863811,0.14,0.0,0.26,0.005581842735409737,0.00036523648304864764,0.36413678526878357,0.0,0.002228692116976738,1.0697722161488343
0.0,21.0,-0.05,0.0,0.0,0.0,0.0,0.0,0.06533981114625931,-1.293145775794983,1.0109710693359375,-1.3537670373916626,-0.0715857669711113,0.0,0.015339810401201248,-1.293145775794983,1.0109710693359375,-1.3537670373916626,-0.0715857669711113,0.003,0.0,0.0,0.0,0.0,0.0,0.0,-3.1,3.1,-1.571,1.571,-1.571,1.571,-1.745,1.745,-2.617,2.617,0.003,0.03,-0.05000000074505806,-0.02500000037252903,-0.02500000037252903,-0.02500000037252903,-0.05000000074505806,-0.0005000000237487257,0.05000000074505806,0.02500000037252903,0.02500000037252903,0.02500000037252903,0.05000000074505806,0.0005000000237487257,-0.0289096865170674,-0.6360478405960889,0.17002848736922704,0.14,0.0,0.26,0.00559312105178833,8.580414578318596e-05,0.36413678526878357,0.0,-0.002228692116976738,-1.0697722161488343
0.0,22.0,0.05,0.0,0.0,0.0,0.0,0.0,0.015339810401201248,-1.293145775794983,1.0109710693359375,-1.3537670373916626,-0.0715857669711113,0.0,0.06533981114625931,-1.293145775794983,1.0109710693359375,-1.3537670373916626,-0.0715857669711113,0.003,0.0,0.0,0.0,0.0,0.0,0.0,-3.1,3.1,-1.571,1.571,-1.571,1.571,-1.745,1.745,-2.617,2.617,0.003,0.03,-0.05000000074505806,-0.02500000037252903,-0.02500000037252903,-0.02500000037252903,-0.05000000074505806,-0.0005000000237487257,0.05000000074505806,0.02500000037252903,0.02500000037252903,0.02500000037252903,0.05000000074505806,0.0005000000237487257,-0.028912844446213407,-0.6649606850423023,0.1700377735863811,0.14,0.0,0.26,0.005581842735409737,0.00036523648304864764,0.36413678526878357,0.0,0.002228692116976738,1.0697722161488343
0.0,23.0,-0.05,0.0,0.0,0.0,0.0,0.0,0.06533981114625931,-1.293145775794983,1.0109710693359375,-1.3537670373916626,-0.0715857669711113,0.0,0.015339810401201248,-1.293145775794983,1.0109710693359375,-1.3537670373916626,-0.0715857669711113,0.003,0.0,0.0,0.0,0.0,0.0,0.0,-3.1,3.1,-1.571,1.571,-1.571,1.571,-1.745,1.745,-2.617,2.617,0.003,0.03,-0.05000000074505806,-0.02500000037252903,-0.02500000037252903,-0.02500000037252903,-0.05000000074505806,-0.0005000000237487257,0.05000000074505806,0.02500000037252903,0.02500000037252903,0.02500000037252903,0.05000000074505806,0.0005000000237487257,-0.0289096865170674,-0.6938703715593697,0.17002848736922704,0.14,0.0,0.26,0.00559312105178833,8.580414578318596e-05,0.36413678526878357,0.0,-0.002228692116976738,-1.0697722161488343
0.0,24.0,0.05,0.0,0.0,0.0,0.0,0.0,0.015339810401201248,-1.293145775794983,1.0109710693359375,-1.3537670373916626,-0.0715857669711113,0.0,0.06533981114625931,-1.293145775794983,1.0109710693359375,-1.3537670373916626,-0.0715857669711113,0.003,0.0,0.0,0.0,0.0,0.0,0.0,-3.1,3.1,-1.571,1.571,-1.571,1.571,-1.745,1.745,-2.617,2.617,0.003,0.03,-0.05000000074505806,-0.02500000037252903,-0.02500000037252903,-0.02500000037252903,-0.05000000074505806,-0.0005000000237487257,0.05000000074505806,0.02500000037252903,0.02500000037252903,0.02500000037252903,0.05000000074505806,0.0005000000237487257,-0.028912844446213407,-0.7227832160055832,0.1700377735863811,0.14,0.0,0.26,0.005581842735409737,0.00036523648304864764,0.36413678526878357,0.0,0.002228692116976738,1.0697722161488343
0.0,25.0,-0.05,0.0,0.0,0.0,0.0,0.0,0.06533981114625931,-1.293145775794983,1.0109710693359375,-1.3537670373916626,-0.0715857669711113,0.0,0.015339810401201248,-1.293145775794983,1.0109710693359375,-1.3537670373916626,-0.0715857669711113,0.003,0.0,0.0,0.0,0.0,0.0,0.0,-3.1,3.1,-1.571,1.571,-1.571,1.571,-1.745,1.745,-2.617,2.617,0.003,0.03,-0.05000000074505806,-0.02500000037252903,-0.02500000037252903,-0.02500000037252903,-0.05000000074505806,-0.0005000000237487257,0.05000000074505806,0.02500000037252903,0.02500000037252903,0.02500000037252903,0.05000000074505806,0.0005000000237487257,-0.0289096865170674,-0.7516929025226505,0.17002848736922704,0.14,0.0,0.26,0.00559312105178833,8.580414578318596e-05,0.36413678526878357,0.0,-0.002228692116976738,-1.0697722161488343
0.0,26.0,0.05,0.0,0.0,0.0,0.0,0.0,0.015339810401201248,-1.293145775794983,1.0109710693359375,-1.3537670373916626,-0.0715857669711113,0.0,0.06533981114625931,-1.293145775794983,1.0109710693359375,-1.3537670373916626,-0.0715857669711113,0.003,0.0,0.0,0.0,0.0,0.0,0.0,-3.1,3.1,-1.571,1.571,-1.571,1.571,-1.745,1.745,-2.617,2.617,0.003,0.03,-0.05000000074505806,-0.02500000037252903,-0.02500000037252903,-0.02500000037252903,-0.05000000074505806,-0.0005000000237487257,0.05000000074505806,0.02500000037252903,0.02500000037252903,0.02500000037252903,0.05000000074505806,0.0005000000237487257,-0.028912844446213407,-0.780605746968864,0.1700377735863811,0.14,0.0,0.26,0.005581842735409737,0.00036523648304864764,0.36413678526878357,0.0,0.002228692116976738,1.0697722161488343
0.0,27.0,-0.05,0.0,0.0,0.0,0.0,0.0,0.06533981114625931,-1.293145775794983,1.0109710693359375,-1.3537670373916626,-0.0715857669711113,0.0,0.015339810401201248,-1.293145775794983,1.0109710693359375,-1.3537670373916626,-0.0715857669711113,0.003,0.0,0.0,0.0,0.0,0.0,0.0,-3.1,3.1,-1.571,1.571,-1.571,1.571,-1.745,1.745,-2.617,2.617,0.003,0.03,-0.05000000074505806,-0.02500000037252903,-0.02500000037252903,-0.02500000037252903,-0.05000000074505806,-0.0005000000237487257,0.05000000074505806,0.02500000037252903,0.02500000037252903,0.02500000037252903,0.05000000074505806,0.0005000000237487257,-0.0289096865170674,-0.8095154334859314,0.17002848736922704,0.14,0.0,0.26,0.00559312105178833,8.580414578318596e-05,0.36413678526878357,0.0,-0.002228692116976738,-1.0697722161488343
0.0,28.0,0.05,0.0,0.0,0.0,0.0,0.0,0.015339810401201248,-1.293145775794983,1.0109710693359375,-1.3537670373916626,-0.0715857669711113,0.0,0.06533981114625931,-1.293145775794983,1.0109710693359375,-1.3537670373916626,-0.0715857669711113,0.003,0.0,0.0,0.0,0.0,0.0,0.0,-3.1,3.1,-1.571,1.571,-1.571,1.571,-1.745,1.745,-2.617,2.617,0.003,0.03,-0.05000000074505806,-0.02500000037252903,-0.02500000037252903,-0.02500000037252903,-0.05000000074505806,-0.0005000000237487257,0.05000000074505806,0.02500000037252903,0.02500000037252903,0.02500000037252903,0.05000000074505806,0.0005000000237487257,-0.028912844446213407,-0.8384282779321448,0.1700377735863811,0.14,0.0,0.26,0.005581842735409737,0.00036523648304864764,0.36413678526878357,0.0,0.002228692116976738,1.0697722161488343
0.0,29.0,-0.05,0.0,0.0,0.0,0.0,0.0,0.06533981114625931,-1.293145775794983,1.0109710693359375,-1.3537670373916626,-0.0715857669711113,0.0,0.015339810401201248,-1.293145775794983,1.0109710693359375,-1.3537670373916626,-0.0715857669711113,0.003,0.0,0.0,0.0,0.0,0.0,0.0,-3.1,3.1,-1.571,1.571,-1.571,1.571,-1.745,1.745,-2.617,2.617,0.003,0.03,-0.05000000074505806,-0.02500000037252903,-0.02500000037252903,-0.02500000037252903,-0.05000000074505806,-0.0005000000237487257,0.05000000074505806,0.02500000037252903,0.02500000037252903,0.02500000037252903,0.05000000074505806,0.0005000000237487257,-0.0289096865170674,-0.8673379644492122,0.17002848736922704,0.14,0.0,0.26,0.00559312105178833,8.580414578318596e-05,0.36413678526878357,0.0,-0.002228692116976738,-1.0697722161488343
0.0,30.0,0.05,0.0,0.0,0.0,0.0,0.0,0.015339810401201248,-1.293145775794983,1.0109710693359375,-1.3537670373916626,-0.0715857669711113,0.0,0.06533981114625931,-1.293145775794983,1.0109710693359375,-1.3537670373916626,-0.0715857669711113,0.003,0.0,0.0,0.0,0.0,0.0,0.0,-3.1,3.1,-1.571,1.571,-1.571,1.571,-1.745,1.745,-2.617,2.617,0.003,0.03,-0.05000000074505806,-0.02500000037252903,-0.02500000037252903,-0.02500000037252903,-0.05000000074505806,-0.0005000000237487257,0.05000000074505806,0.02500000037252903,0.02500000037252903,0.02500000037252903,0.05000000074505806,0.0005000000237487257,-0.028912844446213407,-0.8962508088954256,0.1700377735863811,0.14,0.0,0.26,0.005581842735409737,0.00036523648304864764,0.36413678526878357,0.0,0.002228692116976738,1.0697722161488343
0.0,31.0,-0.05,0.0,0.0,0.0,0.0,0.0,0.06533981114625931,-1.293145775794983,1.0109710693359375,-1.3537670373916626,-0.0715857669711113,0.0,0.015339810401201248,-1.293145775794983,1.0109710693359375,-1.3537670373916626,-0.0715857669711113,0.003,0.0,0.0,0.0,0.0,0.0,0.0,-3.1,3.1,-1.571,1.571,-1.571,1.571,-1.745,1.745,-2.617,2.617,0.003,0.03,-0.05000000074505806,-0.02500000037252903,-0.02500000037252903,-0.02500000037252903,-0.05000000074505806,-0.0005000000237487257,0.05000000074505806,0.02500000037252903,0.02500000037252903,0.02500000037252903,0.05000000074505806,0.0005000000237487257,-0.0289096865170674,-0.925160495412493,0.17002848736922704,0.14,0.0,0.26,0.00559312105178833,8.580414578318596e-05,0.36413678526878357,0.0,-0.002228692116976738,-1.0697722161488343
0.0,32.0,0.05,0.0,0.0,0.0,0.0,0.0,0.015339810401201248,-1.293145775794983,1.0109710693359375,-1.3537670373916626,-0.0715857669711113,0.0,0.06533981114625931,-1.293145775794983,1.0109710693359375,-1.3537670373916626,-0.0715857669711113,0.003,0.0,0.0,0.0,0.0,0.0,0.0,-3.1,3.1,-1.571,1.571,-1.571,1.571,-1.745,1.745,-2.617,2.617,0.003,0.03,-0.05000000074505806,-0.02500000037252903,-0.02500000037252903,-0.02500000037252903,-0.05000000074505806,-0.0005000000237487257,0.05000000074505806,0.02500000037252903,0.02500000037252903,0.02500000037252903,0.05000000074505806,0.0005000000237487257,-0.028912844446213407,-0.9540733398587065,0.1700377735863811,0.14,0.0,0.26,0.005581842735409737,0.00036523648304864764,0.36413678526878357,0.0,0.002228692116976738,1.0697722161488343
0.0,33.0,-0.05,0.0,0.0,0.0,0.0,0.0,0.06533981114625931,-1.293145775794983,1.0109710693359375,-1.3537670373916626,-0.0715857669711113,0.0,0.015339810401201248,-1.293145775794983,1.0109710693359375,-1.3537670373916626,-0.0715857669711113,0.003,0.0,0.0,0.0,0.0,0.0,0.0,-3.1,3.1,-1.571,1.571,-1.571,1.571,-1.745,1.745,-2.617,2.617,0.003,0.03,-0.05000000074505806,-0.02500000037252903,-0.02500000037252903,-0.02500000037252903,-0.05000000074505806,-0.0005000000237487257,0.05000000074505806,0.02500000037252903,0.02500000037252903,0.02500000037252903,0.05000000074505806,0.0005000000237487257,-0.0289096865170674,-0.9829830263757738,0.17002848736922704,0.14,0.0,0.26,0.00559312105178833,8.580414578318596e-05,0.36413678526878357,0.0,-0.002228692116976738,-1.0697722161488343
0.0,34.0,0.05,0.0,0.0,0.0,0.0,0.0,0.015339810401201248,-1.293145775794983,1.0109710693359375,-1.3537670373916626,-0.0715857669711113,0.0,0.06533981114625931,-1.293145775794983,1.0109710693359375,-1.3537670373916626,-0.0715857669711113,0.003,0.0,0.0,0.0,0.0,0.0,0.0,-3.1,3.1,-1.571,1.571,-1.571,1.571,-1.745,1.745,-2.617,2.617,0.003,0.03,-0.05000000074505806,-0.02500000037252903,-0.02500000037252903,-0.02500000037252903,-0.05000000074505806,-0.0005000000237487257,0.05000000074505806,0.02500000037252903,0.02500000037252903,0.02500000037252903,0.05000000074505806,0.0005000000237487257,-0.028912844446213407,-1.0118958708219872,0.1700377735863811,0.14,0.0,0.26,0.005581842735409737,0.00036523648304864764,0.36413678526878357,0.0,0.002228692116976738,1.0697722161488343
0.0,35.0,-0.05,0.0,0.0,0.0,0.0,0.0,0.06533981114625931,-1.293145775794983,1.0109710693359375,-1.3537670373916626,-0.0715857669711113,0.0,0.015339810401201248,-1.293145775794983,1.0109710693359375,-1.3537670373916626,-0.0715857669711113,0.003,0.0,0.0,0.0,0.0,0.0,0.0,-3.1,3.1,-1.571,1.571,-1.571,1.571,-1.745,1.745,-2.617,2.617,0.003,0.03,-0.05000000074505806,-0.02500000037252903,-0.02500000037252903,-0.02500000037252903,-0.05000000074505806,-0.0005000000237487257,0.05000000074505806,0.02500000037252903,0.02500000037252903,0.02500000037252903,0.05000000074505806,0.0005000000237487257,-0.0289096865170674,-1.0408055573390547,0.17002848736922704,0.14,0.0,0.26,0.00559312105178833,8.580414578318596e-05,0.36413678526878357,0.0,-0.002228692116976738,-1.0697722161488343
0.0,36.0,0.05,0.0,0.0,0.0,0.0,0.0,0.015339810401201248,-1.293145775794983,1.0109710693359375,-1.3537670373916626,-0.0715857669711113,0.0,0.06533981114625931,-1.293145775794983,1.0109710693359375,-1.3537670373916626,-0.0715857669711113,0.003,0.0,0.0,0.0,0.0,0.0,0.0,-3.1,3.1,-1.571,1.571,-1.571,1.571,-1.745,1.745,-2.617,2.617,0.003,0.03,-0.05000000074505806,-0.02500000037252903,-0.02500000037252903,-0.02500000037252903,-0.05000000074505806,-0.0005000000237487257,0.05000000074505806,0.02500000037252903,0.02500000037252903,0.02500000037252903,0.05000000074505806,0.0005000000237487257,-0.028912844446213407,-1.0697184017852681,0.1700377735863811,0.14,0.0,0.26,0.005581842735409737,0.00036523648304864764,0.36413678526878357,0.0,0.002228692116976738,1.0697722161488343
0.0,37.0,-0.05,0.0,0.0,0.0,0.0,0.0,0.06533981114625931,-1.293145775794983,1.0109710693359375,-1.3537670373916626,-0.0715857669711113,0.0,0.015339810401201248,-1.293145775794983,1.0109710693359375,-1.3537670373916626,-0.0715857669711113,0.003,0.0,0.0,0.0,0.0,0.0,0.0,-3.1,3.1,-1.571,1.571,-1.571,1.571,-1.745,1.745,-2.617,2.617,0.003,0.03,-0.05000000074505806,-0.02500000037252903,-0.02500000037252903,-0.02500000037252903,-0.05000000074505806,-0.0005000000237487257,0.05000000074505806,0.02500000037252903,0.02500000037252903,0.02500000037252903,0.05000000074505806,0.0005000000237487257,-0.0289096865170674,-1.0986280883023356,0.17002848736922704,0.14,0.0,0.26,0.00559312105178833,8.580414578318596e-05,0.36413678526878357,0.0,-0.002228692116976738,-1.0697722161488343
0.0,38.0,0.05,0.0,0.0,0.0,0.0,0.0,0.015339810401201248,-1.293145775794983,1.0109710693359375,-1.3537670373916626,-0.0715857669711113,0.0,0.06533981114625931,-1.293145775794983,1.0109710693359375,-1.3537670373916626,-0.0715857669711113,0.003,0.0,0.0,0.0,0.0,0.0,0.0,-3.1,3.1,-1.571,1.571,-1.571,1.571,-1.745,1.745,-2.617,2.617,0.003,0.03,-0.05000000074505806,-0.02500000037252903,-0.02500000037252903,-0.02500000037252903,-0.05000000074505806,-0.0005000000237487257,0.05000000074505806,0.02500000037252903,0.02500000037252903,0.02500000037252903,0.05000000074505806,0.0005000000237487257,-0.028912844446213407,-1.127540932748549,0.1700377735863811,0.14,0.0,0.26,0.005581842735409737,0.00036523648304864764,0.36413678526878357,0.0,0.002228692116976738,1.0697722161488343
0.0,39.0,-0.05,0.0,0.0,0.0,0.0,0.0,0.06533981114625931,-1.293145775794983,1.0109710693359375,-1.3537670373916626,-0.0715857669711113,0.0,0.015339810401201248,-1.293145775794983,1.0109710693359375,-1.3537670373916626,-0.0715857669711113,0.003,0.0,0.0,0.0,0.0,0.0,0.0,-3.1,3.1,-1.571,1.571,-1.571,1.571,-1.745,1.745,-2.617,2.617,0.003,0.03,-0.05000000074505806,-0.02500000037252903,-0.02500000037252903,-0.02500000037252903,-0.05000000074505806,-0.0005000000237487257,0.05000000074505806,0.02500000037252903,0.02500000037252903,0.02500000037252903,0.05000000074505806,0.0005000000237487257,-0.0289096865170674,-1.1564506192656165,0.17002848736922704,0.14,0.0,0.26,0.00559312105178833,8.580414578318596e-05,0.36413678526878357,0.0,-0.002228692116976738,-1.0697722161488343
0.0,40.0,0.05,0.0,0.0,0.0,0.0,0.0,0.015339810401201248,-1.293145775794983,1.0109710693359375,-1.3537670373916626,-0.0715857669711113,0.0,0.06533981114625931,-1.293145775794983,1.0109710693359375,-1.3537670373916626,-0.0715857669711113,0.003,0.0,0.0,0.0,0.0,0.0,0.0,-3.1,3.1,-1.571,1.571,-1.571,1.571,-1.745,1.745,-2.617,2.617,0.003,0.03,-0.05000000074505806,-0.02500000037252903,-0.02500000037252903,-0.02500000037252903,-0.05000000074505806,-0.0005000000237487257,0.05000000074505806,0.02500000037252903,0.02500000037252903,0.02500000037252903,0.05000000074505806,0.0005000000237487257,-0.028912844446213407,-1.18536346371183,0.1700377735863811,0.14,0.0,0.26,0.005581842735409737,0.00036523648304864764,0.36413678526878357,0.0,0.002228692116976738,1.0697722161488343
0.0,41.0,-0.05,0.0,0.0,0.0,0.0,0.0,0.06533981114625931,-1.293145775794983,1.0109710693359375,-1.3537670373916626,-0.0715857669711113,0.0,0.015339810401201248,-1.293145775794983,1.0109710693359375,-1.3537670373916626,-0.0715857669711113,0.003,0.0,0.0,0.0,0.0,0.0,0.0,-3.1,3.1,-1.571,1.571,-1.571,1.571,-1.745,1.745,-2.617,2.617,0.003,0.03,-0.05000000074505806,-0.02500000037252903,-0.02500000037252903,-0.02500000037252903,-0.05000000074505806,-0.0005000000237487257,0.05000000074505806,0.02500000037252903,0.02500000037252903,0.02500000037252903,0.05000000074505806,0.0005000000237487257,-0.0289096865170674,-1.2142731502288975,0.17002848736922704,0.14,0.0,0.26,0.00559312105178833,8.580414578318596e-05,0.36413678526878357,0.0,-0.002228692116976738,-1.0697722161488343
0.0,42.0,0.05,0.0,0.0,0.0,0.0,0.0,0.015339810401201248,-1.293145775794983,1.0109710693359375,-1.3537670373916626,-0.0715857669711113,0.0,0.06533981114625931,-1.293145775794983,1.0109710693359375,-1.3537670373916626,-0.0715857669711113,0.003,0.0,0.0,0.0,0.0,0.0,0.0,-3.1,3.1,-1.571,1.571,-1.571,1.571,-1.745,1.745,-2.617,2.617,0.003,0.03,-0.05000000074505806,-0.02500000037252903,-0.02500000037252903,-0.02500000037252903,-0.05000000074505806,-0.0005000000237487257,0.05000000074505806,0.02500000037252903,0.02500000037252903,0.02500000037252903,0.05000000074505806,0.0005000000237487257,-0.028912844446213407,-1.243185994675111,0.1700377735863811,0.14,0.0,0.26,0.005581842735409737,0.00036523648304864764,0.36413678526878357,0.0,0.002228692116976738,1.0697722161488343
0.0,43.0,-0.05,0.0,0.0,0.0,0.0,0.0,0.06533981114625931,-1.293145775794983,1.0109710693359375,-1.3537670373916626,-0.0715857669711113,0.0,0.015339810401201248,-1.293145775794983,1.0109710693359375,-1.3537670373916626,-0.0715857669711113,0.003,0.0,0.0,0.0,0.0,0.0,0.0,-3.1,3.1,-1.571,1.571,-1.571,1.571,-1.745,1.745,-2.617,2.617,0.003,0.03,-0.05000000074505806,-0.02500000037252903,-0.02500000037252903,-0.02500000037252903,-0.05000000074505806,-0.0005000000237487257,0.05000000074505806,0.02500000037252903,0.02500000037252903,0.02500000037252903,0.05000000074505806,0.0005000000237487257,-0.0289096865170674,-1.2720956811921784,0.17002848736922704,0.14,0.0,0.26,0.00559312105178833,8.580414578318596e-05,0.36413678526878357,0.0,-0.002228692116976738,-1.0697722161488343
0.0,44.0,0.05,0.0,0.0,0.0,0.0,0.0,0.015339810401201248,-1.293145775794983,1.0109710693359375,-1.3537670373916626,-0.0715857669711113,0.0,0.06533981114625931,-1.293145775794983,1.0109710693359375,-1.3537670373916626,-0.0715857669711113,0.003,0.0,0.0,0.0,0.0,0.0,0.0,-3.1,3.1,-1.571,1.571,-1.571,1.571,-1.745,1.745,-2.617,2.617,0.003,0.03,-0.05000000074505806,-0.02500000037252903,-0.02500000037252903,-0.02500000037252903,-0.05000000074505806,-0.0005000000237487257,0.05000000074505806,0.02500000037252903,0.02500000037252903,0.02500000037252903,0.05000000074505806,0.0005000000237487257,-0.028912844446213407,-1.3010085256383919,0.1700377735863811,0.14,0.0,0.26,0.005581842735409737,0.00036523648304864764,0.36413678526878357,0.0,0.002228692116976738,1.0697722161488343
0.0,45.0,-0.05,0.0,0.0,0.0,0.0,0.0,0.06533981114625931,-1.293145775794983,1.0109710693359375,-1.3537670373916626,-0.0715857669711113,0.0,0.015339810401201248,-1.293145775794983,1.0109710693359375,-1.3537670373916626,-0.0715857669711113,0.003,0.0,0.0,0.0,0.0,0.0,0.0,-3.1,3.1,-1.571,1.571,-1.571,1.571,-1.745,1.745,-2.617,2.617,0.003,0.03,-0.05000000074505806,-0.02500000037252903,-0.02500000037252903,-0.02500000037252903,-0.05000000074505806,-0.0005000000237487257,0.05000000074505806,0.02500000037252903,0.02500000037252903,0.02500000037252903,0.05000000074505806,0.0005000000237487257,-0.0289096865170674,-1.3299182121554594,0.17002848736922704,0.14,0.0,0.26,0.00559312105178833,8.580414578318596e-05,0.36413678526878357,0.0,-0.002228692116976738,-1.0697722161488343
0.0,46.0,0.05,0.0,0.0,0.0,0.0,0.0,0.015339810401201248,-1.293145775794983,1.0109710693359375,-1.3537670373916626,-0.0715857669711113,0.0,0.06533981114625931,-1.293145775794983,1.0109710693359375,-1.3537670373916626,-0.0715857669711113,0.003,0.0,0.0,0.0,0.0,0.0,0.0,-3.1,3.1,-1.571,1.571,-1.571,1.571,-1.745,1.745,-2.617,2.617,0.003,0.03,-0.05000000074505806,-0.02500000037252903,-0.02500000037252903,-0.02500000037252903,-0.05000000074505806,-0.0005000000237487257,0.05000000074505806,0.02500000037252903,0.02500000037252903,0.02500000037252903,0.05000000074505806,0.0005000000237487257,-0.028912844446213407,-1.3588310566016728,0.1700377735863811,0.14,0.0,0.26,0.005581842735409737,0.00036523648304864764,0.36413678526878357,0.0,0.002228692116976738,1.0697722161488343
0.0,47.0,-0.05,0.0,0.0,0.0,0.0,0.0,0.06533981114625931,-1.293145775794983,1.0109710693359375,-1.3537670373916626,-0.0715857669711113,0.0,0.015339810401201248,-1.293145775794983,1.0109710693359375,-1.3537670373916626,-0.0715857669711113,0.003,0.0,0.0,0.0,0.0,0.0,0.0,-3.1,3.1,-1.571,1.571,-1.571,1.571,-1.745,1.745,-2.617,2.617,0.003,0.03,-0.05000000074505806,-0.02500000037252903,-0.02500000037252903,-0.02500000037252903,-0.05000000074505806,-0.0005000000237487257,0.05000000074505806,0.02500000037252903,0.02500000037252903,0.02500000037252903,0.05000000074505806,0.0005000000237487257,-0.0289096865170674,-1.3877407431187403,0.17002848736922704,0.14,0.0,0.26,0.00559312105178833,8.580414578318596e-05,0.36413678526878357,0.0,-0.002228692116976738,-1.0697722161488343
0.0,48.0,0.05,0.0,0.0,0.0,0.0,0.0,0.015339810401201248,-1.293145775794983,1.0109710693359375,-1.3537670373916626,-0.0715857669711113,0.0,0.06533981114625931,-1.293145775794983,1.0109710693359375,-1.3537670373916626,-0.0715857669711113,0.003,0.0,0.0,0.0,0.0,0.0,0.0,-3.1,3.1,-1.571,1.571,-1.571,1.571,-1.745,1.745,-2.617,2.617,0.003,0.03,-0.05000000074505806,-0.02500000037252903,-0.02500000037252903,-0.02500000037252903,-0.05000000074505806,-0.0005000000237487257,0.05000000074505806,0.02500000037252903,0.02500000037252903,0.02500000037252903,0.05000000074505806,0.0005000000237487257,-0.028912844446213407,-1.4166535875649537,0.1700377735863811,0.14,0.0,0.26,0.005581842735409737,0.00036523648304864764,0.36413678526878357,0.0,0.002228692116976738,1.0697722161488343
0.0,49.0,-0.05,0.0,0.0,0.0,0.0,0.0,0.06533981114625931,-1.293145775794983,1.0109710693359375,-1.3537670373916626,-0.0715857669711113,0.0,0.015339810401201248,-1.293145775794983,1.0109710693359375,-1.3537670373916626,-0.0715857669711113,0.003,0.0,0.0,0.0,0.0,0.0,0.0,-3.1,3.1,-1.571,1.571,-1.571,1.571,-1.745,1.745,-2.617,2.617,0.003,0.03,-0.05000000074505806,-0.02500000037252903,-0.02500000037252903,-0.02500000037252903,-0.05000000074505806,-0.0005000000237487257,0.05000000074505806,0.02500000037252903,0.02500000037252903,0.02500000037252903,0.05000000074505806,0.0005000000237487257,-0.0289096865170674,-1.4455632740820212,0.17002848736922704,0.14,0.0,0.26,0.00559312105178833,8.580414578318596e-05,0.36413678526878357,0.0,-0.002228692116976738,-1.0697722161488343
0.0,50.0,0.05,0.0,0.0,0.0,0.0,0.0,0.015339810401201248,-1.293145775794983,1.0109710693359375,-1.3537670373916626,-0.0715857669711113,0.0,0.06533981114625931,-1.293145775794983,1.0109710693359375,-1.3537670373916626,-0.0715857669711113,0.003,0.0,0.0,0.0,0.0,0.0,0.0,-3.1,3.1,-1.571,1.571,-1.571,1.571,-1.745,1.745,-2.617,2.617,0.003,0.03,-0.05000000074505806,-0.02500000037252903,-0.02500000037252903,-0.02500000037252903,-0.05000000074505806,-0.0005000000237487257,0.05000000074505806,0.02500000037252903,0.02500000037252903,0.02500000037252903,0.05000000074505806,0.0005000000237487257,-0.028912844446213407,-1.4744761185282347,0.1700377735863811,0.14,0.0,0.26,0.005581842735409737,0.00036523648304864764,0.36413678526878357,0.0,0.002228692116976738,1.0697722161488343
0.0,51.0,-0.05,0.0,0.0,0.0,0.0,0.0,0.06533981114625931,-1.293145775794983,1.0109710693359375,-1.3537670373916626,-0.0715857669711113,0.0,0.015339810401201248,-1.293145775794983,1.0109710693359375,-1.3537670373916626,-0.0715857669711113,0.003,0.0,0.0,0.0,0.0,0.0,0.0,-3.1,3.1,-1.571,1.571,-1.571,1.571,-1.745,1.745,-2.617,2.617,0.003,0.03,-0.05000000074505806,-0.02500000037252903,-0.02500000037252903,-0.02500000037252903,-0.05000000074505806,-0.0005000000237487257,0.05000000074505806,0.02500000037252903,0.02500000037252903,0.02500000037252903,0.05000000074505806,0.0005000000237487257,-0.0289096865170674,-1.5033858050453022,0.17002848736922704,0.14,0.0,0.26,0.00559312105178833,8.580414578318596e-05,0.36413678526878357,0.0,-0.002228692116976738,-1.0697722161488343
0.0,52.0,0.05,0.0,0.0,0.0,0.0,0.0,0.015339810401201248,-1.293145775794983,1.0109710693359375,-1.3537670373916626,-0.0715857669711113,0.0,0.06533981114625931,-1.293145775794983,1.0109710693359375,-1.3537670373916626,-0.0715857669711113,0.003,0.0,0.0,0.0,0.0,0.0,0.0,-3.1,3.1,-1.571,1.571,-1.571,1.571,-1.745,1.745,-2.617,2.617,0.003,0.03,-0.05000000074505806,-0.02500000037252903,-0.02500000037252903,-0.02500000037252903,-0.05000000074505806,-0.0005000000237487257,0.05000000074505806,0.02500000037252903,0.02500000037252903,0.02500000037252903,0.05000000074505806,0.0005000000237487257,-0.028912844446213407,-1.5322986494915156,0.1700377735863811,0.14,0.0,0.26,0.005581842735409737,0.00036523648304864764,0.36413678526878357,0.0,0.002228692116976738,1.0697722161488343
0.0,53.0,-0.05,0.0,0.0,0.0,0.0,0.0,0.06533981114625931,-1.293145775794983,1.0109710693359375,-1.3537670373916626,-0.0715857669711113,0.0,0.015339810401201248,-1.293145775794983,1.0109710693359375,-1.3537670373916626,-0.0715857669711113,0.003,0.0,0.0,0.0,0.0,0.0,0.0,-3.1,3.1,-1.571,1.571,-1.571,1.571,-1.745,1.745,-2.617,2.617,0.003,0.03,-0.05000000074505806,-0.02500000037252903,-0.02500000037252903,-0.02500000037252903,-0.05000000074505806,-0.0005000000237487257,0.05000000074505806,0.02500000037252903,0.02500000037252903,0.02500000037252903,0.05000000074505806,0.0005000000237487257,-0.0289096865170674,-1.561208336008583,0.17002848736922704,0.14,0.0,0.26,0.00559312105178833,8.580414578318596e-05,0.36413678526878357,0.0,-0.002228692116976738,-1.0697722161488343
0.0,54.0,0.05,0.0,0.0,0.0,0.0,0.0,0.015339810401201248,-1.293145775794983,1.0109710693359375,-1.3537670373916626,-0.0715857669711113,0.0,0.06533981114625931,-1.293145775794983,1.0109710693359375,-1.3537670373916626,-0.0715857669711113,0.003,0.0,0.0,0.0,0.0,0.0,0.0,-3.1,3.1,-1.571,1.571,-1.571,1.571,-1.745,1.745,-2.617,2.617,0.003,0.03,-0.05000000074505806,-0.02500000037252903,-0.02500000037252903,-0.02500000037252903,-0.05000000074505806,-0.0005000000237487257,0.05000000074505806,0.02500000037252903,0.02500000037252903,0.02500000037252903,0.05000000074505806,0.0005000000237487257,-0.028912844446213407,-1.5901211804547966,0.1700377735863811,0.14,0.0,0.26,0.005581842735409737,0.00036523648304864764,0.36413678526878357,0.0,0.002228692116976738,1.0697722161488343
0.0,55.0,-0.05,0.0,0.0,0.0,0.0,0.0,0.06533981114625931,-1.293145775794983,1.0109710693359375,-1.3537670373916626,-0.0715857669711113,0.0,0.015339810401201248,-1.293145775794983,1.0109710693359375,-1.3537670373916626,-0.0715857669711113,0.003,0.0,0.0,0.0,0.0,0.0,0.0,-3.1,3.1,-1.571,1.571,-1.571,1.571,-1.745,1.745,-2.617,2.617,0.003,0.03,-0.05000000074505806,-0.02500000037252903,-0.02500000037252903,-0.02500000037252903,-0.05000000074505806,-0.0005000000237487257,0.05000000074505806,0.02500000037252903,0.02500000037252903,0.02500000037252903,0.05000000074505806,0.0005000000237487257,-0.0289096865170674,-1.619030866971864,0.17002848736922704,0.14,0.0,0.26,0.00559312105178833,8.580414578318596e-05,0.36413678526878357,0.0,-0.002228692116976738,-1.0697722161488343
0.0,56.0,0.05,0.0,0.0,0.0,0.0,0.0,0.015339810401201248,-1.293145775794983,1.0109710693359375,-1.3537670373916626,-0.0715857669711113,0.0,0.06533981114625931,-1.293145775794983,1.0109710693359375,-1.3537670373916626,-0.0715857669711113,0.003,0.0,0.0,0.0,0.0,0.0,0.0,-3.1,3.1,-1.571,1.571,-1.571,1.571,-1.745,1.745,-2.617,2.617,0.003,0.03,-0.05000000074505806,-0.02500000037252903,-0.02500000037252903,-0.02500000037252903,-0.05000000074505806,-0.0005000000237487257,0.05000000074505806,0.02500000037252903,0.02500000037252903,0.02500000037252903,0.05000000074505806,0.0005000000237487257,-0.028912844446213407,-1.6479437114180775,0.1700377735863811,0.14,0.0,0.26,0.005581842735409737,0.00036523648304864764,0.36413678526878357,0.0,0.002228692116976738,1.0697722161488343
0.0,57.0,-0.05,0.0,0.0,0.0,0.0,0.0,0.06533981114625931,-1.293145775794983,1.0109710693359375,-1.3537670373916626,-0.0715857669711113,0.0,0.015339810401201248,-1.293145775794983,1.0109710693359375,-1.3537670373916626,-0.0715857669711113,0.003,0.0,0.0,0.0,0.0,0.0,0.0,-3.1,3.1,-1.571,1.571,-1.571,1.571,-1.745,1.745,-2.617,2.617,0.003,0.03,-0.05000000074505806,-0.02500000037252903,-0.02500000037252903,-0.02500000037252903,-0.05000000074505806,-0.0005000000237487257,0.05000000074505806,0.02500000037252903,0.02500000037252903,0.02500000037252903,0.05000000074505806,0.0005000000237487257,-0.0289096865170674,-1.676853397935145,0.17002848736922704,0.14,0.0,0.26,0.00559312105178833,8.580414578318596e-05,0.36413678526878357,0.0,-0.002228692116976738,-1.0697722161488343
0.0,58.0,0.05,0.0,0.0,0.0,0.0,0.0,0.015339810401201248,-1.293145775794983,1.0109710693359375,-1.3537670373916626,-0.0715857669711113,0.0,0.06533981114625931,-1.293145775794983,1.0109710693359375,-1.3537670373916626,-0.0715857669711113,0.003,0.0,0.0,0.0,0.0,0.0,0.0,-3.1,3.1,-1.571,1.571,-1.571,1.571,-1.745,1.745,-2.617,2.617,0.003,0.03,-0.05000000074505806,-0.02500000037252903,-0.02500000037252903,-0.02500000037252903,-0.05000000074505806,-0.0005000000237487257,0.05000000074505806,0.02500000037252903,0.02500000037252903,0.02500000037252903,0.05000000074505806,0.0005000000237487257,-0.028912844446213407,-1.7057662423813584,0.1700377735863811,0.14,0.0,0.26,0.005581842735409737,0.00036523648304864764,0.36413678526878357,0.0,0.002228692116976738,1.0697722161488343
0.0,59.0,-0.05,0.0,0.0,0.0,0.0,0.0,0.06533981114625931,-1.293145775794983,1.0109710693359375,-1.3537670373916626,-0.0715857669711113,0.0,0.015339810401201248,-1.293145775794983,1.0109710693359375,-1.3537670373916626,-0.0715857669711113,0.003,0.0,0.0,0.0,0.0,0.0,0.0,-3.1,3.1,-1.571,1.571,-1.571,1.571,-1.745,1.745,-2.617,2.617,0.003,0.03,-0.05000000074505806,-0.02500000037252903,-0.02500000037252903,-0.02500000037252903,-0.05000000074505806,-0.0005000000237487257,0.05000000074505806,0.02500000037252903,0.02500000037252903,0.02500000037252903,0.05000000074505806,0.0005000000237487257,-0.0289096865170674,-1.734675928898426,0.17002848736922704,0.14,0.0,0.26,0.00559312105178833,8.580414578318596e-05,0.36413678526878357,0.0,-0.002228692116976738,-1.0697722161488343
0.0,60.0,0.05,0.0,0.0,0.0,0.0,0.0,0.015339810401201248,-1.293145775794983,1.0109710693359375,-1.3537670373916626,-0.0715857669711113,0.0,0.06533981114625931,-1.293145775794983,1.0109710693359375,-1.3537670373916626,-0.0715857669711113,0.003,0.0,0.0,0.0,0.0,0.0,0.0,-3.1,3.1,-1.571,1.571,-1.571,1.571,-1.745,1.745,-2.617,2.617,0.003,0.03,-0.05000000074505806,-0.02500000037252903,-0.02500000037252903,-0.02500000037252903,-0.05000000074505806,-0.0005000000237487257,0.05000000074505806,0.02500000037252903,0.02500000037252903,0.02500000037252903,0.05000000074505806,0.0005000000237487257,-0.028912844446213407,-1.7635887733446394,0.1700377735863811,0.14,0.0,0.26,0.005581842735409737,0.00036523648304864764,0.36413678526878357,0.0,0.002228692116976738,1.0697722161488343
0.0,61.0,-0.05,0.0,0.0,0.0,0.0,0.0,0.06533981114625931,-1.293145775794983,1.0109710693359375,-1.3537670373916626,-0.0715857669711113,0.0,0.015339810401201248,-1.293145775794983,1.0109710693359375,-1.3537670373916626,-0.0715857669711113,0.003,0.0,0.0,0.0,0.0,0.0,0.0,-3.1,3.1,-1.571,1.571,-1.571,1.571,-1.745,1.745,-2.617,2.617,0.003,0.03,-0.05000000074505806,-0.02500000037252903,-0.02500000037252903,-0.02500000037252903,-0.05000000074505806,-0.0005000000237487257,0.05000000074505806,0.02500000037252903,0.02500000037252903,0.02500000037252903,0.05000000074505806,0.0005000000237487257,-0.0289096865170674,-1.7924984598617069,0.17002848736922704,0.14,0.0,0.26,0.00559312105178833,8.580414578318596e-05,0.36413678526878357,0.0,-0.002228692116976738,-1.0697722161488343
0.0,62.0,0.05,0.0,0.0,0.0,0.0,0.0,0.015339810401201248,-1.293145775794983,1.0109710693359375,-1.3537670373916626,-0.0715857669711113,0.0,0.06533981114625931,-1.293145775794983,1.0109710693359375,-1.3537670373916626,-0.0715857669711113,0.003,0.0,0.0,0.0,0.0,0.0,0.0,-3.1,3.1,-1.571,1.571,-1.571,1.571,-1.745,1.745,-2.617,2.617,0.003,0.03,-0.05000000074505806,-0.02500000037252903,-0.02500000037252903,-0.02500000037252903,-0.05000000074505806,-0.0005000000237487257,0.05000000074505806,0.02500000037252903,0.02500000037252903,0.02500000037252903,0.05000000074505806,0.0005000000237487257,-0.028912844446213407,-1.8214113043079203,0.1700377735863811,0.14,0.0,0.26,0.005581842735409737,0.00036523648304864764,0.36413678526878357,0.0,0.002228692116976738,1.0697722161488343
0.0,63.0,-0.05,0.0,0.0,0.0,0.0,0.0,0.06533981114625931,-1.293145775794983,1.0109710693359375,-1.3537670373916626,-0.0715857669711113,0.0,0.015339810401201248,-1.293145775794983,1.0109710693359375,-1.3537670373916626,-0.0715857669711113,0.003,0.0,0.0,0.0,0.0,0.0,0.0,-3.1,3.1,-1.571,1.571,-1.571,1.571,-1.745,1.745,-2.617,2.617,0.003,0.03,-0.05000000074505806,-0.02500000037252903,-0.02500000037252903,-0.02500000037252903,-0.05000000074505806,-0.0005000000237487257,0.05000000074505806,0.02500000037252903,0.02500000037252903,0.02500000037252903,0.05000000074505806,0.0005000000237487257,-0.0289096865170674,-1.8503209908249878,0.17002848736922704,0.14,0.0,0.26,0.00559312105178833,8.580414578318596e-05,0.36413678526878357,0.0,-0.002228692116976738,-1.0697722161488343
0.0,64.0,0.05,0.0,0.0,0.0,0.0,0.0,0.015339810401201248,-1.293145775794983,1.0109710693359375,-1.3537670373916626,-0.0715857669711113,0.0,0.06533981114625931,-1.293145775794983,1.0109710693359375,-1.3537670373916626,-0.0715857669711113,0.003,0.0,0.0,0.0,0.0,0.0,0.0,-3.1,3.1,-1.571,1.571,-1.571,1.571,-1.745,1.745,-2.617,2.617,0.003,0.03,-0.05000000074505806,-0.02500000037252903,-0.02500000037252903,-0.02500000037252903,-0.05000000074505806,-0.0005000000237487257,0.05000000074505806,0.02500000037252903,0.02500000037252903,0.02500000037252903,0.05000000074505806,0.0005000000237487257,-0.028912844446213407,-1.8792338352712012,0.1700377735863811,0.14,0.0,0.26,0.005581842735409737,0.00036523648304864764,0.36413678526878357,0.0,0.002228692116976738,1.0697722161488343
0.0,65.0,-0.05,0.0,0.0,0.0,0.0,0.0,0.06533981114625931,-1.293145775794983,1.0109710693359375,-1.3537670373916626,-0.0715857669711113,0.0,0.015339810401201248,-1.293145775794983,1.0109710693359375,-1.3537670373916626,-0.0715857669711113,0.003,0.0,0.0,0.0,0.0,0.0,0.0,-3.1,3.1,-1.571,1.571,-1.571,1.571,-1.745,1.745,-2.617,2.617,0.003,0.03,-0.05000000074505806,-0.02500000037252903,-0.02500000037252903,-0.02500000037252903,-0.05000000074505806,-0.0005000000237487257,0.05000000074505806,0.02500000037252903,0.02500000037252903,0.02500000037252903,0.05000000074505806,0.0005000000237487257,-0.0289096865170674,-1.9081435217882687,0.17002848736922704,0.14,0.0,0.26,0.00559312105178833,8.580414578318596e-05,0.36413678526878357,0.0,-0.002228692116976738,-1.0697722161488343
0.0,66.0,0.05,0.0,0.0,0.0,0.0,0.0,0.015339810401201248,-1.293145775794983,1.0109710693359375,-1.3537670373916626,-0.0715857669711113,0.0,0.06533981114625931,-1.293145775794983,1.0109710693359375,-1.3537670373916626,-0.0715857669711113,0.003,0.0,0.0,0.0,0.0,0.0,0.0,-3.1,3.1,-1.571,1.571,-1.571,1.571,-1.745,1.745,-2.617,2.617,0.003,0.03,-0.05000000074505806,-0.02500000037252903,-0.02500000037252903,-0.02500000037252903,-0.05000000074505806,-0.0005000000237487257,0.05000000074505806,0.02500000037252903,0.02500000037252903,0.02500000037252903,0.05000000074505806,0.0005000000237487257,-0.028912844446213407,-1.9370563662344822,0.1700377735863811,0.14,0.0,0.26,0.005581842735409737,0.00036523648304864764,0.36413678526878357,0.0,0.002228692116976738,1.0697722161488343
0.0,67.0,-0.05,0.0,0.0,0.0,0.0,0.0,0.06533981114625931,-1.293145775794983,1.0109710693359375,-1.3537670373916626,-0.0715857669711113,0.0,0.015339810401201248,-1.293145775794983,1.0109710693359375,-1.3537670373916626,-0.0715857669711113,0.003,0.0,0.0,0.0,0.0,0.0,0.0,-3.1,3.1,-1.571,1.571,-1.571,1.571,-1.745,1.745,-2.617,2.617,0.003,0.03,-0.05000000074505806,-0.02500000037252903,-0.02500000037252903,-0.02500000037252903,-0.05000000074505806,-0.0005000000237487257,0.05000000074505806,0.02500000037252903,0.02500000037252903,0.02500000037252903,0.05000000074505806,0.0005000000237487257,-0.0289096865170674,-1.9659660527515497,0.17002848736922704,0.14,0.0,0.26,0.00559312105178833,8.580414578318596e-05,0.36413678526878357,0.0,-0.002228692116976738,-1.0697722161488343
0.0,68.0,0.05,0.0,0.0,0.0,0.0,0.0,0.015339810401201248,-1.293145775794983,1.0109710693359375,-1.3537670373916626,-0.0715857669711113,0.0,0.06533981114625931,-1.293145775794983,1.0109710693359375,-1.3537670373916626,-0.0715857669711113,0.003,0.0,0.0,0.0,0.0,0.0,0.0,-3.1,3.1,-1.571,1.571,-1.571,1.571,-1.745,1.745,-2.617,2.617,0.003,0.03,-0.05000000074505806,-0.02500000037252903,-0.02500000037252903,-0.02500000037252903,-0.05000000074505806,-0.0005000000237487257,0.05000000074505806,0.02500000037252903,0.02500000037252903,0.02500000037252903,0.05000000074505806,0.0005000000237487257,-0.028912844446213407,-1.9948788971977631,0.1700377735863811,0.14,0.0,0.26,0.005581842735409737,0.00036523648304864764,0.36413678526878357,0.0,0.002228692116976738,1.0697722161488343
0.0,69.0,-0.05,0.0,0.0,0.0,0.0,0.0,0.06533981114625931,-1.293145775794983,1.0109710693359375,-1.3537670373916626,-0.0715857669711113,0.0,0.015339810401201248,-1.293145775794983,1.0109710693359375,-1.3537670373916626,-0.0715857669711113,0.003,0.0,0.0,0.0,0.0,0.0,0.0,-3.1,3.1,-1.571,1.571,-1.571,1.571,-1.745,1.745,-2.617,2.617,0.003,0.03,-0.05000000074505806,-0.02500000037252903,-0.02500000037252903,-0.02500000037252903,-0.05000000074505806,-0.0005000000237487257,0.05000000074505806,0.02500000037252903,0.02500000037252903,0.02500000037252903,0.05000000074505806,0.0005000000237487257,-0.0289096865170674,-2.0237885837148304,0.17002848736922704,0.14,0.0,0.26,0.00559312105178833,8.580414578318596e-05,0.36413678526878357,0.0,-0.002228692116976738,-1.0697722161488343
0.0,70.0,0.05,0.0,0.0,0.0,0.0,0.0,0.015339810401201248,-1.293145775794983,1.0109710693359375,-1.3537670373916626,-0.0715857669711113,0.0,0.06533981114625931,-1.293145775794983,1.0109710693359375,-1.3537670373916626,-0.0715857669711113,0.003,0.0,0.0,0.0,0.0,0.0,0.0,-3.1,3.1,-1.571,1.571,-1.571,1.571,-1.745,1.745,-2.617,2.617,0.003,0.03,-0.05000000074505806,-0.02500000037252903,-0.02500000037252903,-0.02500000037252903,-0.05000000074505806,-0.0005000000237487257,0.05000000074505806,0.02500000037252903,0.02500000037252903,0.02500000037252903,0.05000000074505806,0.0005000000237487257,-0.028912844446213407,-2.052701428161044,0.1700377735863811,0.14,0.0,0.26,0.005581842735409737,0.00036523648304864764,0.36413678526878357,0.0,0.002228692116976738,1.0697722161488343
0.0,71.0,-0.05,0.0,0.0,0.0,0.0,0.0,0.06533981114625931,-1.293145775794983,1.0109710693359375,-1.3537670373916626,-0.0715857669711113,0.0,0.015339810401201248,-1.293145775794983,1.0109710693359375,-1.3537670373916626,-0.0715857669711113,0.003,0.0,0.0,0.0,0.0,0.0,0.0,-3.1,3.1,-1.571,1.571,-1.571,1.571,-1.745,1.745,-2.617,2.617,0.003,0.03,-0.05000000074505806,-0.02500000037252903,-0.02500000037252903,-0.02500000037252903,-0.05000000074505806,-0.0005000000237487257,0.05000000074505806,0.02500000037252903,0.02500000037252903,0.02500000037252903,0.05000000074505806,0.0005000000237487257,-0.0289096865170674,-2.081611114678111,0.17002848736922704,0.14,0.0,0.26,0.00559312105178833,8.580414578318596e-05,0.36413678526878357,0.0,-0.002228692116976738,-1.0697722161488343
0.0,72.0,0.05,0.0,0.0,0.0,0.0,0.0,0.015339810401201248,-1.293145775794983,1.0109710693359375,-1.3537670373916626,-0.0715857669711113,0.0,0.06533981114625931,-1.293145775794983,1.0109710693359375,-1.3537670373916626,-0.0715857669711113,0.003,0.0,0.0,0.0,0.0,0.0,0.0,-3.1,3.1,-1.571,1.571,-1.571,1.571,-1.745,1.745,-2.617,2.617,0.003,0.03,-0.05000000074505806,-0.02500000037252903,-0.02500000037252903,-0.02500000037252903,-0.05000000074505806,-0.0005000000237487257,0.05000000074505806,0.02500000037252903,0.02500000037252903,0.02500000037252903,0.05000000074505806,0.0005000000237487257,-0.028912844446213407,-2.1105239591243246,0.1700377735863811,0.14,0.0,0.26,0.005581842735409737,0.00036523648304864764,0.36413678526878357,0.0,0.002228692116976738,1.0697722161488343
0.0,73.0,-0.05,0.0,0.0,0.0,0.0,0.0,0.06533981114625931,-1.293145775794983,1.0109710693359375,-1.3537670373916626,-0.0715857669711113,0.0,0.015339810401201248,-1.293145775794983,1.0109710693359375,-1.3537670373916626,-0.0715857669711113,0.003,0.0,0.0,0.0,0.0,0.0,0.0,-3.1,3.1,-1.571,1.571,-1.571,1.571,-1.745,1.745,-2.617,2.617,0.003,0.03,-0.05000000074505806,-0.02500000037252903,-0.02500000037252903,-0.02500000037252903,-0.05000000074505806,-0.0005000000237487257,0.05000000074505806,0.02500000037252903,0.02500000037252903,0.02500000037252903,0.05000000074505806,0.0005000000237487257,-0.0289096865170674,-2.139433645641392,0.17002848736922704,0.14,0.0,0.26,0.00559312105178833,8.580414578318596e-05,0.36413678526878357,0.0,-0.002228692116976738,-1.0697722161488343
0.0,74.0,0.05,0.0,0.0,0.0,0.0,0.0,0.015339810401201248,-1.293145775794983,1.0109710693359375,-1.3537670373916626,-0.0715857669711113,0.0,0.06533981114625931,-1.293145775794983,1.0109710693359375,-1.3537670373916626,-0.0715857669711113,0.003,0.0,0.0,0.0,0.0,0.0,0.0,-3.1,3.1,-1.571,1.571,-1.571,1.571,-1.745,1.745,-2.617,2.617,0.003,0.03,-0.05000000074505806,-0.02500000037252903,-0.02500000037252903,-0.02500000037252903,-0.05000000074505806,-0.0005000000237487257,0.05000000074505806,0.02500000037252903,0.02500000037252903,0.02500000037252903,0.05000000074505806,0.0005000000237487257,-0.028912844446213407,-2.1683464900876053,0.1700377735863811,0.14,0.0,0.26,0.005581842735409737,0.00036523648304864764,0.36413678526878357,0.0,0.002228692116976738,1.0697722161488343
0.0,75.0,-0.05,0.0,0.0,0.0,0.0,0.0,0.06533981114625931,-1.293145775794983,1.0109710693359375,-1.3537670373916626,-0.0715857669711113,0.0,0.015339810401201248,-1.293145775794983,1.0109710693359375,-1.3537670373916626,-0.0715857669711113,0.003,0.0,0.0,0.0,0.0,0.0,0.0,-3.1,3.1,-1.571,1.571,-1.571,1.571,-1.745,1.745,-2.617,2.617,0.003,0.03,-0.05000000074505806,-0.02500000037252903,-0.02500000037252903,-0.02500000037252903,-0.05000000074505806,-0.0005000000237487257,0.05000000074505806,0.02500000037252903,0.02500000037252903,0.02500000037252903,0.05000000074505806,0.0005000000237487257,-0.0289096865170674,-2.1972561766046725,0.17002848736922704,0.14,0.0,0.26,0.00559312105178833,8.580414578318596e-05,0.36413678526878357,0.0,-0.002228692116976738,-1.0697722161488343
0.0,76.0,0.05,0.0,0.0,0.0,0.0,0.0,0.015339810401201248,-1.293145775794983,1.0109710693359375,-1.3537670373916626,-0.0715857669711113,0.0,0.06533981114625931,-1.293145775794983,1.0109710693359375,-1.3537670373916626,-0.0715857669711113,0.003,0.0,0.0,0.0,0.0,0.0,0.0,-3.1,3.1,-1.571,1.571,-1.571,1.571,-1.745,1.745,-2.617,2.617,0.003,0.03,-0.05000000074505806,-0.02500000037252903,-0.02500000037252903,-0.02500000037252903,-0.05000000074505806,-0.0005000000237487257,0.05000000074505806,0.02500000037252903,0.02500000037252903,0.02500000037252903,0.05000000074505806,0.0005000000237487257,-0.028912844446213407,-2.226169021050886,0.1700377735863811,0.14,0.0,0.26,0.005581842735409737,0.00036523648304864764,0.36413678526878357,0.0,0.002228692116976738,1.0697722161488343
0.0,77.0,-0.05,0.0,0.0,0.0,0.0,0.0,0.06533981114625931,-1.293145775794983,1.0109710693359375,-1.3537670373916626,-0.0715857669711113,0.0,0.015339810401201248,-1.293145775794983,1.0109710693359375,-1.3537670373916626,-0.0715857669711113,0.003,0.0,0.0,0.0,0.0,0.0,0.0,-3.1,3.1,-1.571,1.571,-1.571,1.571,-1.745,1.745,-2.617,2.617,0.003,0.03,-0.05000000074505806,-0.02500000037252903,-0.02500000037252903,-0.02500000037252903,-0.05000000074505806,-0.0005000000237487257,0.05000000074505806,0.02500000037252903,0.02500000037252903,0.02500000037252903,0.05000000074505806,0.0005000000237487257,-0.0289096865170674,-2.2550787075679533,0.17002848736922704,0.14,0.0,0.26,0.00559312105178833,8.580414578318596e-05,0.36413678526878357,0.0,-0.002228692116976738,-1.0697722161488343
0.0,78.0,0.05,0.0,0.0,0.0,0.0,0.0,0.015339810401201248,-1.293145775794983,1.0109710693359375,-1.3537670373916626,-0.0715857669711113,0.0,0.06533981114625931,-1.293145775794983,1.0109710693359375,-1.3537670373916626,-0.0715857669711113,0.003,0.0,0.0,0.0,0.0,0.0,0.0,-3.1,3.1,-1.571,1.571,-1.571,1.571,-1.745,1.745,-2.617,2.617,0.003,0.03,-0.05000000074505806,-0.02500000037252903,-0.02500000037252903,-0.02500000037252903,-0.05000000074505806,-0.0005000000237487257,0.05000000074505806,0.02500000037252903,0.02500000037252903,0.02500000037252903,0.05000000074505806,0.0005000000237487257,-0.028912844446213407,-2.2839915520141667,0.1700377735863811,0.14,0.0,0.26,0.005581842735409737,0.00036523648304864764,0.36413678526878357,0.0,0.002228692116976738,1.0697722161488343
0.0,79.0,-0.05,0.0,0.0,0.0,0.0,0.0,0.06533981114625931,-1.293145775794983,1.0109710693359375,-1.3537670373916626,-0.0715857669711113,0.0,0.015339810401201248,-1.293145775794983,1.0109710693359375,-1.3537670373916626,-0.0715857669711113,0.003,0.0,0.0,0.0,0.0,0.0,0.0,-3.1,3.1,-1.571,1.571,-1.571,1.571,-1.745,1.745,-2.617,2.617,0.003,0.03,-0.05000000074505806,-0.02500000037252903,-0.02500000037252903,-0.02500000037252903,-0.05000000074505806,-0.0005000000237487257,0.05000000074505806,0.02500000037252903,0.02500000037252903,0.02500000037252903,0.05000000074505806,0.0005000000237487257,-0.0289096865170674,-2.312901238531234,0.17002848736922704,0.14,0.0,0.26,0.00559312105178833,8.580414578318596e-05,0.36413678526878357,0.0,-0.002228692116976738,-1.0697722161488343
0.0,80.0,0.05,0.0,0.0,0.0,0.0,0.0,0.015339810401201248,-1.293145775794983,1.0109710693359375,-1.3537670373916626,-0.0715857669711113,0.0,0.06533981114625931,-1.293145775794983,1.0109710693359375,-1.3537670373916626,-0.0715857669711113,0.003,0.0,0.0,0.0,0.0,0.0,0.0,-3.1,3.1,-1.571,1.571,-1.571,1.571,-1.745,1.745,-2.617,2.617,0.003,0.03,-0.05000000074505806,-0.02500000037252903,-0.02500000037252903,-0.02500000037252903,-0.05000000074505806,-0.0005000000237487257,0.05000000074505806,0.02500000037252903,0.02500000037252903,0.02500000037252903,0.05000000074505806,0.0005000000237487257,-0.028912844446213407,-2.3418140829774474,0.1700377735863811,0.14,0.0,0.26,0.005581842735409737,0.00036523648304864764,0.36413678526878357,0.0,0.002228692116976738,1.0697722161488343
0.0,81.0,-0.05,0.0,0.0,0.0,0.0,0.0,0.06533981114625931,-1.293145775794983,1.0109710693359375,-1.3537670373916626,-0.0715857669711113,0.0,0.015339810401201248,-1.293145775794983,1.0109710693359375,-1.3537670373916626,-0.0715857669711113,0.003,0.0,0.0,0.0,0.0,0.0,0.0,-3.1,3.1,-1.571,1.571,-1.571,1.571,-1.745,1.745,-2.617,2.617,0.003,0.03,-0.05000000074505806,-0.02500000037252903,-0.02500000037252903,-0.02500000037252903,-0.05000000074505806,-0.0005000000237487257,0.05000000074505806,0.02500000037252903,0.02500000037252903,0.02500000037252903,0.05000000074505806,0.0005000000237487257,-0.0289096865170674,-2.3707237694945147,0.17002848736922704,0.14,0.0,0.26,0.00559312105178833,8.580414578318596e-05,0.36413678526878357,0.0,-0.002228692116976738,-1.0697722161488343
0.0,82.0,0.05,0.0,0.0,0.0,0.0,0.0,0.015339810401201248,-1.293145775794983,1.0109710693359375,-1.3537670373916626,-0.0715857669711113,0.0,0.06533981114625931,-1.293145775794983,1.0109710693359375,-1.3537670373916626,-0.0715857669711113,0.003,0.0,0.0,0.0,0.0,0.0,0.0,-3.1,3.1,-1.571,1.571,-1.571,1.571,-1.745,1.745,-2.617,2.617,0.003,0.03,-0.05000000074505806,-0.02500000037252903,-0.02500000037252903,-0.02500000037252903,-0.05000000074505806,-0.0005000000237487257,0.05000000074505806,0.02500000037252903,0.02500000037252903,0.02500000037252903,0.05000000074505806,0.0005000000237487257,-0.028912844446213407,-2.399636613940728,0.1700377735863811,0.14,0.0,0.26,0.005581842735409737,0.00036523648304864764,0.36413678526878357,0.0,0.002228692116976738,1.0697722161488343
0.0,83.0,-0.05,0.0,0.0,0.0,0.0,0.0,0.06533981114625931,-1.293145775794983,1.0109710693359375,-1.3537670373916626,-0.0715857669711113,0.0,0.015339810401201248,-1.293145775794983,1.0109710693359375,-1.3537670373916626,-0.0715857669711113,0.003,0.0,0.0,0.0,0.0,0.0,0.0,-3.1,3.1,-1.571,1.571,-1.571,1.571,-1.745,1.745,-2.617,2.617,0.003,0.03,-0.05000000074505806,-0.02500000037252903,-0.02500000037252903,-0.02500000037252903,-0.05000000074505806,-0.0005000000237487257,0.05000000074505806,0.02500000037252903,0.02500000037252903,0.02500000037252903,0.05000000074505806,0.0005000000237487257,-0.0289096865170674,-2.4285463004577954,0.17002848736922704,0.14,0.0,0.26,0.00559312105178833,8.580414578318596e-05,0.36413678526878357,0.0,-0.002228692116976738,-1.0697722161488343
0.0,84.0,0.05,0.0,0.0,0.0,0.0,0.0,0.015339810401201248,-1.293145775794983,1.0109710693359375,-1.3537670373916626,-0.0715857669711113,0.0,0.06533981114625931,-1.293145775794983,1.0109710693359375,-1.3537670373916626,-0.0715857669711113,0.003,0.0,0.0,0.0,0.0,0.0,0.0,-3.1,3.1,-1.571,1.571,-1.571,1.571,-1.745,1.745,-2.617,2.617,0.003,0.03,-0.05000000074505806,-0.02500000037252903,-0.02500000037252903,-0.02500000037252903,-0.05000000074505806,-0.0005000000237487257,0.05000000074505806,0.02500000037252903,0.02500000037252903,0.02500000037252903,0.05000000074505806,0.0005000000237487257,-0.028912844446213407,-2.457459144904009,0.1700377735863811,0.14,0.0,0.26,0.005581842735409737,0.00036523648304864764,0.36413678526878357,0.0,0.002228692116976738,1.0697722161488343
0.0,85.0,-0.05,0.0,0.0,0.0,0.0,0.0,0.06533981114625931,-1.293145775794983,1.0109710693359375,-1.3537670373916626,-0.0715857669711113,0.0,0.015339810401201248,-1.293145775794983,1.0109710693359375,-1.3537670373916626,-0.0715857669711113,0.003,0.0,0.0,0.0,0.0,0.0,0.0,-3.1,3.1,-1.571,1.571,-1.571,1.571,-1.745,1.745,-2.617,2.617,0.003,0.03,-0.05000000074505806,-0.02500000037252903,-0.02500000037252903,-0.02500000037252903,-0.05000000074505806,-0.0005000000237487257,0.05000000074505806,0.02500000037252903,0.02500000037252903,0.02500000037252903,0.05000000074505806,0.0005000000237487257,-0.0289096865170674,-2.486368831421076,0.17002848736922704,0.14,0.0,0.26,0.00559312105178833,8.580414578318596e-05,0.36413678526878357,0.0,-0.002228692116976738,-1.0697722161488343
0.0,86.0,0.05,0.0,0.0,0.0,0.0,0.0,0.015339810401201248,-1.293145775794983,1.0109710693359375,-1.3537670373916626,-0.0715857669711113,0.0,0.06533981114625931,-1.293145775794983,1.0109710693359375,-1.3537670373916626,-0.0715857669711113,0.003,0.0,0.0,0.0,0.0,0.0,0.0,-3.1,3.1,-1.571,1.571,-1.571,1.571,-1.745,1.745,-2.617,2.617,0.003,0.03,-0.05000000074505806,-0.02500000037252903,-0.02500000037252903,-0.02500000037252903,-0.05000000074505806,-0.0005000000237487257,0.05000000074505806,0.02500000037252903,0.02500000037252903,0.02500000037252903,0.05000000074505806,0.0005000000237487257,-0.028912844446213407,-2.5152816758672896,0.1700377735863811,0.14,0.0,0.26,0.005581842735409737,0.00036523648304864764,0.36413678526878357,0.0,0.002228692116976738,1.0697722161488343
0.0,87.0,-0.05,0.0,0.0,0.0,0.0,0.0,0.06533981114625931,-1.293145775794983,1.0109710693359375,-1.3537670373916626,-0.0715857669711113,0.0,0.015339810401201248,-1.293145775794983,1.0109710693359375,-1.3537670373916626,-0.0715857669711113,0.003,0.0,0.0,0.0,0.0,0.0,0.0,-3.1,3.1,-1.571,1.571,-1.571,1.571,-1.745,1.745,-2.617,2.617,0.003,0.03,-0.05000000074505806,-0.02500000037252903,-0.02500000037252903,-0.02500000037252903,-0.05000000074505806,-0.0005000000237487257,0.05000000074505806,0.02500000037252903,0.02500000037252903,0.02500000037252903,0.05000000074505806,0.0005000000237487257,-0.0289096865170674,-2.544191362384357,0.17002848736922704,0.14,0.0,0.26,0.00559312105178833,8.580414578318596e-05,0.36413678526878357,0.0,-0.002228692116976738,-1.0697722161488343
0.0,88.0,0.05,0.0,0.0,0.0,0.0,0.0,0.015339810401201248,-1.293145775794983,1.0109710693359375,-1.3537670373916626,-0.0715857669711113,0.0,0.06533981114625931,-1.293145775794983,1.0109710693359375,-1.3537670373916626,-0.0715857669711113,0.003,0.0,0.0,0.0,0.0,0.0,0.0,-3.1,3.1,-1.571,1.571,-1.571,1.571,-1.745,1.745,-2.617,2.617,0.003,0.03,-0.05000000074505806,-0.02500000037252903,-0.02500000037252903,-0.02500000037252903,-0.05000000074505806,-0.0005000000237487257,0.05000000074505806,0.02500000037252903,0.02500000037252903,0.02500000037252903,0.05000000074505806,0.0005000000237487257,-0.028912844446213407,-2.5731042068305703,0.1700377735863811,0.14,0.0,0.26,0.005581842735409737,0.00036523648304864764,0.36413678526878357,0.0,0.002228692116976738,1.0697722161488343
0.0,89.0,-0.05,0.0,0.0,0.0,0.0,0.0,0.06533981114625931,-1.293145775794983,1.0109710693359375,-1.3537670373916626,-0.0715857669711113,0.0,0.015339810401201248,-1.293145775794983,1.0109710693359375,-1.3537670373916626,-0.0715857669711113,0.003,0.0,0.0,0.0,0.0,0.0,0.0,-3.1,3.1,-1.571,1.571,-1.571,1.571,-1.745,1.745,-2.617,2.617,0.003,0.03,-0.05000000074505806,-0.02500000037252903,-0.02500000037252903,-0.02500000037252903,-0.05000000074505806,-0.0005000000237487257,0.05000000074505806,0.02500000037252903,0.02500000037252903,0.02500000037252903,0.05000000074505806,0.0005000000237487257,-0.0289096865170674,-2.6020138933476376,0.17002848736922704,0.14,0.0,0.26,0.00559312105178833,8.580414578318596e-05,0.36413678526878357,0.0,-0.002228692116976738,-1.0697722161488343
0.0,90.0,0.05,0.0,0.0,0.0,0.0,0.0,0.015339810401201248,-1.293145775794983,1.0109710693359375,-1.3537670373916626,-0.0715857669711113,0.0,0.06533981114625931,-1.293145775794983,1.0109710693359375,-1.3537670373916626,-0.0715857669711113,0.003,0.0,0.0,0.0,0.0,0.0,0.0,-3.1,3.1,-1.571,1.571,-1.571,1.571,-1.745,1.745,-2.617,2.617,0.003,0.03,-0.05000000074505806,-0.02500000037252903,-0.02500000037252903,-0.02500000037252903,-0.05000000074505806,-0.0005000000237487257,0.05000000074505806,0.02500000037252903,0.02500000037252903,0.02500000037252903,0.05000000074505806,0.0005000000237487257,-0.028912844446213407,-2.630926737793851,0.1700377735863811,0.14,0.0,0.26,0.005581842735409737,0.00036523648304864764,0.36413678526878357,0.0,0.002228692116976738,1.0697722161488343
0.0,91.0,-0.05,0.0,0.0,0.0,0.0,0.0,0.06533981114625931,-1.293145775794983,1.0109710693359375,-1.3537670373916626,-0.0715857669711113,0.0,0.015339810401201248,-1.293145775794983,1.0109710693359375,-1.3537670373916626,-0.0715857669711113,0.003,0.0,0.0,0.0,0.0,0.0,0.0,-3.1,3.1,-1.571,1.571,-1.571,1.571,-1.745,1.745,-2.617,2.617,0.003,0.03,-0.05000000074505806,-0.02500000037252903,-0.02500000037252903,-0.02500000037252903,-0.05000000074505806,-0.0005000000237487257,0.05000000074505806,0.02500000037252903,0.02500000037252903,0.02500000037252903,0.05000000074505806,0.0005000000237487257,-0.0289096865170674,-2.6598364243109183,0.17002848736922704,0.14,0.0,0.26,0.00559312105178833,8.580414578318596e-05,0.36413678526878357,0.0,-0.002228692116976738,-1.0697722161488343
0.0,92.0,0.05,0.0,0.0,0.0,0.0,0.0,0.015339810401201248,-1.293145775794983,1.0109710693359375,-1.3537670373916626,-0.0715857669711113,0.0,0.06533981114625931,-1.293145775794983,1.0109710693359375,-1.3537670373916626,-0.0715857669711113,0.003,0.0,0.0,0.0,0.0,0.0,0.0,-3.1,3.1,-1.571,1.571,-1.571,1.571,-1.745,1.745,-2.617,2.617,0.003,0.03,-0.05000000074505806,-0.02500000037252903,-0.02500000037252903,-0.02500000037252903,-0.05000000074505806,-0.0005000000237487257,0.05000000074505806,0.02500000037252903,0.02500000037252903,0.02500000037252903,0.05000000074505806,0.0005000000237487257,-0.028912844446213407,-2.6887492687571317,0.1700377735863811,0.14,0.0,0.26,0.005581842735409737,0.00036523648304864764,0.36413678526878357,0.0,0.002228692116976738,1.0697722161488343
0.0,93.0,-0.05,0.0,0.0,0.0,0.0,0.0,0.06533981114625931,-1.293145775794983,1.0109710693359375,-1.3537670373916626,-0.0715857669711113,0.0,0.015339810401201248,-1.293145775794983,1.0109710693359375,-1.3537670373916626,-0.0715857669711113,0.003,0.0,0.0,0.0,0.0,0.0,0.0,-3.1,3.1,-1.571,1.571,-1.571,1.571,-1.745,1.745,-2.617,2.617,0.003,0.03,-0.05000000074505806,-0.02500000037252903,-0.02500000037252903,-0.02500000037252903,-0.05000000074505806,-0.0005000000237487257,0.05000000074505806,0.02500000037252903,0.02500000037252903,0.02500000037252903,0.05000000074505806,0.0005000000237487257,-0.0289096865170674,-2.717658955274199,0.17002848736922704,0.14,0.0,0.26,0.00559312105178833,8.580414578318596e-05,0.36413678526878357,0.0,-0.002228692116976738,-1.0697722161488343
0.0,94.0,0.05,0.0,0.0,0.0,0.0,0.0,0.015339810401201248,-1.293145775794983,1.0109710693359375,-1.3537670373916626,-0.0715857669711113,0.0,0.06533981114625931,-1.293145775794983,1.0109710693359375,-1.3537670373916626,-0.0715857669711113,0.003,0.0,0.0,0.0,0.0,0.0,0.0,-3.1,3.1,-1.571,1.571,-1.571,1.571,-1.745,1.745,-2.617,2.617,0.003,0.03,-0.05000000074505806,-0.02500000037252903,-0.02500000037252903,-0.02500000037252903,-0.05000000074505806,-0.0005000000237487257,0.05000000074505806,0.02500000037252903,0.02500000037252903,0.02500000037252903,0.05000000074505806,0.0005000000237487257,-0.028912844446213407,-2.7465717997204124,0.1700377735863811,0.14,0.0,0.26,0.005581842735409737,0.00036523648304864764,0.36413678526878357,0.0,0.002228692116976738,1.0697722161488343
0.0,95.0,-0.05,0.0,0.0,0.0,0.0,0.0,0.06533981114625931,-1.293145775794983,1.0109710693359375,-1.3537670373916626,-0.0715857669711113,0.0,0.015339810401201248,-1.293145775794983,1.0109710693359375,-1.3537670373916626,-0.0715857669711113,0.003,0.0,0.0,0.0,0.0,0.0,0.0,-3.1,3.1,-1.571,1.571,-1.571,1.571,-1.745,1.745,-2.617,2.617,0.003,0.03,-0.05000000074505806,-0.02500000037252903,-0.02500000037252903,-0.02500000037252903,-0.05000000074505806,-0.0005000000237487257,0.05000000074505806,0.02500000037252903,0.02500000037252903,0.02500000037252903,0.05000000074505806,0.0005000000237487257,-0.0289096865170674,-2.7754814862374797,0.17002848736922704,0.14,0.0,0.26,0.00559312105178833,8.580414578318596e-05,0.36413678526878357,0.0,-0.002228692116976738,-1.0697722161488343
0.0,96.0,0.05,0.0,0.0,0.0,0.0,0.0,0.015339810401201248,-1.293145775794983,1.0109710693359375,-1.3537670373916626,-0.0715857669711113,0.0,0.06533981114625931,-1.293145775794983,1.0109710693359375,-1.3537670373916626,-0.0715857669711113,0.003,0.0,0.0,0.0,0.0,0.0,0.0,-3.1,3.1,-1.571,1.571,-1.571,1.571,-1.745,1.745,-2.617,2.617,0.003,0.03,-0.05000000074505806,-0.02500000037252903,-0.02500000037252903,-0.02500000037252903,-0.05000000074505806,-0.0005000000237487257,0.05000000074505806,0.02500000037252903,0.02500000037252903,0.02500000037252903,0.05000000074505806,0.0005000000237487257,-0.028912844446213407,-2.804394330683693,0.1700377735863811,0.14,0.0,0.26,0.005581842735409737,0.00036523648304864764,0.36413678526878357,0.0,0.002228692116976738,1.0697722161488343
0.0,97.0,-0.05,0.0,0.0,0.0,0.0,0.0,0.06533981114625931,-1.293145775794983,1.0109710693359375,-1.3537670373916626,-0.0715857669711113,0.0,0.015339810401201248,-1.293145775794983,1.0109710693359375,-1.3537670373916626,-0.0715857669711113,0.003,0.0,0.0,0.0,0.0,0.0,0.0,-3.1,3.1,-1.571,1.571,-1.571,1.571,-1.745,1.745,-2.617,2.617,0.003,0.03,-0.05000000074505806,-0.02500000037252903,-0.02500000037252903,-0.02500000037252903,-0.05000000074505806,-0.0005000000237487257,0.05000000074505806,0.02500000037252903,0.02500000037252903,0.02500000037252903,0.05000000074505806,0.0005000000237487257,-0.0289096865170674,-2.8333040172007604,0.17002848736922704,0.14,0.0,0.26,0.00559312105178833,8.580414578318596e-05,0.36413678526878357,0.0,-0.002228692116976738,-1.0697722161488343
0.0,98.0,0.05,0.0,0.0,0.0,0.0,0.0,0.015339810401201248,-1.293145775794983,1.0109710693359375,-1.3537670373916626,-0.0715857669711113,0.0,0.06533981114625931,-1.293145775794983,1.0109710693359375,-1.3537670373916626,-0.0715857669711113,0.003,0.0,0.0,0.0,0.0,0.0,0.0,-3.1,3.1,-1.571,1.571,-1.571,1.571,-1.745,1.745,-2.617,2.617,0.003,0.03,-0.05000000074505806,-0.02500000037252903,-0.02500000037252903,-0.02500000037252903,-0.05000000074505806,-0.0005000000237487257,0.05000000074505806,0.02500000037252903,0.02500000037252903,0.02500000037252903,0.05000000074505806,0.0005000000237487257,-0.028912844446213407,-2.862216861646974,0.1700377735863811,0.14,0.0,0.26,0.005581842735409737,0.00036523648304864764,0.36413678526878357,0.0,0.002228692116976738,1.0697722161488343
0.0,99.0,-0.05,0.0,0.0,0.0,0.0,0.0,0.06533981114625931,-1.293145775794983,1.0109710693359375,-1.3537670373916626,-0.0715857669711113,0.0,0.015339810401201248,-1.293145775794983,1.0109710693359375,-1.3537670373916626,-0.0715857669711113,0.003,0.0,0.0,0.0,0.0,0.0,0.0,-3.1,3.1,-1.571,1.571,-1.571,1.571,-1.745,1.745,-2.617,2.617,0.003,0.03,-0.05000000074505806,-0.02500000037252903,-0.02500000037252903,-0.02500000037252903,-0.05000000074505806,-0.0005000000237487257,0.05000000074505806,0.02500000037252903,0.02500000037252903,0.02500000037252903,0.05000000074505806,0.0005000000237487257,-0.0289096865170674,-2.891126548164041,0.17002848736922704,0.14,0.0,0.26,0.00559312105178833,8.580414578318596e-05,0.36413678526878357,1.0,-0.002228692116976738,-1.0697722161488343
