PierreExeter/WidowX-reacher/tests/Check_env_consistency/logs/3_actionRand.csv
episode,timestep,action_1,action_2,action_3,action_4,action_5,action_6,current_joint_pos_1,current_joint_pos_2,current_joint_pos_3,current_joint_pos_4,current_joint_pos_5,current_joint_pos_6,new_joint_pos_1,new_joint_pos_2,new_joint_pos_3,new_joint_pos_4,new_joint_pos_5,new_joint_pos_6,joint_vel_1,joint_vel_2,joint_vel_3,joint_vel_4,joint_vel_5,joint_vel_6,joint1_min,joint1_max,joint2_min,joint2_max,joint3_min,joint3_max,joint4_min,joint4_max,joint5_min,joint5_max,joint6_min,joint6_max,action_low1,action_low2,action_low3,action_low4,action_low5,action_low6,action_high1,action_high2,action_high3,action_high4,action_high5,action_high6,reward,return,dist,target_x,target_y,target_z,tip_x,tip_y,tip_z,done,est_vel
0.0,0.0,-0.036671899259090424,-0.012658783234655857,0.013200185261666775,-0.010766958817839622,-0.014917241409420967,0.0001239224657183513,0.015339807607233524,-1.293145775794983,1.0109710693359375,-1.3537670373916626,-0.0715857669711113,0.0,-0.021332092583179474,-1.3058046102523804,1.024171233177185,-1.3645340204238892,-0.08650300651788712,0.003,0.0,0.0,0.0,0.0,0.0,0.0,-3.1,3.1,-1.571,1.571,-1.571,1.571,-1.745,1.745,-2.617,2.617,0.003,0.03,-0.05000000074505806,-0.02500000037252903,-0.02500000037252903,-0.02500000037252903,-0.05000000074505806,-0.0005000000237487257,0.05000000074505806,0.02500000037252903,0.02500000037252903,0.02500000037252903,0.05000000074505806,0.0005000000237487257,-0.029154351719028252,-0.029154351719028252,0.1707464544845024,0.14,0.0,0.26,0.0033761635422706604,-7.20315583748743e-05,0.3624122738838196,0.0,
0.0,1.0,-0.015442395582795143,-0.012930951081216335,-0.00258604995906353,0.020480267703533173,0.012646086513996124,-0.00038848191616125405,-0.021332092583179474,-1.3058046102523804,1.024171233177185,-1.3645340204238892,-0.08650300651788712,0.0,-0.03677448630332947,-1.3187355995178223,1.02158522605896,-1.3440537452697754,-0.07385692000389099,0.003,0.0,0.0,0.0,0.0,0.0,0.0,-3.1,3.1,-1.571,1.571,-1.571,1.571,-1.745,1.745,-2.617,2.617,0.003,0.03,-0.05000000074505806,-0.02500000037252903,-0.02500000037252903,-0.02500000037252903,-0.05000000074505806,-0.0005000000237487257,0.05000000074505806,0.02500000037252903,0.02500000037252903,0.02500000037252903,0.05000000074505806,0.0005000000237487257,-0.029576337169075744,-0.058730688888103996,0.17197772288606378,0.14,0.0,0.26,0.0022405751515179873,-8.24331582407467e-05,0.36294984817504883,0.0,0.29550441637473
0.0,2.0,-0.04565516486763954,-0.00855341088026762,-0.01125036459416151,0.024498816579580307,-0.02830316871404648,-0.00048188818618655205,-0.03677448630332947,-1.3187355995178223,1.02158522605896,-1.3440537452697754,-0.07385692000389099,0.0,-0.08242964744567871,-1.3272889852523804,1.010334849357605,-1.3195549249649048,-0.10216008871793747,0.003,0.0,0.0,0.0,0.0,0.0,0.0,-3.1,3.1,-1.571,1.571,-1.571,1.571,-1.745,1.745,-2.617,2.617,0.003,0.03,-0.05000000074505806,-0.02500000037252903,-0.02500000037252903,-0.02500000037252903,-0.05000000074505806,-0.0005000000237487257,0.05000000074505806,0.02500000037252903,0.02500000037252903,0.02500000037252903,0.05000000074505806,0.0005000000237487257,-0.030197495551267273,-0.08892818443937127,0.17377426607891996,0.14,0.0,0.26,0.0012260786024853587,-0.00010129475413123146,0.3645910322666168,0.0,0.4311703662854849
0.0,3.0,-0.02940978854894638,0.02065337635576725,-0.016317661851644516,0.005230197217315435,0.028446795418858528,2.578044768597465e-05,-0.08242964744567871,-1.3272889852523804,1.010334849357605,-1.3195549249649048,-0.10216008871793747,0.0,-0.11183943599462509,-1.3066356182098389,0.9940171837806702,-1.3143247365951538,-0.07371329516172409,0.003,0.0,0.0,0.0,0.0,0.0,0.0,-3.1,3.1,-1.571,1.571,-1.571,1.571,-1.745,1.745,-2.617,2.617,0.003,0.03,-0.05000000074505806,-0.02500000037252903,-0.02500000037252903,-0.02500000037252903,-0.05000000074505806,-0.0005000000237487257,0.05000000074505806,0.02500000037252903,0.02500000037252903,0.02500000037252903,0.05000000074505806,0.0005000000237487257,-0.02982147058083124,-0.11874965502020252,0.1726889416865806,0.14,0.0,0.26,0.004189026542007923,-0.0004704614984802902,0.36666128039360046,0.0,-0.260477854161445
0.0,4.0,-0.011569219641387463,-0.019182628020644188,-0.01961553283035755,0.0003997088351752609,0.03591402620077133,0.0001901327195810154,-0.11183943599462509,-1.3066356182098389,0.9940171837806702,-1.3143247365951538,-0.07371329516172409,0.0,-0.12340865284204483,-1.3258183002471924,0.9744016528129578,-1.31392502784729,-0.03779926896095276,0.003,0.0,0.0,0.0,0.0,0.0,0.0,-3.1,3.1,-1.571,1.571,-1.571,1.571,-1.745,1.745,-2.617,2.617,0.003,0.03,-0.05000000074505806,-0.02500000037252903,-0.02500000037252903,-0.02500000037252903,-0.05000000074505806,-0.0005000000237487257,0.05000000074505806,0.02500000037252903,0.02500000037252903,0.02500000037252903,0.05000000074505806,0.0005000000237487257,-0.03250868182815436,-0.15125833684835688,0.18030164122423945,0.14,0.0,0.26,-0.0035194186493754387,0.0004365451168268919,0.3691360056400299,0.0,1.8270478890381203
0.0,5.0,0.003369297366589308,0.024374138563871384,0.016605276614427567,0.0005991676589474082,0.033424727618694305,-0.00046842481242492795,-0.12340865284204483,-1.3258183002471924,0.9744016528129578,-1.31392502784729,-0.03779926896095276,0.0,-0.12003935873508453,-1.301444172859192,0.9910069108009338,-1.3133258819580078,-0.004374541342258453,0.003,0.0,0.0,0.0,0.0,0.0,0.0,-3.1,3.1,-1.571,1.571,-1.571,1.571,-1.745,1.745,-2.617,2.617,0.003,0.03,-0.05000000074505806,-0.02500000037252903,-0.02500000037252903,-0.02500000037252903,-0.05000000074505806,-0.0005000000237487257,0.05000000074505806,0.02500000037252903,0.02500000037252903,0.02500000037252903,0.05000000074505806,0.0005000000237487257,-0.029661378677844713,-0.1809197155262016,0.17222479112440436,0.14,0.0,0.26,0.005073110572993755,-0.0006119149038568139,0.3670314848423004,0.0,-1.9384440239604195
0.0,6.0,-0.02744634822010994,-0.02218959853053093,0.0073205213993787766,-0.017545035108923912,0.007086534984409809,-0.00012038069689879194,-0.12003935873508453,-1.301444172859192,0.9910069108009338,-1.3133258819580078,-0.004374541342258453,0.0,-0.14748570322990417,-1.3236337900161743,0.9983274340629578,-1.3308708667755127,0.0027119936421513557,0.003,0.0,0.0,0.0,0.0,0.0,0.0,-3.1,3.1,-1.571,1.571,-1.571,1.571,-1.745,1.745,-2.617,2.617,0.003,0.03,-0.05000000074505806,-0.02500000037252903,-0.02500000037252903,-0.02500000037252903,-0.05000000074505806,-0.0005000000237487257,0.05000000074505806,0.02500000037252903,0.02500000037252903,0.02500000037252903,0.05000000074505806,0.0005000000237487257,-0.031141364575302935,-0.21206108010150454,0.17646916040856242,0.14,0.0,0.26,-0.0010806858772411942,0.00016055151354521513,0.3660074472427368,0.0,1.0186486281979334
0.0,7.0,0.04925234988331795,-0.0046510761603713036,-0.02458241581916809,-0.013376399874687195,-0.0008224404300563037,0.00024634384317323565,-0.14748570322990417,-1.3236337900161743,0.9983274340629578,-1.3308708667755127,0.0027119936421513557,0.0,-0.09823335707187653,-1.3282848596572876,0.9737449884414673,-1.3442472219467163,0.001889553153887391,0.003,0.0,0.0,0.0,0.0,0.0,0.0,-3.1,3.1,-1.571,1.571,-1.571,1.571,-1.745,1.745,-2.617,2.617,0.003,0.03,-0.05000000074505806,-0.02500000037252903,-0.02500000037252903,-0.02500000037252903,-0.05000000074505806,-0.0005000000237487257,0.05000000074505806,0.02500000037252903,0.02500000037252903,0.02500000037252903,0.05000000074505806,0.0005000000237487257,-0.03364736319011843,-0.24570844329162297,0.1834321759946123,0.14,0.0,0.26,-0.007668270729482174,0.0007557123899459839,0.3688157796859741,0.0,1.671123740651974
0.0,8.0,-0.021908164024353027,0.02067559026181698,-0.024316661059856415,0.008848140016198158,-0.0391710102558136,-0.0003692384925670922,-0.09823335707187653,-1.3282848596572876,0.9737449884414673,-1.3442472219467163,0.001889553153887391,0.0,-0.12014152109622955,-1.3076093196868896,0.9494283199310303,-1.3353990316390991,-0.03728145733475685,0.003,0.0,0.0,0.0,0.0,0.0,0.0,-3.1,3.1,-1.571,1.571,-1.571,1.571,-1.745,1.745,-2.617,2.617,0.003,0.03,-0.05000000074505806,-0.02500000037252903,-0.02500000037252903,-0.02500000037252903,-0.05000000074505806,-0.0005000000237487257,0.05000000074505806,0.02500000037252903,0.02500000037252903,0.02500000037252903,0.05000000074505806,0.0005000000237487257,-0.03372323764625465,-0.2794316809378776,0.18363887836254786,0.14,0.0,0.26,-0.005553523078560829,0.0006704375264234841,0.3719685673713684,0.0,0.04960856830453109
0.0,9.0,0.014509799890220165,0.018608994781970978,0.0006150177214294672,-0.024368051439523697,0.01225294079631567,-0.0003540967300068587,-0.12014152109622955,-1.3076093196868896,0.9494283199310303,-1.3353990316390991,-0.03728145733475685,0.0,-0.10563172399997711,-1.2890002727508545,0.9500433206558228,-1.3597670793533325,-0.025028515607118607,0.003,0.0,0.0,0.0,0.0,0.0,0.0,-3.1,3.1,-1.571,1.571,-1.571,1.571,-1.745,1.745,-2.617,2.617,0.003,0.03,-0.05000000074505806,-0.02500000037252903,-0.02500000037252903,-0.02500000037252903,-0.05000000074505806,-0.0005000000237487257,0.05000000074505806,0.02500000037252903,0.02500000037252903,0.02500000037252903,0.05000000074505806,0.0005000000237487257,-0.033097069246188646,-0.3125287501840663,0.18192599936839332,0.14,0.0,0.26,-0.0036491358187049627,0.00038690463406965137,0.3716326355934143,0.0,-0.411090958597089
0.0,10.0,-0.02742515504360199,0.009118212386965752,-0.004424890037626028,0.023481912910938263,-0.03725337237119675,-0.00017211625527124852,-0.10563172399997711,-1.2890002727508545,0.9500433206558228,-1.3597670793533325,-0.025028515607118607,0.0,-0.1330568790435791,-1.2798820734024048,0.9456184506416321,-1.33628511428833,-0.06228188797831535,0.003,0.0,0.0,0.0,0.0,0.0,0.0,-3.1,3.1,-1.571,1.571,-1.571,1.571,-1.745,1.745,-2.617,2.617,0.003,0.03,-0.05000000074505806,-0.02500000037252903,-0.02500000037252903,-0.02500000037252903,-0.05000000074505806,-0.0005000000237487257,0.05000000074505806,0.02500000037252903,0.02500000037252903,0.02500000037252903,0.05000000074505806,0.0005000000237487257,-0.03210299628255956,-0.34463174646662587,0.17917309028578918,0.14,0.0,0.26,0.0005386930424720049,-7.210282637970522e-05,0.3724879324436188,0.0,-0.6606981798249945
0.0,11.0,-0.02268819697201252,0.016018420457839966,0.022869136184453964,0.010994008742272854,-0.006402951665222645,-0.0004145413695368916,-0.1330568790435791,-1.2798820734024048,0.9456184506416321,-1.33628511428833,-0.06228188797831535,0.0,-0.15574507415294647,-1.2638636827468872,0.968487560749054,-1.3252911567687988,-0.06868483871221542,0.003,0.0,0.0,0.0,0.0,0.0,0.0,-3.1,3.1,-1.571,1.571,-1.571,1.571,-1.745,1.745,-2.617,2.617,0.003,0.03,-0.05000000074505806,-0.02500000037252903,-0.02500000037252903,-0.02500000037252903,-0.05000000074505806,-0.0005000000237487257,0.05000000074505806,0.02500000037252903,0.02500000037252903,0.02500000037252903,0.05000000074505806,0.0005000000237487257,-0.029113627362343193,-0.37374537382896905,0.17062715892361097,0.14,0.0,0.26,0.009243817999958992,-0.0014514336362481117,0.3696099519729614,0.0,-2.0510235269227706
0.0,12.0,-0.021621081978082657,0.01750052347779274,-0.021216806024312973,-0.017782120034098625,-0.03025396168231964,-0.00015267632261384279,-0.15574507415294647,-1.2638636827468872,0.968487560749054,-1.3252911567687988,-0.06868483871221542,0.0,-0.17736615240573883,-1.2463631629943848,0.9472707509994507,-1.3430732488632202,-0.09893880039453506,0.003,0.0,0.0,0.0,0.0,0.0,0.0,-3.1,3.1,-1.571,1.571,-1.571,1.571,-1.745,1.745,-2.617,2.617,0.003,0.03,-0.05000000074505806,-0.02500000037252903,-0.02500000037252903,-0.02500000037252903,-0.05000000074505806,-0.0005000000237487257,0.05000000074505806,0.02500000037252903,0.02500000037252903,0.02500000037252903,0.05000000074505806,0.0005000000237487257,-0.029935018172407218,-0.4036803920013763,0.173017392687577,0.14,0.0,0.26,0.008189314045011997,-0.001467932597734034,0.37206608057022095,0.0,0.573656103351845
0.0,13.0,-0.042050622403621674,0.006094540469348431,-0.024366315454244614,0.0161635410040617,0.030453598126769066,-2.9328895834623836e-05,-0.17736615240573883,-1.2463631629943848,0.9472707509994507,-1.3430732488632202,-0.09893880039453506,0.0,-0.2194167673587799,-1.240268588066101,0.9229044318199158,-1.3269096612930298,-0.06848520040512085,0.003,0.0,0.0,0.0,0.0,0.0,0.0,-3.1,3.1,-1.571,1.571,-1.571,1.571,-1.745,1.745,-2.617,2.617,0.003,0.03,-0.05000000074505806,-0.02500000037252903,-0.02500000037252903,-0.02500000037252903,-0.05000000074505806,-0.0005000000237487257,0.05000000074505806,0.02500000037252903,0.02500000037252903,0.02500000037252903,0.05000000074505806,0.0005000000237487257,-0.03079840288458116,-0.4344787948859574,0.1754947374840088,0.14,0.0,0.26,0.007660498842597008,-0.0017083456041291356,0.37524643540382385,0.0,0.5945627511436324
0.0,14.0,-0.0021925317123532295,0.019261499866843224,-0.00869270134717226,0.009059716016054153,0.0022650789469480515,-0.00043937639566138387,-0.2194167673587799,-1.240268588066101,0.9229044318199158,-1.3269096612930298,-0.06848520040512085,0.0,-0.22160929441452026,-1.2210071086883545,0.9142117500305176,-1.3178499937057495,-0.06622011959552765,0.003,0.0,0.0,0.0,0.0,0.0,0.0,-3.1,3.1,-1.571,1.571,-1.571,1.571,-1.745,1.745,-2.617,2.617,0.003,0.03,-0.05000000074505806,-0.02500000037252903,-0.02500000037252903,-0.02500000037252903,-0.05000000074505806,-0.0005000000237487257,0.05000000074505806,0.02500000037252903,0.02500000037252903,0.02500000037252903,0.05000000074505806,0.0005000000237487257,-0.029890605020990297,-0.4643693999069477,0.17288899624033421,0.14,0.0,0.26,0.012039448134601116,-0.002712605521082878,0.3762297034263611,0.0,-0.6253778984818981
0.0,15.0,-0.049559738487005234,-0.007624113466590643,-0.019072117283940315,-0.01376456767320633,0.025882495567202568,5.730379052693024e-05,-0.22160929441452026,-1.2210071086883545,0.9142117500305176,-1.3178499937057495,-0.06622011959552765,0.0,-0.2711690366268158,-1.2286312580108643,0.8951396346092224,-1.33161461353302,-0.04033762216567993,0.003,0.0,0.0,0.0,0.0,0.0,0.0,-3.1,3.1,-1.571,1.571,-1.571,1.571,-1.745,1.745,-2.617,2.617,0.003,0.03,-0.05000000074505806,-0.02500000037252903,-0.02500000037252903,-0.02500000037252903,-0.05000000074505806,-0.0005000000237487257,0.05000000074505806,0.02500000037252903,0.02500000037252903,0.02500000037252903,0.05000000074505806,0.0005000000237487257,-0.03212912512650421,-0.49649852503345193,0.17924599054512827,0.14,0.0,0.26,0.0056025199592113495,-0.001557596493512392,0.3785918056964874,0.0,1.5256786331505734
0.0,16.0,0.04750330373644829,-0.004616634454578161,-0.009399635717272758,-0.01310355868190527,0.03283276408910751,0.0002025924186455086,-0.2711690366268158,-1.2286312580108643,0.8951396346092224,-1.33161461353302,-0.04033762216567993,0.0,-0.2236657291650772,-1.2332478761672974,0.8857399821281433,-1.3447182178497314,-0.007504858076572418,0.003,0.0,0.0,0.0,0.0,0.0,0.0,-3.1,3.1,-1.571,1.571,-1.571,1.571,-1.745,1.745,-2.617,2.617,0.003,0.03,-0.05000000074505806,-0.02500000037252903,-0.02500000037252903,-0.02500000037252903,-0.05000000074505806,-0.0005000000237487257,0.05000000074505806,0.02500000037252903,0.02500000037252903,0.02500000037252903,0.05000000074505806,0.0005000000237487257,-0.03345817459437028,-0.5299566996278222,0.18291575819040382,0.14,0.0,0.26,0.001593808177858591,-0.0003625461249612272,0.3795900046825409,0.0,0.880744234866131
0.0,17.0,-0.013650694862008095,0.0012836870737373829,-0.0005975518724881113,-0.022979406639933586,0.048683155328035355,0.00021388141612987965,-0.2236657291650772,-1.2332478761672974,0.8857399821281433,-1.3447182178497314,-0.007504858076572418,0.0,-0.23731642961502075,-1.2319642305374146,0.88514244556427,-1.3676975965499878,0.041178297251462936,0.003,0.0,0.0,0.0,0.0,0.0,0.0,-3.1,3.1,-1.571,1.571,-1.571,1.571,-1.745,1.745,-2.617,2.617,0.003,0.03,-0.05000000074505806,-0.02500000037252903,-0.02500000037252903,-0.02500000037252903,-0.05000000074505806,-0.0005000000237487257,0.05000000074505806,0.02500000037252903,0.02500000037252903,0.02500000037252903,0.05000000074505806,0.0005000000237487257,-0.03403835484301426,-0.5639950544708365,0.184494864001723,0.14,0.0,0.26,-0.0007226933958008885,0.00017480095266364515,0.3793123960494995,0.0,0.3789853947166022
0.0,18.0,-0.022321337834000587,0.0031569506973028183,-0.01739751547574997,0.010948571376502514,-0.008264506235718727,0.0004582552646752447,-0.23731642961502075,-1.2319642305374146,0.88514244556427,-1.3676975965499878,0.041178297251462936,0.0,-0.2596377730369568,-1.2288073301315308,0.8677449226379395,-1.3567490577697754,0.03291378915309906,0.003,0.0,0.0,0.0,0.0,0.0,0.0,-3.1,3.1,-1.571,1.571,-1.571,1.571,-1.745,1.745,-2.617,2.617,0.003,0.03,-0.05000000074505806,-0.02500000037252903,-0.02500000037252903,-0.02500000037252903,-0.05000000074505806,-0.0005000000237487257,0.05000000074505806,0.02500000037252903,0.02500000037252903,0.02500000037252903,0.05000000074505806,0.0005000000237487257,-0.034783561873849345,-0.5987786163446859,0.18650351705490528,0.14,0.0,0.26,-0.0014731541741639376,0.00039131942321546376,0.38152676820755005,0.0,0.48207673276374985
0.0,19.0,0.022669486701488495,-0.0062761325389146805,-0.019757673144340515,-0.020315295085310936,0.02930755354464054,0.0002665709180291742,-0.2596377730369568,-1.2288073301315308,0.8677449226379395,-1.3567490577697754,0.03291378915309906,0.0,-0.2369682788848877,-1.2350834608078003,0.8479872345924377,-1.3770643472671509,0.06222134083509445,0.003,0.0,0.0,0.0,0.0,0.0,0.0,-3.1,3.1,-1.571,1.571,-1.571,1.571,-1.745,1.745,-2.617,2.617,0.003,0.03,-0.05000000074505806,-0.02500000037252903,-0.02500000037252903,-0.02500000037252903,-0.05000000074505806,-0.0005000000237487257,0.05000000074505806,0.02500000037252903,0.02500000037252903,0.02500000037252903,0.05000000074505806,0.0005000000237487257,-0.03725010528634489,-0.6360287216310307,0.19300286341488535,0.14,0.0,0.26,-0.008444330655038357,0.0020393547601997852,0.38332974910736084,0.0,1.559843126395215
0.0,20.0,0.04289351776242256,-0.02202625758945942,-0.024696113541722298,-0.009312894195318222,0.02204415574669838,-0.00032322423066943884,-0.2369682788848877,-1.2350834608078003,0.8479872345924377,-1.3770643472671509,0.06222134083509445,0.0,-0.19407476484775543,-1.2571097612380981,0.8232911229133606,-1.386377215385437,0.08426550030708313,0.003,0.0,0.0,0.0,0.0,0.0,0.0,-3.1,3.1,-1.571,1.571,-1.571,1.571,-1.745,1.745,-2.617,2.617,0.003,0.03,-0.05000000074505806,-0.02500000037252903,-0.02500000037252903,-0.02500000037252903,-0.05000000074505806,-0.0005000000237487257,0.05000000074505806,0.02500000037252903,0.02500000037252903,0.02500000037252903,0.05000000074505806,0.0005000000237487257,-0.04108873951565983,-0.6771174611466906,0.20270357548809995,0.14,0.0,0.26,-0.019230738282203674,0.003779775695875287,0.38537952303886414,0.0,2.3281708975715043
0.0,21.0,-0.04583476856350899,-0.016806434839963913,-0.0067832996137440205,0.00041622333810664713,-0.0276071447879076,0.00014480344543699175,-0.19407476484775543,-1.2571097612380981,0.8232911229133606,-1.386377215385437,0.08426550030708313,0.0,-0.23990952968597412,-1.273916244506836,0.8165078163146973,-1.3859609365463257,0.05665835738182068,0.003,0.0,0.0,0.0,0.0,0.0,0.0,-3.1,3.1,-1.571,1.571,-1.571,1.571,-1.745,1.745,-2.617,2.617,0.003,0.03,-0.05000000074505806,-0.02500000037252903,-0.02500000037252903,-0.02500000037252903,-0.05000000074505806,-0.0005000000237487257,0.05000000074505806,0.02500000037252903,0.02500000037252903,0.02500000037252903,0.05000000074505806,0.0005000000237487257,-0.042852532258617876,-0.7199699934053084,0.20700853184981985,0.14,0.0,0.26,-0.02437824197113514,0.005963425617665052,0.38568517565727234,0.0,1.0331895268127766
0.0,22.0,0.0005659880698658526,0.020814115181565285,-0.0010049885604530573,-0.00243693171069026,0.03016926348209381,-0.0003644601965788752,-0.23990952968597412,-1.273916244506836,0.8165078163146973,-1.3859609365463257,0.05665835738182068,0.0,-0.2393435388803482,-1.25310218334198,0.8155028223991394,-1.3883978128433228,0.08682762086391449,0.003,0.0,0.0,0.0,0.0,0.0,0.0,-3.1,3.1,-1.571,1.571,-1.571,1.571,-1.745,1.745,-2.617,2.617,0.003,0.03,-0.05000000074505806,-0.02500000037252903,-0.02500000037252903,-0.02500000037252903,-0.05000000074505806,-0.0005000000237487257,0.05000000074505806,0.02500000037252903,0.02500000037252903,0.02500000037252903,0.05000000074505806,0.0005000000237487257,-0.04139585338855705,-0.7613658467938654,0.20345970949688552,0.14,0.0,0.26,-0.019534794613718987,0.004766900558024645,0.3861815333366394,0.0,-0.8517173647042386
0.0,23.0,0.032921113073825836,-0.024940799921751022,-0.010160176083445549,0.0062481071799993515,-0.028442276641726494,-0.00010964144894387573,-0.2393435388803482,-1.25310218334198,0.8155028223991394,-1.3883978128433228,0.08682762086391449,0.0,-0.20642241835594177,-1.2780430316925049,0.8053426742553711,-1.3821496963500977,0.05838534235954285,0.003,0.0,0.0,0.0,0.0,0.0,0.0,-3.1,3.1,-1.571,1.571,-1.571,1.571,-1.745,1.745,-2.617,2.617,0.003,0.03,-0.05000000074505806,-0.02500000037252903,-0.02500000037252903,-0.02500000037252903,-0.05000000074505806,-0.0005000000237487257,0.05000000074505806,0.02500000037252903,0.02500000037252903,0.02500000037252903,0.05000000074505806,0.0005000000237487257,-0.0440259442344449,-0.8053917910283104,0.20982360266291517,0.14,0.0,0.26,-0.027107877656817436,0.005676529835909605,0.3867622911930084,0.0,1.5273343598471145
0.0,24.0,-0.026464072987437248,-0.016290070489048958,0.007929107174277306,0.013263897970318794,0.006935612298548222,0.000465315708424896,-0.20642241835594177,-1.2780430316925049,0.8053426742553711,-1.3821496963500977,0.05838534235954285,0.0,-0.23288649320602417,-1.2943331003189087,0.8132717609405518,-1.3688857555389404,0.0653209537267685,0.003,0.0,0.0,0.0,0.0,0.0,0.0,-3.1,3.1,-1.571,1.571,-1.571,1.571,-1.745,1.745,-2.617,2.617,0.003,0.03,-0.05000000074505806,-0.02500000037252903,-0.02500000037252903,-0.02500000037252903,-0.05000000074505806,-0.0005000000237487257,0.05000000074505806,0.02500000037252903,0.02500000037252903,0.02500000037252903,0.05000000074505806,0.0005000000237487257,-0.04424602027368913,-0.8496378113019996,0.2103473800019604,0.14,0.0,0.26,-0.02831992134451866,0.006717206910252571,0.38597342371940613,0.0,0.12570656137085745
0.0,25.0,-0.021286727860569954,-0.020113423466682434,-0.0016405953792855144,0.018309513106942177,-0.005966399796307087,-2.5274468498537317e-05,-0.23288649320602417,-1.2943331003189087,0.8132717609405518,-1.3688857555389404,0.0653209537267685,0.0,-0.254173219203949,-1.3144465684890747,0.8116311430931091,-1.3505762815475464,0.05935455486178398,0.003,0.0,0.0,0.0,0.0,0.0,0.0,-3.1,3.1,-1.571,1.571,-1.571,1.571,-1.745,1.745,-2.617,2.617,0.003,0.03,-0.05000000074505806,-0.02500000037252903,-0.02500000037252903,-0.02500000037252903,-0.05000000074505806,-0.0005000000237487257,0.05000000074505806,0.02500000037252903,0.02500000037252903,0.02500000037252903,0.05000000074505806,0.0005000000237487257,-0.045406267075123304,-0.8950440783771229,0.21308746343960103,0.14,0.0,0.26,-0.03158382698893547,0.008205225691199303,0.38608700037002563,0.0,0.6576200250337494
0.0,26.0,-0.033387213945388794,0.007317529059946537,-0.020381033420562744,-0.011974320746958256,0.023775476962327957,-0.00045219005551189184,-0.254173219203949,-1.3144465684890747,0.8116311430931091,-1.3505762815475464,0.05935455486178398,0.0,-0.28756043314933777,-1.3071290254592896,0.7912501096725464,-1.3625506162643433,0.08313003182411194,0.003,0.0,0.0,0.0,0.0,0.0,0.0,-3.1,3.1,-1.571,1.571,-1.571,1.571,-1.745,1.745,-2.617,2.617,0.003,0.03,-0.05000000074505806,-0.02500000037252903,-0.02500000037252903,-0.02500000037252903,-0.05000000074505806,-0.0005000000237487257,0.05000000074505806,0.02500000037252903,0.02500000037252903,0.02500000037252903,0.05000000074505806,0.0005000000237487257,-0.04677975120697781,-0.9418238295841007,0.21628627142511336,0.14,0.0,0.26,-0.03420666605234146,0.010116891004145145,0.3877866864204407,0.0,0.7677139165229607
0.0,27.0,0.009213079698383808,0.018240461125969887,-0.020354190841317177,-0.004062855150550604,-0.01644461788237095,7.296211697394028e-05,-0.28756043314933777,-1.3071290254592896,0.7912501096725464,-1.3625506162643433,0.08313003182411194,0.0,-0.27834734320640564,-1.2888885736465454,0.7708958983421326,-1.366613507270813,0.06668541580438614,0.003,0.0,0.0,0.0,0.0,0.0,0.0,-3.1,3.1,-1.571,1.571,-1.571,1.571,-1.745,1.745,-2.617,2.617,0.003,0.03,-0.05000000074505806,-0.02500000037252903,-0.02500000037252903,-0.02500000037252903,-0.05000000074505806,-0.0005000000237487257,0.05000000074505806,0.02500000037252903,0.02500000037252903,0.02500000037252903,0.05000000074505806,0.0005000000237487257,-0.0471532289591672,-0.9889770585432679,0.21714794256259304,0.14,0.0,0.26,-0.03360249474644661,0.009602446109056473,0.3900891840457916,0.0,0.20680107299512196
0.0,28.0,0.04900384694337845,0.023669902235269547,-0.010684319771826267,0.021922780200839043,0.043817922472953796,-7.204731446108781e-06,-0.27834734320640564,-1.2888885736465454,0.7708958983421326,-1.366613507270813,0.06668541580438614,0.0,-0.2293435037136078,-1.2652186155319214,0.7602115869522095,-1.3446906805038452,0.11050333827733994,0.003,0.0,0.0,0.0,0.0,0.0,0.0,-3.1,3.1,-1.571,1.571,-1.571,1.571,-1.745,1.745,-2.617,2.617,0.003,0.03,-0.05000000074505806,-0.02500000037252903,-0.02500000037252903,-0.02500000037252903,-0.05000000074505806,-0.0005000000237487257,0.05000000074505806,0.02500000037252903,0.02500000037252903,0.02500000037252903,0.05000000074505806,0.0005000000237487257,-0.04563551274912365,-1.0346125712923915,0.2136247006999042,0.14,0.0,0.26,-0.02741851657629013,0.006400879472494125,0.3925352096557617,0.0,-0.8455780470453234
0.0,29.0,-0.0342128612101078,0.0036824382841587067,0.014948262833058834,0.0044337548315525055,-0.02629680372774601,-0.00013976833724882454,-0.2293435037136078,-1.2652186155319214,0.7602115869522095,-1.3446906805038452,0.11050333827733994,0.0,-0.2635563611984253,-1.2615361213684082,0.7751598358154297,-1.340256929397583,0.08420653641223907,0.003,0.0,0.0,0.0,0.0,0.0,0.0,-3.1,3.1,-1.571,1.571,-1.571,1.571,-1.745,1.745,-2.617,2.617,0.003,0.03,-0.05000000074505806,-0.02500000037252903,-0.02500000037252903,-0.02500000037252903,-0.05000000074505806,-0.0005000000237487257,0.05000000074505806,0.02500000037252903,0.02500000037252903,0.02500000037252903,0.05000000074505806,0.0005000000237487257,-0.043923973984686934,-1.0785365452770783,0.20958047138196567,0.14,0.0,0.26,-0.02319304458796978,0.0062582534737885,0.39135006070137024,0.0,-0.9706150363052446
0.0,30.0,-0.030132906511425972,-0.024785412475466728,0.019275179132819176,-0.011681192554533482,0.025008901953697205,-0.0004228107864037156,-0.2635563611984253,-1.2615361213684082,0.7751598358154297,-1.340256929397583,0.08420653641223907,0.0,-0.2936892807483673,-1.2863215208053589,0.7944350242614746,-1.3519381284713745,0.10921543836593628,0.003,0.0,0.0,0.0,0.0,0.0,0.0,-3.1,3.1,-1.571,1.571,-1.571,1.571,-1.745,1.745,-2.617,2.617,0.003,0.03,-0.05000000074505806,-0.02500000037252903,-0.02500000037252903,-0.02500000037252903,-0.05000000074505806,-0.0005000000237487257,0.05000000074505806,0.02500000037252903,0.02500000037252903,0.02500000037252903,0.05000000074505806,0.0005000000237487257,-0.044553551174489406,-1.1230900964515678,0.21107712139047521,0.14,0.0,0.26,-0.027244804427027702,0.008239783346652985,0.3885100483894348,0.0,0.3591960020422902
0.0,31.0,0.03311580419540405,-0.005646171979606152,-0.02114522084593773,-0.024530474096536636,0.013345531187951565,0.00011714610445778817,-0.2936892807483673,-1.2863215208053589,0.7944350242614746,-1.3519381284713745,0.10921543836593628,0.0,-0.26057347655296326,-1.291967749595642,0.7732897996902466,-1.3764686584472656,0.12256097048521042,0.003,0.0,0.0,0.0,0.0,0.0,0.0,-3.1,3.1,-1.571,1.571,-1.571,1.571,-1.745,1.745,-2.617,2.617,0.003,0.03,-0.05000000074505806,-0.02500000037252903,-0.02500000037252903,-0.02500000037252903,-0.05000000074505806,-0.0005000000237487257,0.05000000074505806,0.02500000037252903,0.02500000037252903,0.02500000037252903,0.05000000074505806,0.0005000000237487257,-0.04752330667704337,-1.170613403128611,0.21799840980393267,0.14,0.0,0.26,-0.0351765938103199,0.009379335679113865,0.389415979385376,0.0,1.6611092192297905
0.0,32.0,-0.04043593257665634,-0.009194711223244667,-0.0015801388071849942,-0.02178802713751793,-0.014304129406809807,0.0001283866004087031,-0.26057347655296326,-1.291967749595642,0.7732897996902466,-1.3764686584472656,0.12256097048521042,0.0,-0.3010094165802002,-1.3011624813079834,0.771709680557251,-1.3982566595077515,0.10825683921575546,0.003,0.0,0.0,0.0,0.0,0.0,0.0,-3.1,3.1,-1.571,1.571,-1.571,1.571,-1.745,1.745,-2.617,2.617,0.003,0.03,-0.05000000074505806,-0.02500000037252903,-0.02500000037252903,-0.02500000037252903,-0.05000000074505806,-0.0005000000237487257,0.05000000074505806,0.02500000037252903,0.02500000037252903,0.02500000037252903,0.05000000074505806,0.0005000000237487257,-0.048883805937099005,-1.2194972090657101,0.22109682480103374,0.14,0.0,0.26,-0.03960172459483147,0.012294062413275242,0.3883584141731262,0.0,0.7436195993042549
0.0,33.0,-0.03436725586652756,-0.0191494170576334,0.0010588719742372632,-0.014354696497321129,0.014116927981376648,9.194047015625983e-05,-0.3010094165802002,-1.3011624813079834,0.771709680557251,-1.3982566595077515,0.10825683921575546,0.0,-0.33537667989730835,-1.3203119039535522,0.7727685570716858,-1.4126113653182983,0.12237376719713211,0.003,0.0,0.0,0.0,0.0,0.0,0.0,-3.1,3.1,-1.571,1.571,-1.571,1.571,-1.745,1.745,-2.617,2.617,0.003,0.03,-0.05000000074505806,-0.02500000037252903,-0.02500000037252903,-0.02500000037252903,-0.05000000074505806,-0.0005000000237487257,0.05000000074505806,0.02500000037252903,0.02500000037252903,0.02500000037252903,0.05000000074505806,0.0005000000237487257,-0.0506189826525053,-1.2701161917182153,0.22498662771930536,0.14,0.0,0.26,-0.04517018049955368,0.01574377343058586,0.3868192434310913,0.0,0.9335527003851896
0.0,34.0,-0.02708003856241703,0.02106458693742752,-0.02188337780535221,0.014759626239538193,0.022794188931584358,-0.00039551334339194,-0.33537667989730835,-1.3203119039535522,0.7727685570716858,-1.4126113653182983,0.12237376719713211,0.0,-0.36245670914649963,-1.2992472648620605,0.7508851885795593,-1.3978517055511475,0.14516796171665192,0.003,0.0,0.0,0.0,0.0,0.0,0.0,-3.1,3.1,-1.571,1.571,-1.571,1.571,-1.745,1.745,-2.617,2.617,0.003,0.03,-0.05000000074505806,-0.02500000037252903,-0.02500000037252903,-0.02500000037252903,-0.05000000074505806,-0.0005000000237487257,0.05000000074505806,0.02500000037252903,0.02500000037252903,0.02500000037252903,0.05000000074505806,0.0005000000237487257,-0.05022418862803337,-1.3203403803462488,0.22410753808837705,0.14,0.0,0.26,-0.041759226471185684,0.01583552546799183,0.3901422619819641,0.0,-0.2109815114227942
0.0,35.0,-0.003621915355324745,-0.008497451432049274,0.0061700730584561825,-0.0036053929943591356,0.014577778987586498,-0.00045734195737168193,-0.36245670914649963,-1.2992472648620605,0.7508851885795593,-1.3978517055511475,0.14516796171665192,0.0,-0.36607861518859863,-1.3077447414398193,0.7570552825927734,-1.4014570713043213,0.1597457379102707,0.003,0.0,0.0,0.0,0.0,0.0,0.0,-3.1,3.1,-1.571,1.571,-1.571,1.571,-1.745,1.745,-2.617,2.617,0.003,0.03,-0.05000000074505806,-0.02500000037252903,-0.02500000037252903,-0.02500000037252903,-0.05000000074505806,-0.0005000000237487257,0.05000000074505806,0.02500000037252903,0.02500000037252903,0.02500000037252903,0.05000000074505806,0.0005000000237487257,-0.050477177061623905,-1.3708175574078727,0.22467126443233434,0.14,0.0,0.26,-0.04311911389231682,0.01653008535504341,0.3891174793243408,0.0,0.1352943225497505
0.0,36.0,0.03812338784337044,0.005851504392921925,0.01668461598455906,0.017774732783436775,-0.03616826608777046,3.96520335925743e-05,-0.36607861518859863,-1.3077447414398193,0.7570552825927734,-1.4014570713043213,0.1597457379102707,0.0,-0.3279552161693573,-1.3018932342529297,0.7737398743629456,-1.383682370185852,0.12357747554779053,0.003,0.0,0.0,0.0,0.0,0.0,0.0,-3.1,3.1,-1.571,1.571,-1.571,1.571,-1.745,1.745,-2.617,2.617,0.003,0.03,-0.05000000074505806,-0.02500000037252903,-0.02500000037252903,-0.02500000037252903,-0.05000000074505806,-0.0005000000237487257,0.05000000074505806,0.02500000037252903,0.02500000037252903,0.02500000037252903,0.05000000074505806,0.0005000000237487257,-0.048280203916755346,-1.419097761324628,0.21972756749382938,0.14,0.0,0.26,-0.037609346210956573,0.012796270661056042,0.38872987031936646,0.0,-1.1864872652411917
0.0,37.0,-0.04825916513800621,0.0034787971526384354,0.002866186900064349,0.022859830409288406,-0.03915909305214882,-0.0001899648632388562,-0.3279552161693573,-1.3018932342529297,0.7737398743629456,-1.383682370185852,0.12357747554779053,0.0,-0.3762143850326538,-1.2984144687652588,0.7766060829162598,-1.3608225584030151,0.084418386220932,0.003,0.0,0.0,0.0,0.0,0.0,0.0,-3.1,3.1,-1.571,1.571,-1.571,1.571,-1.745,1.745,-2.617,2.617,0.003,0.03,-0.05000000074505806,-0.02500000037252903,-0.02500000037252903,-0.02500000037252903,-0.05000000074505806,-0.0005000000237487257,0.05000000074505806,0.02500000037252903,0.02500000037252903,0.02500000037252903,0.05000000074505806,0.0005000000237487257,-0.04696742694078054,-1.4660651882654085,0.21671969670701494,0.14,0.0,0.26,-0.03330916538834572,0.013158111833035946,0.38945356011390686,0.0,-0.7218889888354663
0.0,38.0,0.03197428956627846,0.01679060235619545,-0.022181671112775803,0.019963158294558525,-0.017308278009295464,-0.00025235052453354,-0.3762143850326538,-1.2984144687652588,0.7766060829162598,-1.3608225584030151,0.084418386220932,0.0,-0.34424009919166565,-1.2816238403320312,0.7544243931770325,-1.3408594131469727,0.0671101063489914,0.003,0.0,0.0,0.0,0.0,0.0,0.0,-3.1,3.1,-1.571,1.571,-1.571,1.571,-1.745,1.745,-2.617,2.617,0.003,0.03,-0.05000000074505806,-0.02500000037252903,-0.02500000037252903,-0.02500000037252903,-0.05000000074505806,-0.0005000000237487257,0.05000000074505806,0.02500000037252903,0.02500000037252903,0.02500000037252903,0.05000000074505806,0.0005000000237487257,-0.04704669612858213,-1.5131118843939906,0.21690250373977274,0.14,0.0,0.26,-0.031220614910125732,0.011193051002919674,0.3926835060119629,0.0,0.043873687861872845
0.0,39.0,0.02768099680542946,-0.010323777794837952,0.009132305160164833,-0.0037358151748776436,-0.02425835095345974,0.00017140238196589053,-0.34424009919166565,-1.2816238403320312,0.7544243931770325,-1.3408594131469727,0.0671101063489914,0.0,-0.3165591061115265,-1.291947603225708,0.763556718826294,-1.344595193862915,0.042851753532886505,0.003,0.0,0.0,0.0,0.0,0.0,0.0,-3.1,3.1,-1.571,1.571,-1.571,1.571,-1.745,1.745,-2.617,2.617,0.003,0.03,-0.05000000074505806,-0.02500000037252903,-0.02500000037252903,-0.02500000037252903,-0.05000000074505806,-0.0005000000237487257,0.05000000074505806,0.02500000037252903,0.02500000037252903,0.02500000037252903,0.05000000074505806,0.0005000000237487257,-0.047295193474477304,-1.5604070778684678,0.2174745812146268,0.14,0.0,0.26,-0.032956525683403015,0.010795732028782368,0.3913951516151428,0.0,0.1372985939649718
0.0,40.0,0.008954640477895737,-0.019768938422203064,-0.010465424507856369,0.004152293782681227,-0.03643999248743057,0.00029040989466011524,-0.3165591061115265,-1.291947603225708,0.763556718826294,-1.344595193862915,0.042851753532886505,0.0,-0.30760446190834045,-1.3117165565490723,0.7530912756919861,-1.3404428958892822,0.006411761045455933,0.003,0.0,0.0,0.0,0.0,0.0,0.0,-3.1,3.1,-1.571,1.571,-1.571,1.571,-1.745,1.745,-2.617,2.617,0.003,0.03,-0.05000000074505806,-0.02500000037252903,-0.02500000037252903,-0.02500000037252903,-0.05000000074505806,-0.0005000000237487257,0.05000000074505806,0.02500000037252903,0.02500000037252903,0.02500000037252903,0.05000000074505806,0.0005000000237487257,-0.049706215013264436,-1.610113292881732,0.22294890673260642,0.14,0.0,0.26,-0.03946163132786751,0.012536493130028248,0.3916912078857422,0.0,1.313838124315112
0.0,41.0,0.004870160948485136,-0.013766136951744556,-0.024407267570495605,0.023441681638360023,-0.0030694378074258566,4.3671709136106074e-05,-0.30760446190834045,-1.3117165565490723,0.7530912756919861,-1.3404428958892822,0.006411761045455933,0.0,-0.3027343153953552,-1.325482726097107,0.7286840081214905,-1.317001223564148,0.003342323238030076,0.003,0.0,0.0,0.0,0.0,0.0,0.0,-3.1,3.1,-1.571,1.571,-1.571,1.571,-1.745,1.745,-2.617,2.617,0.003,0.03,-0.05000000074505806,-0.02500000037252903,-0.02500000037252903,-0.02500000037252903,-0.05000000074505806,-0.0005000000237487257,0.05000000074505806,0.02500000037252903,0.02500000037252903,0.02500000037252903,0.05000000074505806,0.0005000000237487257,-0.052345418607205894,-1.662458711488938,0.22879121182249526,0.14,0.0,0.26,-0.04494814947247505,0.014038868248462677,0.3939496576786041,0.0,1.4021532215733212
0.0,42.0,0.025697965174913406,-0.02364005707204342,-0.009133238345384598,-0.001438672887161374,-0.028197046369314194,9.475785918766633e-05,-0.3027343153953552,-1.325482726097107,0.7286840081214905,-1.317001223564148,0.003342323238030076,0.0,-0.2770363390445709,-1.3491227626800537,0.7195507884025574,-1.3184398412704468,-0.02485472336411476,0.003,0.0,0.0,0.0,0.0,0.0,0.0,-3.1,3.1,-1.571,1.571,-1.571,1.571,-1.745,1.745,-2.617,2.617,0.003,0.03,-0.05000000074505806,-0.02500000037252903,-0.02500000037252903,-0.02500000037252903,-0.05000000074505806,-0.0005000000237487257,0.05000000074505806,0.02500000037252903,0.02500000037252903,0.02500000037252903,0.05000000074505806,0.0005000000237487257,-0.055347955998767656,-1.7178066674877057,0.2352614630549756,0.14,0.0,0.26,-0.05321111902594566,0.015130492858588696,0.3933734893798828,0.0,1.5528602957952842
0.0,43.0,0.003090798621997237,0.00658913841471076,0.020428748801350594,0.02161654271185398,0.017645228654146194,-0.00021204758377280086,-0.2770363390445709,-1.3491227626800537,0.7195507884025574,-1.3184398412704468,-0.02485472336411476,0.0,-0.27394554018974304,-1.3425335884094238,0.7399795651435852,-1.296823263168335,-0.007209494709968567,0.003,0.0,0.0,0.0,0.0,0.0,0.0,-3.1,3.1,-1.571,1.571,-1.571,1.571,-1.745,1.745,-2.617,2.617,0.003,0.03,-0.05000000074505806,-0.02500000037252903,-0.02500000037252903,-0.02500000037252903,-0.05000000074505806,-0.0005000000237487257,0.05000000074505806,0.02500000037252903,0.02500000037252903,0.02500000037252903,0.05000000074505806,0.0005000000237487257,-0.05230011955776415,-1.7701067870454699,0.22869219391523654,0.14,0.0,0.26,-0.04559357091784477,0.012812274508178234,0.3930074870586395,0.0,-1.5766245935373768
0.0,44.0,0.04449963569641113,0.016985895112156868,-0.019400568678975105,0.022788023576140404,-0.042285025119781494,4.562266985885799e-05,-0.27394554018974304,-1.3425335884094238,0.7399795651435852,-1.296823263168335,-0.007209494709968567,0.0,-0.2294459044933319,-1.325547695159912,0.7205789685249329,-1.2740352153778076,-0.04949451982975006,0.003,0.0,0.0,0.0,0.0,0.0,0.0,-3.1,3.1,-1.571,1.571,-1.571,1.571,-1.745,1.745,-2.617,2.617,0.003,0.03,-0.05000000074505806,-0.02500000037252903,-0.02500000037252903,-0.02500000037252903,-0.05000000074505806,-0.0005000000237487257,0.05000000074505806,0.02500000037252903,0.02500000037252903,0.02500000037252903,0.05000000074505806,0.0005000000237487257,-0.052067651338602694,-1.8221744383840726,0.22818337217817317,0.14,0.0,0.26,-0.04282376170158386,0.010001873597502708,0.39617300033569336,0.0,-0.12211721689521005
0.0,45.0,-0.04586336016654968,-0.016390347853302956,-0.009500356391072273,0.006510675419121981,-0.03194157034158707,-0.0001728830102365464,-0.2294459044933319,-1.325547695159912,0.7205789685249329,-1.2740352153778076,-0.04949451982975006,0.0,-0.2753092646598816,-1.3419380187988281,0.7110785841941833,-1.2675244808197021,-0.08143609017133713,0.003,0.0,0.0,0.0,0.0,0.0,0.0,-3.1,3.1,-1.571,1.571,-1.571,1.571,-1.745,1.745,-2.617,2.617,0.003,0.03,-0.05000000074505806,-0.02500000037252903,-0.02500000037252903,-0.02500000037252903,-0.05000000074505806,-0.0005000000237487257,0.05000000074505806,0.02500000037252903,0.02500000037252903,0.02500000037252903,0.05000000074505806,0.0005000000237487257,-0.05400410248205248,-1.8761785408661251,0.23238782774072414,0.14,0.0,0.26,-0.047664523124694824,0.013464394956827164,0.3963995575904846,0.0,1.0090693350122337
0.0,46.0,-0.00016488270193804055,0.006678501609712839,-0.003795499913394451,-0.0023865089751780033,-0.0008669403032399714,0.0004335511475801468,-0.2753092646598816,-1.3419380187988281,0.7110785841941833,-1.2675244808197021,-0.08143609017133713,0.0,-0.2754741609096527,-1.3352595567703247,0.707283079624176,-1.2699109315872192,-0.08230303227901459,0.003,0.0,0.0,0.0,0.0,0.0,0.0,-3.1,3.1,-1.571,1.571,-1.571,1.571,-1.745,1.745,-2.617,2.617,0.003,0.03,-0.05000000074505806,-0.02500000037252903,-0.02500000037252903,-0.02500000037252903,-0.05000000074505806,-0.0005000000237487257,0.05000000074505806,0.02500000037252903,0.02500000037252903,0.02500000037252903,0.05000000074505806,0.0005000000237487257,-0.053846073198271435,-1.9300246140643966,0.232047566671731,0.14,0.0,0.26,-0.04686673730611801,0.01324737910181284,0.39693576097488403,0.0,-0.0816626565583567
0.0,47.0,0.013418395072221756,-0.02258596383035183,0.011961223557591438,0.008359854109585285,0.035630181431770325,0.00020624665194191039,-0.2754741609096527,-1.3352595567703247,0.707283079624176,-1.2699109315872192,-0.08230303227901459,0.0,-0.26205575466156006,-1.3578455448150635,0.7192443013191223,-1.261551022529602,-0.04667285084724426,0.003,0.0,0.0,0.0,0.0,0.0,0.0,-3.1,3.1,-1.571,1.571,-1.571,1.571,-1.745,1.745,-2.617,2.617,0.003,0.03,-0.05000000074505806,-0.02500000037252903,-0.02500000037252903,-0.02500000037252903,-0.05000000074505806,-0.0005000000237487257,0.05000000074505806,0.02500000037252903,0.02500000037252903,0.02500000037252903,0.05000000074505806,0.0005000000237487257,-0.05449831923461576,-1.9845229332990124,0.23344875076687766,0.14,0.0,0.26,-0.04985508322715759,0.01337232906371355,0.39518338441848755,0.0,0.33628418283520034
0.0,48.0,0.04754739999771118,-0.018727876245975494,-0.015242266468703747,0.00602519977837801,0.017969686537981033,-0.00032336023286916316,-0.26205575466156006,-1.3578455448150635,0.7192443013191223,-1.261551022529602,-0.04667285084724426,0.0,-0.21450835466384888,-1.3765734434127808,0.7040020227432251,-1.255525827407837,-0.02870316430926323,0.003,0.0,0.0,0.0,0.0,0.0,0.0,-3.1,3.1,-1.571,1.571,-1.571,1.571,-1.745,1.745,-2.617,2.617,0.003,0.03,-0.05000000074505806,-0.02500000037252903,-0.02500000037252903,-0.02500000037252903,-0.05000000074505806,-0.0005000000237487257,0.05000000074505806,0.02500000037252903,0.02500000037252903,0.02500000037252903,0.05000000074505806,0.0005000000237487257,-0.05758260294286089,-2.0421055362418734,0.23996375339384257,0.14,0.0,0.26,-0.05764201283454895,0.012557899579405785,0.39550843834877014,0.0,1.56360063047158
0.0,49.0,0.011976663954555988,-0.010472510010004044,0.019757051020860672,0.017468761652708054,-0.023960717022418976,-0.00015213251754175872,-0.21450835466384888,-1.3765734434127808,0.7040020227432251,-1.255525827407837,-0.02870316430926323,0.0,-0.20253169536590576,-1.387045979499817,0.7237590551376343,-1.238057017326355,-0.052663881331682205,0.003,0.0,0.0,0.0,0.0,0.0,0.0,-3.1,3.1,-1.571,1.571,-1.571,1.571,-1.745,1.745,-2.617,2.617,0.003,0.03,-0.05000000074505806,-0.02500000037252903,-0.02500000037252903,-0.02500000037252903,-0.05000000074505806,-0.0005000000237487257,0.05000000074505806,0.02500000037252903,0.02500000037252903,0.02500000037252903,0.05000000074505806,0.0005000000237487257,-0.05611582590606096,-2.0982213621479344,0.23688779180460304,0.14,0.0,0.26,-0.05492327734827995,0.011278336867690086,0.39414000511169434,0.0,-0.7382307814174882
0.0,50.0,-0.019710280001163483,-0.010130665265023708,-0.012681184336543083,0.018250523135066032,-0.04303102567791939,-0.0004067466943524778,-0.20253169536590576,-1.387045979499817,0.7237590551376343,-1.238057017326355,-0.052663881331682205,0.0,-0.22224196791648865,-1.3971766233444214,0.711077868938446,-1.2198065519332886,-0.09569490700960159,0.003,0.0,0.0,0.0,0.0,0.0,0.0,-3.1,3.1,-1.571,1.571,-1.571,1.571,-1.745,1.745,-2.617,2.617,0.003,0.03,-0.05000000074505806,-0.02500000037252903,-0.02500000037252903,-0.02500000037252903,-0.05000000074505806,-0.0005000000237487257,0.05000000074505806,0.02500000037252903,0.02500000037252903,0.02500000037252903,0.05000000074505806,0.0005000000237487257,-0.057592350080659264,-2.1558137122285936,0.23998406213884135,0.14,0.0,0.26,-0.0578644797205925,0.013075907714664936,0.39517033100128174,0.0,0.7431048802171958
0.0,51.0,-0.04173678904771805,-0.014168956317007542,-0.008190643042325974,-0.018829261884093285,-0.030697466805577278,0.00025306420866400003,-0.22224196791648865,-1.3971766233444214,0.711077868938446,-1.2198065519332886,-0.09569490700960159,0.0,-0.2639787495136261,-1.4113456010818481,0.702887237071991,-1.238635778427124,-0.12639237940311432,0.003,0.0,0.0,0.0,0.0,0.0,0.0,-3.1,3.1,-1.571,1.571,-1.571,1.571,-1.745,1.745,-2.617,2.617,0.003,0.03,-0.05000000074505806,-0.02500000037252903,-0.02500000037252903,-0.02500000037252903,-0.05000000074505806,-0.0005000000237487257,0.05000000074505806,0.02500000037252903,0.02500000037252903,0.02500000037252903,0.05000000074505806,0.0005000000237487257,-0.060095187535217004,-2.215908899763811,0.245143198019478,0.14,0.0,0.26,-0.06447739154100418,0.017427362501621246,0.39409127831459045,0.0,1.2381926113527975
0.0,52.0,0.02019890956580639,-0.001205541891977191,0.012929328717291355,-0.012086193077266216,0.01380168553441763,-0.0002792391460388899,-0.2639787495136261,-1.4113456010818481,0.702887237071991,-1.238635778427124,-0.12639237940311432,0.0,-0.24377983808517456,-1.4125511646270752,0.7158165574073792,-1.2507219314575195,-0.11259069293737411,0.003,0.0,0.0,0.0,0.0,0.0,0.0,-3.1,3.1,-1.571,1.571,-1.571,1.571,-1.745,1.745,-2.617,2.617,0.003,0.03,-0.05000000074505806,-0.02500000037252903,-0.02500000037252903,-0.02500000037252903,-0.05000000074505806,-0.0005000000237487257,0.05000000074505806,0.02500000037252903,0.02500000037252903,0.02500000037252903,0.05000000074505806,0.0005000000237487257,-0.05941908954295577,-2.2753279893067666,0.2437603116648725,0.14,0.0,0.26,-0.06389151513576508,0.01589152030646801,0.39264538884162903,0.0,-0.33189272510532275
0.0,53.0,-0.02618718519806862,0.0020114900544285774,0.007960169576108456,-0.0008948023896664381,-0.017498517408967018,-9.512369433650747e-05,-0.24377983808517456,-1.4125511646270752,0.7158165574073792,-1.2507219314575195,-0.11259069293737411,0.0,-0.2699670195579529,-1.4105396270751953,0.7237766981124878,-1.2516167163848877,-0.13008920848369598,0.003,0.0,0.0,0.0,0.0,0.0,0.0,-3.1,3.1,-1.571,1.571,-1.571,1.571,-1.745,1.745,-2.617,2.617,0.003,0.03,-0.05000000074505806,-0.02500000037252903,-0.02500000037252903,-0.02500000037252903,-0.05000000074505806,-0.0005000000237487257,0.05000000074505806,0.02500000037252903,0.02500000037252903,0.02500000037252903,0.05000000074505806,0.0005000000237487257,-0.05837416104927495,-2.3337021503560416,0.24160745238770048,0.14,0.0,0.26,-0.06151368096470833,0.017022227868437767,0.39219924807548523,0.0,-0.5166862265212835
0.0,54.0,-0.04401583969593048,-0.0024650387931615114,0.0177464559674263,-0.021386871114373207,0.018288932740688324,-0.0002858050283975899,-0.2699670195579529,-1.4105396270751953,0.7237766981124878,-1.2516167163848877,-0.13008920848369598,0.0,-0.31398284435272217,-1.4130046367645264,0.7415231466293335,-1.2730035781860352,-0.11180027574300766,0.003,0.0,0.0,0.0,0.0,0.0,0.0,-3.1,3.1,-1.571,1.571,-1.571,1.571,-1.745,1.745,-2.617,2.617,0.003,0.03,-0.05000000074505806,-0.02500000037252903,-0.02500000037252903,-0.02500000037252903,-0.05000000074505806,-0.0005000000237487257,0.05000000074505806,0.02500000037252903,0.02500000037252903,0.02500000037252903,0.05000000074505806,0.0005000000237487257,-0.057341042783657564,-2.391043193139699,0.23945989806992227,0.14,0.0,0.26,-0.060192663222551346,0.019546041265130043,0.3899303376674652,0.0,-0.5154130362667719
0.0,55.0,0.0289220679551363,-0.0049555241130292416,0.023948829621076584,-0.017221596091985703,-0.044135529547929764,-3.6928813642589375e-05,-0.31398284435272217,-1.4130046367645264,0.7415231466293335,-1.2730035781860352,-0.11180027574300766,0.0,-0.2850607633590698,-1.4179601669311523,0.7654719948768616,-1.2902251482009888,-0.15593580901622772,0.003,0.0,0.0,0.0,0.0,0.0,0.0,-3.1,3.1,-1.571,1.571,-1.571,1.571,-1.745,1.745,-2.617,2.617,0.003,0.03,-0.05000000074505806,-0.02500000037252903,-0.02500000037252903,-0.02500000037252903,-0.05000000074505806,-0.0005000000237487257,0.05000000074505806,0.02500000037252903,0.02500000037252903,0.02500000037252903,0.05000000074505806,0.0005000000237487257,-0.05620336795292015,-2.4472465610926193,0.23707249514214032,0.14,0.0,0.26,-0.05929134786128998,0.017374830320477486,0.38721808791160583,0.0,-0.5729767026676669
0.0,56.0,-0.03817487135529518,-0.013813245110213757,0.014124466106295586,-0.009476560167968273,0.019252756610512733,0.00043435621773824096,-0.2850607633590698,-1.4179601669311523,0.7654719948768616,-1.2902251482009888,-0.15593580901622772,0.0,-0.3232356309890747,-1.4317734241485596,0.7795964479446411,-1.2997016906738281,-0.13668304681777954,0.003,0.0,0.0,0.0,0.0,0.0,0.0,-3.1,3.1,-1.571,1.571,-1.571,1.571,-1.745,1.745,-2.617,2.617,0.003,0.03,-0.05000000074505806,-0.02500000037252903,-0.02500000037252903,-0.02500000037252903,-0.05000000074505806,-0.0005000000237487257,0.05000000074505806,0.02500000037252903,0.02500000037252903,0.02500000037252903,0.05000000074505806,0.0005000000237487257,-0.056174802559007676,-2.503421363651627,0.2370122413695286,0.14,0.0,0.26,-0.0603807307779789,0.02022659219801426,0.38495299220085144,0.0,-0.014460905426816328
0.0,57.0,0.04367075860500336,0.0006136977463029325,0.013774668797850609,0.014252725057303905,0.005167488940060139,-0.00030171580146998167,-0.3232356309890747,-1.4317734241485596,0.7795964479446411,-1.2997016906738281,-0.13668304681777954,0.0,-0.27956485748291016,-1.4311597347259521,0.7933711409568787,-1.2854489088058472,-0.13151556253433228,0.003,0.0,0.0,0.0,0.0,0.0,0.0,-3.1,3.1,-1.571,1.571,-1.571,1.571,-1.745,1.745,-2.617,2.617,0.003,0.03,-0.05000000074505806,-0.02500000037252903,-0.02500000037252903,-0.02500000037252903,-0.05000000074505806,-0.0005000000237487257,0.05000000074505806,0.02500000037252903,0.02500000037252903,0.02500000037252903,0.05000000074505806,0.0005000000237487257,-0.05461388741067481,-2.558035251062302,0.2336961433371865,0.14,0.0,0.26,-0.057043153792619705,0.016376134008169174,0.3845781087875366,0.0,-0.7958635277621018
0.0,58.0,-0.024354925379157066,-0.013582211919128895,-0.015011000446975231,0.009608849883079529,0.01102960854768753,-2.598071841930505e-05,-0.27956485748291016,-1.4311597347259521,0.7933711409568787,-1.2854489088058472,-0.13151556253433228,0.0,-0.30391979217529297,-1.44474196434021,0.77836012840271,-1.2758400440216064,-0.12048595398664474,0.003,0.0,0.0,0.0,0.0,0.0,0.0,-3.1,3.1,-1.571,1.571,-1.571,1.571,-1.745,1.745,-2.617,2.617,0.003,0.03,-0.05000000074505806,-0.02500000037252903,-0.02500000037252903,-0.02500000037252903,-0.05000000074505806,-0.0005000000237487257,0.05000000074505806,0.02500000037252903,0.02500000037252903,0.02500000037252903,0.05000000074505806,0.0005000000237487257,-0.05676928271539188,-2.614804533777694,0.23826305360964356,0.14,0.0,0.26,-0.06178215891122818,0.019377131015062332,0.38521090149879456,0.0,1.0960584653896954
0.0,59.0,-0.0022887748200446367,-0.018842484802007675,0.017667023465037346,0.0055784196592867374,0.03676227852702141,0.00016366875206585974,-0.30391979217529297,-1.44474196434021,0.77836012840271,-1.2758400440216064,-0.12048595398664474,0.0,-0.3062085807323456,-1.4635844230651855,0.7960271239280701,-1.2702616453170776,-0.08372367918491364,0.003,0.0,0.0,0.0,0.0,0.0,0.0,-3.1,3.1,-1.571,1.571,-1.571,1.571,-1.745,1.745,-2.617,2.617,0.003,0.03,-0.05000000074505806,-0.02500000037252903,-0.02500000037252903,-0.02500000037252903,-0.05000000074505806,-0.0005000000237487257,0.05000000074505806,0.02500000037252903,0.02500000037252903,0.02500000037252903,0.05000000074505806,0.0005000000237487257,-0.05653785660388678,-2.671342390381581,0.2377769051104139,0.14,0.0,0.26,-0.06254572421312332,0.01977396197617054,0.382971853017807,0.0,-0.11667563981511586
0.0,60.0,-0.03468559682369232,0.019830437377095222,-0.00820632092654705,0.012307364493608475,-0.002642536535859108,-1.1202597306692041e-05,-0.3062085807323456,-1.4635844230651855,0.7960271239280701,-1.2702616453170776,-0.08372367918491364,0.0,-0.3408941626548767,-1.443753957748413,0.7878208160400391,-1.2579542398452759,-0.0863662138581276,0.003,0.0,0.0,0.0,0.0,0.0,0.0,-3.1,3.1,-1.571,1.571,-1.571,1.571,-1.745,1.745,-2.617,2.617,0.003,0.03,-0.05000000074505806,-0.02500000037252903,-0.02500000037252903,-0.02500000037252903,-0.05000000074505806,-0.0005000000237487257,0.05000000074505806,0.02500000037252903,0.02500000037252903,0.02500000037252903,0.05000000074505806,0.0005000000237487257,-0.055017496333964314,-2.7263598867155454,0.23455808733438357,0.14,0.0,0.26,-0.05723912641406059,0.020305193960666656,0.38530731201171875,0.0,-0.7725162662472806
0.0,61.0,0.02672382816672325,0.005941213574260473,-0.014543899334967136,0.011782389134168625,-0.01051231101155281,0.00010085089161293581,-0.3408941626548767,-1.443753957748413,0.7878208160400391,-1.2579542398452759,-0.0863662138581276,0.0,-0.31417033076286316,-1.4378126859664917,0.7732769250869751,-1.2461718320846558,-0.0968785285949707,0.003,0.0,0.0,0.0,0.0,0.0,0.0,-3.1,3.1,-1.571,1.571,-1.571,1.571,-1.745,1.745,-2.617,2.617,0.003,0.03,-0.05000000074505806,-0.02500000037252903,-0.02500000037252903,-0.02500000037252903,-0.05000000074505806,-0.0005000000237487257,0.05000000074505806,0.02500000037252903,0.02500000037252903,0.02500000037252903,0.05000000074505806,0.0005000000237487257,-0.05564494158699578,-2.7820048283025414,0.2358918005929748,0.14,0.0,0.26,-0.057773277163505554,0.01877238228917122,0.38719382882118225,0.0,0.32009118206189235
0.0,62.0,0.015624888241291046,0.0031592317391186953,-0.004835832864046097,0.011077734641730785,0.04022699221968651,-0.0002545967872720212,-0.31417033076286316,-1.4378126859664917,0.7732769250869751,-1.2461718320846558,-0.0968785285949707,0.0,-0.2985454499721527,-1.434653401374817,0.7684410810470581,-1.2350940704345703,-0.056651536375284195,0.003,0.0,0.0,0.0,0.0,0.0,0.0,-3.1,3.1,-1.571,1.571,-1.571,1.571,-1.745,1.745,-2.617,2.617,0.003,0.03,-0.05000000074505806,-0.02500000037252903,-0.02500000037252903,-0.02500000037252903,-0.05000000074505806,-0.0005000000237487257,0.05000000074505806,0.02500000037252903,0.02500000037252903,0.02500000037252903,0.05000000074505806,0.0005000000237487257,-0.05555230691866989,-2.8375571352212114,0.23569536889525405,0.14,0.0,0.26,-0.057026565074920654,0.017549538984894753,0.38815948367118835,0.0,-0.04714360745297741
0.0,63.0,0.040700338780879974,0.009742842987179756,-0.01697339490056038,-0.002518506022170186,0.017997514456510544,0.00014026611461304128,-0.2985454499721527,-1.434653401374817,0.7684410810470581,-1.2350940704345703,-0.056651536375284195,0.0,-0.25784510374069214,-1.424910545349121,0.7514677047729492,-1.2376126050949097,-0.03865402191877365,0.003,0.0,0.0,0.0,0.0,0.0,0.0,-3.1,3.1,-1.571,1.571,-1.571,1.571,-1.745,1.745,-2.617,2.617,0.003,0.03,-0.05000000074505806,-0.02500000037252903,-0.02500000037252903,-0.02500000037252903,-0.05000000074505806,-0.0005000000237487257,0.05000000074505806,0.02500000037252903,0.02500000037252903,0.02500000037252903,0.05000000074505806,0.0005000000237487257,-0.05659198875989551,-2.894149123981107,0.23789070759467573,0.14,0.0,0.26,-0.05869104713201523,0.015477737411856651,0.3899011015892029,0.0,0.5268812878612028
0.0,64.0,-0.00025471855769865215,0.02101830020546913,-0.022551627829670906,0.020434429869055748,-0.03960036486387253,6.475497502833605e-05,-0.25784510374069214,-1.424910545349121,0.7514677047729492,-1.2376126050949097,-0.03865402191877365,0.0,-0.25809982419013977,-1.4038922786712646,0.7289160490036011,-1.217178225517273,-0.07825438678264618,0.003,0.0,0.0,0.0,0.0,0.0,0.0,-3.1,3.1,-1.571,1.571,-1.571,1.571,-1.745,1.745,-2.617,2.617,0.003,0.03,-0.05000000074505806,-0.02500000037252903,-0.02500000037252903,-0.02500000037252903,-0.05000000074505806,-0.0005000000237487257,0.05000000074505806,0.02500000037252903,0.02500000037252903,0.02500000037252903,0.05000000074505806,0.0005000000237487257,-0.05624318866677452,-2.9503923126478813,0.23715646452663802,0.14,0.0,0.26,-0.05542144551873207,0.014630592428147793,0.39356493949890137,0.0,-0.17621833632905037
0.0,65.0,-0.017633404582738876,0.015798797830939293,-0.0004835381405428052,-0.02323674038052559,-0.012961583212018013,-0.00035646973992697895,-0.25809982419013977,-1.4038922786712646,0.7289160490036011,-1.217178225517273,-0.07825438678264618,0.0,-0.27573323249816895,-1.3880934715270996,0.7284325361251831,-1.2404149770736694,-0.09121596813201904,0.003,0.0,0.0,0.0,0.0,0.0,0.0,-3.1,3.1,-1.571,1.571,-1.571,1.571,-1.745,1.745,-2.617,2.617,0.003,0.03,-0.05000000074505806,-0.02500000037252903,-0.02500000037252903,-0.02500000037252903,-0.05000000074505806,-0.0005000000237487257,0.05000000074505806,0.02500000037252903,0.02500000037252903,0.02500000037252903,0.05000000074505806,0.0005000000237487257,-0.055567076997098244,-3.0059593896449797,0.23572669979681607,0.14,0.0,0.26,-0.053588662296533585,0.015162396244704723,0.3936435878276825,0.0,-0.3431435351572687
0.0,66.0,-0.01621764898300171,-0.020394543185830116,-0.0006137080490589142,0.012826896272599697,-0.016298487782478333,0.0003322742413729429,-0.27573323249816895,-1.3880934715270996,0.7284325361251831,-1.2404149770736694,-0.09121596813201904,0.0,-0.29195088148117065,-1.4084880352020264,0.7278188467025757,-1.2275880575180054,-0.10751445591449738,0.003,0.0,0.0,0.0,0.0,0.0,0.0,-3.1,3.1,-1.571,1.571,-1.571,1.571,-1.745,1.745,-2.617,2.617,0.003,0.03,-0.05000000074505806,-0.02500000037252903,-0.02500000037252903,-0.02500000037252903,-0.05000000074505806,-0.0005000000237487257,0.05000000074505806,0.02500000037252903,0.02500000037252903,0.02500000037252903,0.05000000074505806,0.0005000000237487257,-0.05693584530353956,-3.062895234948519,0.23861233267276769,0.14,0.0,0.26,-0.05736284330487251,0.017239751294255257,0.39299076795578003,0.0,0.6925518902283878
0.0,67.0,0.041505031287670135,0.02208511158823967,0.020981261506676674,0.01251111552119255,-0.0038678240962326527,-3.937118890462443e-05,-0.29195088148117065,-1.4084880352020264,0.7278188467025757,-1.2275880575180054,-0.10751445591449738,0.0,-0.2504458427429199,-1.38640296459198,0.7488000988960266,-1.2150769233703613,-0.11138228327035904,0.003,0.0,0.0,0.0,0.0,0.0,0.0,-3.1,3.1,-1.571,1.571,-1.571,1.571,-1.745,1.745,-2.617,2.617,0.003,0.03,-0.05000000074505806,-0.02500000037252903,-0.02500000037252903,-0.02500000037252903,-0.05000000074505806,-0.0005000000237487257,0.05000000074505806,0.02500000037252903,0.02500000037252903,0.02500000037252903,0.05000000074505806,0.0005000000237487257,-0.05279808132374739,-3.1156933162722664,0.22977833084028482,0.14,0.0,0.26,-0.04698774963617325,0.012020259164273739,0.39300066232681274,0.0,-2.1201604397958884
0.0,68.0,0.008946237154304981,-0.015262873843312263,0.013250753283500671,-0.006702069658786058,-0.036191511899232864,-0.00045283033978194,-0.2504458427429199,-1.38640296459198,0.7488000988960266,-1.2150769233703613,-0.11138228327035904,0.0,-0.24149960279464722,-1.4016658067703247,0.7620508670806885,-1.2217789888381958,-0.1475737988948822,0.003,0.0,0.0,0.0,0.0,0.0,0.0,-3.1,3.1,-1.571,1.571,-1.571,1.571,-1.745,1.745,-2.617,2.617,0.003,0.03,-0.05000000074505806,-0.02500000037252903,-0.02500000037252903,-0.02500000037252903,-0.05000000074505806,-0.0005000000237487257,0.05000000074505806,0.02500000037252903,0.02500000037252903,0.02500000037252903,0.05000000074505806,0.0005000000237487257,-0.05311372633719836,-3.168807042609465,0.23046415412640284,0.14,0.0,0.26,-0.04926223307847977,0.012133617885410786,0.3909439146518707,0.0,0.16459758866832486
0.0,69.0,-0.03488265722990036,-0.020445896312594414,-0.021776098757982254,-0.0009241446387022734,-0.008036660961806774,0.00023177334514912218,-0.24149960279464722,-1.4016658067703247,0.7620508670806885,-1.2217789888381958,-0.1475737988948822,0.0,-0.2763822674751282,-1.4221117496490479,0.7402747869491577,-1.2227030992507935,-0.15561045706272125,0.003,0.0,0.0,0.0,0.0,0.0,0.0,-3.1,3.1,-1.571,1.571,-1.571,1.571,-1.745,1.745,-2.617,2.617,0.003,0.03,-0.05000000074505806,-0.02500000037252903,-0.02500000037252903,-0.02500000037252903,-0.05000000074505806,-0.0005000000237487257,0.05000000074505806,0.02500000037252903,0.02500000037252903,0.02500000037252903,0.05000000074505806,0.0005000000237487257,-0.056855631603662,-3.225662674213127,0.238444189704136,0.14,0.0,0.26,-0.05825120583176613,0.01652245968580246,0.3914499878883362,0.0,1.9152085386559592
0.0,70.0,0.04993673786520958,0.013857746496796608,-0.016764145344495773,-0.004622323904186487,-0.023389145731925964,0.0002025906869675964,-0.2763822674751282,-1.4221117496490479,0.7402747869491577,-1.2227030992507935,-0.15561045706272125,0.0,-0.2264455258846283,-1.4082540273666382,0.7235106229782104,-1.227325439453125,-0.17899960279464722,0.003,0.0,0.0,0.0,0.0,0.0,0.0,-3.1,3.1,-1.571,1.571,-1.571,1.571,-1.745,1.745,-2.617,2.617,0.003,0.03,-0.05000000074505806,-0.02500000037252903,-0.02500000037252903,-0.02500000037252903,-0.05000000074505806,-0.0005000000237487257,0.05000000074505806,0.02500000037252903,0.02500000037252903,0.02500000037252903,0.05000000074505806,0.0005000000237487257,-0.05760553162758666,-3.2832682058407134,0.24001152394746936,0.14,0.0,0.26,-0.05910899490118027,0.01361854188144207,0.39332544803619385,0.0,0.3761602184000057
0.0,71.0,0.012491125613451004,0.00482505839318037,0.0019704613368958235,0.017842847853899002,0.04892614483833313,-0.0004917731275781989,-0.2264455258846283,-1.4082540273666382,0.7235106229782104,-1.227325439453125,-0.17899960279464722,0.0,-0.2139544039964676,-1.4034289121627808,0.7254810929298401,-1.2094825506210327,-0.1300734579563141,0.003,0.0,0.0,0.0,0.0,0.0,0.0,-3.1,3.1,-1.571,1.571,-1.571,1.571,-1.745,1.745,-2.617,2.617,0.003,0.03,-0.05000000074505806,-0.02500000037252903,-0.02500000037252903,-0.02500000037252903,-0.05000000074505806,-0.0005000000237487257,0.05000000074505806,0.02500000037252903,0.02500000037252903,0.02500000037252903,0.05000000074505806,0.0005000000237487257,-0.056449182813501815,-3.3397173886542153,0.23759036767828323,0.14,0.0,0.26,-0.05573716387152672,0.012110571376979351,0.3941248655319214,0.0,-0.5810775046046701
0.0,72.0,0.03160717710852623,0.0069883414544165134,0.010535945184528828,0.009822992607951164,-0.03128984570503235,0.0003029417712241411,-0.2139544039964676,-1.4034289121627808,0.7254810929298401,-1.2094825506210327,-0.1300734579563141,0.0,-0.18234722316265106,-1.3964406251907349,0.7360170483589172,-1.1996595859527588,-0.16136330366134644,0.003,0.0,0.0,0.0,0.0,0.0,0.0,-3.1,3.1,-1.571,1.571,-1.571,1.571,-1.745,1.745,-2.617,2.617,0.003,0.03,-0.05000000074505806,-0.02500000037252903,-0.02500000037252903,-0.02500000037252903,-0.05000000074505806,-0.0005000000237487257,0.05000000074505806,0.02500000037252903,0.02500000037252903,0.02500000037252903,0.05000000074505806,0.0005000000237487257,-0.054587574442094576,-3.39430496309631,0.23363983915868153,0.14,0.0,0.26,-0.0511418953537941,0.009430335834622383,0.3940276801586151,0.0,-0.9481268447044089
0.0,73.0,0.023007160052657127,-0.013788423500955105,0.006541114300489426,-0.005565097089856863,0.026737328618764877,0.00043181475484743714,-0.18234722316265106,-1.3964406251907349,0.7360170483589172,-1.1996595859527588,-0.16136330366134644,0.0,-0.15934006869792938,-1.4102290868759155,0.7425581812858582,-1.205224633216858,-0.13462597131729126,0.003,0.0,0.0,0.0,0.0,0.0,0.0,-3.1,3.1,-1.571,1.571,-1.571,1.571,-1.745,1.745,-2.617,2.617,0.003,0.03,-0.05000000074505806,-0.02500000037252903,-0.02500000037252903,-0.02500000037252903,-0.05000000074505806,-0.0005000000237487257,0.05000000074505806,0.02500000037252903,0.02500000037252903,0.02500000037252903,0.05000000074505806,0.0005000000237487257,-0.055419568321745605,-3.4497245314180556,0.23541361116499956,0.14,0.0,0.26,-0.05432717874646187,0.008730508387088776,0.3925907015800476,0.0,0.4257052815163287
0.0,74.0,0.036778371781110764,0.024449802935123444,-0.0024270485155284405,0.0010790079832077026,0.002527480013668537,-0.00025476052542217076,-0.15934006869792938,-1.4102290868759155,0.7425581812858582,-1.205224633216858,-0.13462597131729126,0.0,-0.12256169319152832,-1.3857792615890503,0.740131139755249,-1.2041456699371338,-0.1320984959602356,0.003,0.0,0.0,0.0,0.0,0.0,0.0,-3.1,3.1,-1.571,1.571,-1.571,1.571,-1.745,1.745,-2.617,2.617,0.003,0.03,-0.05000000074505806,-0.02500000037252903,-0.02500000037252903,-0.02500000037252903,-0.05000000074505806,-0.0005000000237487257,0.05000000074505806,0.02500000037252903,0.02500000037252903,0.02500000037252903,0.05000000074505806,0.0005000000237487257,-0.053530855549907275,-3.503255386967963,0.231367360597616,0.14,0.0,0.26,-0.04845514893531799,0.005968661047518253,0.39408910274505615,0.0,-0.9711001361720539
0.0,75.0,0.006043106317520142,0.015728458762168884,0.02262253686785698,-0.018536418676376343,-0.011448385193943977,-0.00014236490824259818,-0.12256169319152832,-1.3857792615890503,0.740131139755249,-1.2041456699371338,-0.1320984959602356,0.0,-0.11651858687400818,-1.3700507879257202,0.7627536654472351,-1.2226821184158325,-0.14354687929153442,0.003,0.0,0.0,0.0,0.0,0.0,0.0,-3.1,3.1,-1.571,1.571,-1.571,1.571,-1.745,1.745,-2.617,2.617,0.003,0.03,-0.05000000074505806,-0.02500000037252903,-0.02500000037252903,-0.02500000037252903,-0.05000000074505806,-0.0005000000237487257,0.05000000074505806,0.02500000037252903,0.02500000037252903,0.02500000037252903,0.05000000074505806,0.0005000000237487257,-0.05065176533089651,-3.5539071522988595,0.2250594706536397,0.14,0.0,0.26,-0.04198133200407028,0.004913863260298967,0.3923269212245941,0.0,-1.5138935865543113
0.0,76.0,0.012557926587760448,0.018367070704698563,-0.012050016783177853,0.021346310153603554,0.04894227907061577,-0.0004246898752171546,-0.11651858687400818,-1.3700507879257202,0.7627536654472351,-1.2226821184158325,-0.14354687929153442,0.0,-0.10396066308021545,-1.3516837358474731,0.7507036328315735,-1.2013357877731323,-0.09460459649562836,0.003,0.0,0.0,0.0,0.0,0.0,0.0,-3.1,3.1,-1.571,1.571,-1.571,1.571,-1.745,1.745,-2.617,2.617,0.003,0.03,-0.05000000074505806,-0.02500000037252903,-0.02500000037252903,-0.02500000037252903,-0.05000000074505806,-0.0005000000237487257,0.05000000074505806,0.02500000037252903,0.02500000037252903,0.02500000037252903,0.05000000074505806,0.0005000000237487257,-0.04952092749284353,-3.603428079791703,0.22253298068565822,0.14,0.0,0.26,-0.037074167281389236,0.0038682008162140846,0.3947245478630066,0.0,-0.6063575923155584
0.0,77.0,-0.03872201591730118,0.019675107672810555,0.006548467557877302,0.020315324887633324,0.009357515722513199,0.00045039330143481493,-0.10396066308021545,-1.3516837358474731,0.7507036328315735,-1.2013357877731323,-0.09460459649562836,0.0,-0.14268267154693604,-1.3320086002349854,0.7572520971298218,-1.1810204982757568,-0.08524708449840546,0.003,0.0,0.0,0.0,0.0,0.0,0.0,-3.1,3.1,-1.571,1.571,-1.571,1.571,-1.745,1.745,-2.617,2.617,0.003,0.03,-0.05000000074505806,-0.02500000037252903,-0.02500000037252903,-0.02500000037252903,-0.05000000074505806,-0.0005000000237487257,0.05000000074505806,0.02500000037252903,0.02500000037252903,0.02500000037252903,0.05000000074505806,0.0005000000237487257,-0.04657842585356444,-3.6500065056452677,0.21582035551255224,0.14,0.0,0.26,-0.028149062767624855,0.00404386268928647,0.39523300528526306,0.0,-1.6110300415454337
0.0,78.0,0.04338507726788521,0.014323150739073753,0.017845239490270615,-0.007138485088944435,-0.04564841464161873,0.00016114483878482133,-0.14268267154693604,-1.3320086002349854,0.7572520971298218,-1.1810204982757568,-0.08524708449840546,0.0,-0.09929759800434113,-1.3176854848861694,0.7750973105430603,-1.1881589889526367,-0.1308954954147339,0.003,0.0,0.0,0.0,0.0,0.0,0.0,-3.1,3.1,-1.571,1.571,-1.571,1.571,-1.745,1.745,-2.617,2.617,0.003,0.03,-0.05000000074505806,-0.02500000037252903,-0.02500000037252903,-0.02500000037252903,-0.05000000074505806,-0.0005000000237487257,0.05000000074505806,0.02500000037252903,0.02500000037252903,0.02500000037252903,0.05000000074505806,0.0005000000237487257,-0.0440863259803856,-3.694092831625653,0.20996744028631106,0.14,0.0,0.26,-0.021918950602412224,0.0021836808882653713,0.39365556836128235,0.0,-1.404699654297883
0.0,79.0,0.018520323559641838,0.013111677952110767,0.011975833214819431,-0.010995914228260517,-0.029370728880167007,-0.00020300663891248405,-0.09929759800434113,-1.3176854848861694,0.7750973105430603,-1.1881589889526367,-0.1308954954147339,0.0,-0.08077727258205414,-1.3045737743377686,0.7870731353759766,-1.1991548538208008,-0.1602662205696106,0.003,0.0,0.0,0.0,0.0,0.0,0.0,-3.1,3.1,-1.571,1.571,-1.571,1.571,-1.745,1.745,-2.617,2.617,0.003,0.03,-0.05000000074505806,-0.02500000037252903,-0.02500000037252903,-0.02500000037252903,-0.05000000074505806,-0.0005000000237487257,0.05000000074505806,0.02500000037252903,0.02500000037252903,0.02500000037252903,0.05000000074505806,0.0005000000237487257,-0.04235026068311183,-3.736443092308765,0.20579178963970315,0.14,0.0,0.26,-0.017484629526734352,0.0014154405798763037,0.3924645185470581,0.0,-1.0021561551858982
0.0,80.0,0.01849106326699257,0.008551686070859432,0.015766829252243042,-0.008110452443361282,-0.03400196507573128,0.0002975115494336933,-0.08077727258205414,-1.3045737743377686,0.7870731353759766,-1.1991548538208008,-0.1602662205696106,0.0,-0.06228620931506157,-1.2960220575332642,0.802839994430542,-1.2072652578353882,-0.19426818192005157,0.003,0.0,0.0,0.0,0.0,0.0,0.0,-3.1,3.1,-1.571,1.571,-1.571,1.571,-1.745,1.745,-2.617,2.617,0.003,0.03,-0.05000000074505806,-0.02500000037252903,-0.02500000037252903,-0.02500000037252903,-0.05000000074505806,-0.0005000000237487257,0.05000000074505806,0.02500000037252903,0.02500000037252903,0.02500000037252903,0.05000000074505806,0.0005000000237487257,-0.04059402382103165,-3.777037116129797,0.2014795866112288,0.14,0.0,0.26,-0.013283568434417248,0.0008284547366201878,0.39075735211372375,0.0,-1.0349287268338436
0.0,81.0,0.04354590177536011,0.010070014744997025,0.013806883245706558,0.02124764770269394,0.04290233179926872,-0.00017205570475198328,-0.06228620931506157,-1.2960220575332642,0.802839994430542,-1.2072652578353882,-0.19426818192005157,0.0,-0.018740307539701462,-1.285952091217041,0.8166468739509583,-1.186017632484436,-0.15136584639549255,0.003,0.0,0.0,0.0,0.0,0.0,0.0,-3.1,3.1,-1.571,1.571,-1.571,1.571,-1.745,1.745,-2.617,2.617,0.003,0.03,-0.05000000074505806,-0.02500000037252903,-0.02500000037252903,-0.02500000037252903,-0.05000000074505806,-0.0005000000237487257,0.05000000074505806,0.02500000037252903,0.02500000037252903,0.02500000037252903,0.05000000074505806,0.0005000000237487257,-0.03802180470176952,-3.815058920831566,0.19499180675548786,0.14,0.0,0.26,-0.005739982705563307,0.00010758163261925802,0.3895440101623535,0.0,-1.5570671653778279
0.0,82.0,0.00418533431366086,-0.021215073764324188,0.008009863086044788,-0.01963389478623867,-0.03835735842585564,-0.000422282493673265,-0.018740307539701462,-1.285952091217041,0.8166468739509583,-1.186017632484436,-0.15136584639549255,0.0,-0.014554973691701889,-1.3071671724319458,0.8246567249298096,-1.2056515216827393,-0.1897232085466385,0.003,0.0,0.0,0.0,0.0,0.0,0.0,-3.1,3.1,-1.571,1.571,-1.571,1.571,-1.745,1.745,-2.617,2.617,0.003,0.03,-0.05000000074505806,-0.02500000037252903,-0.02500000037252903,-0.02500000037252903,-0.05000000074505806,-0.0005000000237487257,0.05000000074505806,0.02500000037252903,0.02500000037252903,0.02500000037252903,0.05000000074505806,0.0005000000237487257,-0.03958446232371819,-3.854643383155284,0.19895844371053517,0.14,0.0,0.26,-0.012141086161136627,0.00017672567628324032,0.38820889592170715,0.0,0.9519928692113555
0.0,83.0,0.02628110535442829,0.007822122424840927,-0.006318892352283001,0.0056577217765152454,0.04496682435274124,0.0002926122397184372,-0.014554973691701889,-1.3071671724319458,0.8246567249298096,-1.2056515216827393,-0.1897232085466385,0.0,0.011726131662726402,-1.2993450164794922,0.8183378577232361,-1.1999938488006592,-0.14475637674331665,0.003,0.0,0.0,0.0,0.0,0.0,0.0,-3.1,3.1,-1.571,1.571,-1.571,1.571,-1.745,1.745,-2.617,2.617,0.003,0.03,-0.05000000074505806,-0.02500000037252903,-0.02500000037252903,-0.02500000037252903,-0.05000000074505806,-0.0005000000237487257,0.05000000074505806,0.02500000037252903,0.02500000037252903,0.02500000037252903,0.05000000074505806,0.0005000000237487257,-0.03933425850821591,-3.8939776416635,0.19832866285087467,0.14,0.0,0.26,-0.010570401325821877,-0.0001239556004293263,0.38908445835113525,0.0,-0.15114740631852142
0.0,84.0,-0.03195929154753685,-0.01984417624771595,-0.006892560049891472,0.008713080547749996,0.03720672056078911,2.866334943973925e-05,0.011726131662726402,-1.2993450164794922,0.8183378577232361,-1.1999938488006592,-0.14475637674331665,0.0,-0.020233159884810448,-1.319189190864563,0.8114452958106995,-1.191280722618103,-0.10754965245723724,0.003,0.0,0.0,0.0,0.0,0.0,0.0,-3.1,3.1,-1.571,1.571,-1.571,1.571,-1.745,1.745,-2.617,2.617,0.003,0.03,-0.05000000074505806,-0.02500000037252903,-0.02500000037252903,-0.02500000037252903,-0.05000000074505806,-0.0005000000237487257,0.05000000074505806,0.02500000037252903,0.02500000037252903,0.02500000037252903,0.05000000074505806,0.0005000000237487257,-0.04118245896363416,-3.9351601006271344,0.20293461745999414,0.14,0.0,0.26,-0.01607225276529789,0.00032523684785701334,0.3897066116333008,0.0,1.1054291061886734
0.0,85.0,-0.04262494295835495,0.004000143613666296,0.01629999466240406,0.014397223480045795,0.03631317988038063,0.00024085937184281647,-0.020233159884810448,-1.319189190864563,0.8114452958106995,-1.191280722618103,-0.10754965245723724,0.0,-0.06285810470581055,-1.315189003944397,0.8277453184127808,-1.1768834590911865,-0.07123647630214691,0.003,0.0,0.0,0.0,0.0,0.0,0.0,-3.1,3.1,-1.571,1.571,-1.571,1.571,-1.745,1.745,-2.617,2.617,0.003,0.03,-0.05000000074505806,-0.02500000037252903,-0.02500000037252903,-0.02500000037252903,-0.05000000074505806,-0.0005000000237487257,0.05000000074505806,0.02500000037252903,0.02500000037252903,0.02500000037252903,0.05000000074505806,0.0005000000237487257,-0.03903417313715916,-3.9741942737642937,0.19757067883964755,0.14,0.0,0.26,-0.010401131585240364,0.0006546578370034695,0.38811418414115906,0.0,-1.2873452688831821
0.0,86.0,0.022519830614328384,0.019566254690289497,0.011677042581140995,0.02417638711631298,-0.009736431762576103,0.00042039158870466053,-0.06285810470581055,-1.315189003944397,0.8277453184127808,-1.1768834590911865,-0.07123647630214691,0.0,-0.04033827409148216,-1.295622706413269,0.839422345161438,-1.1527070999145508,-0.08097290992736816,0.003,0.0,0.0,0.0,0.0,0.0,0.0,-3.1,3.1,-1.571,1.571,-1.571,1.571,-1.745,1.745,-2.617,2.617,0.003,0.03,-0.05000000074505806,-0.02500000037252903,-0.02500000037252903,-0.02500000037252903,-0.05000000074505806,-0.0005000000237487257,0.05000000074505806,0.02500000037252903,0.02500000037252903,0.02500000037252903,0.05000000074505806,0.0005000000237487257,-0.035853937060326614,-4.01004821082462,0.1893513587496182,0.14,0.0,0.26,-0.0004336670390330255,1.750287447066512e-05,0.3870130777359009,0.0,-1.9726368216070433
0.0,87.0,0.006508171558380127,-0.00652339169755578,0.02279171347618103,-0.012741816230118275,-0.0003282546531409025,0.000242685986449942,-0.04033827409148216,-1.295622706413269,0.839422345161438,-1.1527070999145508,-0.08097290992736816,0.0,-0.033830102533102036,-1.302146077156067,0.8622140884399414,-1.1654489040374756,-0.08130116760730743,0.003,0.0,0.0,0.0,0.0,0.0,0.0,-3.1,3.1,-1.571,1.571,-1.571,1.571,-1.745,1.745,-2.617,2.617,0.003,0.03,-0.05000000074505806,-0.02500000037252903,-0.02500000037252903,-0.02500000037252903,-0.05000000074505806,-0.0005000000237487257,0.05000000074505806,0.02500000037252903,0.02500000037252903,0.02500000037252903,0.05000000074505806,0.0005000000237487257,-0.03489314674121464,-4.044941357565835,0.18679707369553367,0.14,0.0,0.26,0.0004182345874141902,-1.4154319615045097e-05,0.3841373324394226,0.0,-0.6130284129802877
0.0,88.0,-0.004504657816141844,0.01700257696211338,-0.017185457050800323,0.016620714217424393,0.04086173325777054,-0.0004998182412236929,-0.033830102533102036,-1.302146077156067,0.8622140884399414,-1.1654489040374756,-0.08130116760730743,0.0,-0.03833476081490517,-1.285143494606018,0.8450286388397217,-1.148828148841858,-0.040439434349536896,0.003,0.0,0.0,0.0,0.0,0.0,0.0,-3.1,3.1,-1.571,1.571,-1.571,1.571,-1.745,1.745,-2.617,2.617,0.003,0.03,-0.05000000074505806,-0.02500000037252903,-0.02500000037252903,-0.02500000037252903,-0.05000000074505806,-0.0005000000237487257,0.05000000074505806,0.02500000037252903,0.02500000037252903,0.02500000037252903,0.05000000074505806,0.0005000000237487257,-0.034521797760211435,-4.079463155326047,0.1858004245426028,0.14,0.0,0.26,0.0037359287962317467,-0.00014328613178804517,0.3863086700439453,0.0,-0.23919579670341085
0.0,89.0,0.01715945079922676,0.020827535539865494,0.004591944627463818,0.015745488926768303,-0.019516071304678917,0.0001546276907902211,-0.03833476081490517,-1.285143494606018,0.8450286388397217,-1.148828148841858,-0.040439434349536896,0.0,-0.021175310015678406,-1.2643159627914429,0.8496205806732178,-1.133082628250122,-0.05995550751686096,0.003,0.0,0.0,0.0,0.0,0.0,0.0,-3.1,3.1,-1.571,1.571,-1.571,1.571,-1.745,1.745,-2.617,2.617,0.003,0.03,-0.05000000074505806,-0.02500000037252903,-0.02500000037252903,-0.02500000037252903,-0.05000000074505806,-0.0005000000237487257,0.05000000074505806,0.02500000037252903,0.02500000037252903,0.02500000037252903,0.05000000074505806,0.0005000000237487257,-0.03220532319125134,-4.111668478517298,0.17945841632882906,0.14,0.0,0.26,0.011769799515604973,-0.00024926639162003994,0.3855479061603546,0.0,-1.5220819713056954
0.0,90.0,0.008845660835504532,0.008679631166160107,0.008718393743038177,-0.020236786454916,-0.025923913344740868,0.0001702403969829902,-0.021175310015678406,-1.2643159627914429,0.8496205806732178,-1.133082628250122,-0.05995550751686096,0.0,-0.012329649180173874,-1.2556363344192505,0.8583389520645142,-1.1533193588256836,-0.08587942272424698,0.003,0.0,0.0,0.0,0.0,0.0,0.0,-3.1,3.1,-1.571,1.571,-1.571,1.571,-1.745,1.745,-2.617,2.617,0.003,0.03,-0.05000000074505806,-0.02500000037252903,-0.02500000037252903,-0.02500000037252903,-0.05000000074505806,-0.0005000000237487257,0.05000000074505806,0.02500000037252903,0.02500000037252903,0.02500000037252903,0.05000000074505806,0.0005000000237487257,-0.03153679135838998,-4.143205269875688,0.17758601115625627,0.14,0.0,0.26,0.013198113068938255,-0.00016273635264951736,0.3843303918838501,0.0,-0.44937724141746793
0.0,91.0,0.010304735042154789,0.0013385992497205734,-0.01732003130018711,-0.006825161632150412,-0.04963250458240509,0.0004813294217456132,-0.012329649180173874,-1.2556363344192505,0.8583389520645142,-1.1533193588256836,-0.08587942272424698,0.0,-0.002024914138019085,-1.2542977333068848,0.8410189151763916,-1.160144567489624,-0.13551193475723267,0.003,0.0,0.0,0.0,0.0,0.0,0.0,-3.1,3.1,-1.571,1.571,-1.571,1.571,-1.745,1.745,-2.617,2.617,0.003,0.03,-0.05000000074505806,-0.02500000037252903,-0.02500000037252903,-0.02500000037252903,-0.05000000074505806,-0.0005000000237487257,0.05000000074505806,0.02500000037252903,0.02500000037252903,0.02500000037252903,0.05000000074505806,0.0005000000237487257,-0.03297608911486538,-4.176181358990553,0.18159319677472882,0.14,0.0,0.26,0.009813386015594006,-1.9871291442541406e-05,0.38659989833831787,0.0,0.9617245484334114
0.0,92.0,0.04856118932366371,0.007753763813525438,0.006265813950449228,0.006030519958585501,-0.026053670793771744,0.00043534202268347144,-0.002024914138019085,-1.2542977333068848,0.8410189151763916,-1.160144567489624,-0.13551193475723267,0.0,0.04653627425432205,-1.2465440034866333,0.847284734249115,-1.154114007949829,-0.1615656018257141,0.003,0.0,0.0,0.0,0.0,0.0,0.0,-3.1,3.1,-1.571,1.571,-1.571,1.571,-1.745,1.745,-2.617,2.617,0.003,0.03,-0.05000000074505806,-0.02500000037252903,-0.02500000037252903,-0.02500000037252903,-0.05000000074505806,-0.0005000000237487257,0.05000000074505806,0.02500000037252903,0.02500000037252903,0.02500000037252903,0.05000000074505806,0.0005000000237487257,-0.031777407875164046,-4.207958766865717,0.17826218857392065,0.14,0.0,0.26,0.013583097606897354,0.0006325634312815964,0.38568124175071716,0.0,-0.7994419681939613
0.0,93.0,0.0022777607664465904,0.01642865501344204,-0.018569687381386757,-0.015060529112815857,-0.044860221445560455,0.00037331500789150596,0.04653627425432205,-1.2465440034866333,0.847284734249115,-1.154114007949829,-0.1615656018257141,0.0,0.04881403595209122,-1.230115294456482,0.8287150263786316,-1.1691745519638062,-0.20642581582069397,0.003,0.0,0.0,0.0,0.0,0.0,0.0,-3.1,3.1,-1.571,1.571,-1.571,1.571,-1.745,1.745,-2.617,2.617,0.003,0.03,-0.05000000074505806,-0.02500000037252903,-0.02500000037252903,-0.02500000037252903,-0.05000000074505806,-0.0005000000237487257,0.05000000074505806,0.02500000037252903,0.02500000037252903,0.02500000037252903,0.05000000074505806,0.0005000000237487257,-0.032493033053332135,-4.240451799919049,0.18025823990412237,0.14,0.0,0.26,0.013005140237510204,0.0006353380740620196,0.38792550563812256,0.0,0.4790523192484142
0.0,94.0,-0.02793831005692482,0.008162646554410458,-0.001994171878322959,2.7804380806628615e-05,0.01424864586442709,0.0004515498294495046,0.04881403595209122,-1.230115294456482,0.8287150263786316,-1.1691745519638062,-0.20642581582069397,0.0,0.020875725895166397,-1.2219526767730713,0.8267208337783813,-1.1691467761993408,-0.1921771764755249,0.003,0.0,0.0,0.0,0.0,0.0,0.0,-3.1,3.1,-1.571,1.571,-1.571,1.571,-1.745,1.745,-2.617,2.617,0.003,0.03,-0.05000000074505806,-0.02500000037252903,-0.02500000037252903,-0.02500000037252903,-0.05000000074505806,-0.0005000000237487257,0.05000000074505806,0.02500000037252903,0.02500000037252903,0.02500000037252903,0.05000000074505806,0.0005000000237487257,-0.03207069034513268,-4.2725224902641825,0.1790829147214571,0.14,0.0,0.26,0.014829181134700775,0.0003096149011980742,0.3880736529827118,0.0,-0.2820780438396664
0.0,95.0,0.009985682554543018,0.02173469215631485,0.017967142164707184,0.004896178841590881,0.02839840017259121,-0.0003730021708179265,0.020875725895166397,-1.2219526767730713,0.8267208337783813,-1.1691467761993408,-0.1921771764755249,0.0,0.03086140751838684,-1.2002179622650146,0.8446879982948303,-1.1642506122589111,-0.16377878189086914,0.003,0.0,0.0,0.0,0.0,0.0,0.0,-3.1,3.1,-1.571,1.571,-1.571,1.571,-1.745,1.745,-2.617,2.617,0.003,0.03,-0.05000000074505806,-0.02500000037252903,-0.02500000037252903,-0.02500000037252903,-0.05000000074505806,-0.0005000000237487257,0.05000000074505806,0.02500000037252903,0.02500000037252903,0.02500000037252903,0.05000000074505806,0.0005000000237487257,-0.029117949727995675,-4.301640439992179,0.17063982456623564,0.14,0.0,0.26,0.024060290306806564,0.000742770207580179,0.3852013647556305,0.0,-2.0263416372531506
0.0,96.0,-0.01965940371155739,0.012980174273252487,0.013032006099820137,0.012743359431624413,0.02882419526576996,7.1510105044581e-05,0.03086140751838684,-1.2002179622650146,0.8446879982948303,-1.1642506122589111,-0.16377878189086914,0.0,0.011202003806829453,-1.1872377395629883,0.8577200174331665,-1.1515072584152222,-0.13495458662509918,0.003,0.0,0.0,0.0,0.0,0.0,0.0,-3.1,3.1,-1.571,1.571,-1.571,1.571,-1.745,1.745,-2.617,2.617,0.003,0.03,-0.05000000074505806,-0.02500000037252903,-0.02500000037252903,-0.02500000037252903,-0.05000000074505806,-0.0005000000237487257,0.05000000074505806,0.02500000037252903,0.02500000037252903,0.02500000037252903,0.05000000074505806,0.0005000000237487257,-0.026984236729274132,-4.328624676721453,0.16426879414323992,0.14,0.0,0.26,0.030997971072793007,0.0003472538955975324,0.3828929364681244,0.0,-1.5290473015189732
0.0,97.0,0.016901705414056778,-0.0049134427681565285,-0.016908233985304832,-0.024325013160705566,-0.04433370381593704,4.092948802281171e-05,0.011202003806829453,-1.1872377395629883,0.8577200174331665,-1.1515072584152222,-0.13495458662509918,0.0,0.02810370922088623,-1.1921511888504028,0.8408117890357971,-1.1758322715759277,-0.17928829789161682,0.003,0.0,0.0,0.0,0.0,0.0,0.0,-3.1,3.1,-1.571,1.571,-1.571,1.571,-1.745,1.745,-2.617,2.617,0.003,0.03,-0.05000000074505806,-0.02500000037252903,-0.02500000037252903,-0.02500000037252903,-0.05000000074505806,-0.0005000000237487257,0.05000000074505806,0.02500000037252903,0.02500000037252903,0.02500000037252903,0.05000000074505806,0.0005000000237487257,-0.029186182953440273,-4.357810859674893,0.1708396410480901,0.14,0.0,0.26,0.024204326793551445,0.0006804104777984321,0.3856068551540375,0.0,1.5770032571640447
0.0,98.0,-0.03129368647933006,-0.023868709802627563,-0.02162625640630722,0.012282082810997963,-0.024902114644646645,-0.0004618314851541072,0.02810370922088623,-1.1921511888504028,0.8408117890357971,-1.1758322715759277,-0.17928829789161682,0.0,-0.0031899772584438324,-1.216019868850708,0.8191855549812317,-1.1635501384735107,-0.2041904181241989,0.003,0.0,0.0,0.0,0.0,0.0,0.0,-3.1,3.1,-1.571,1.571,-1.571,1.571,-1.745,1.745,-2.617,2.617,0.003,0.03,-0.05000000074505806,-0.02500000037252903,-0.02500000037252903,-0.02500000037252903,-0.05000000074505806,-0.0005000000237487257,0.05000000074505806,0.02500000037252903,0.02500000037252903,0.02500000037252903,0.05000000074505806,0.0005000000237487257,-0.032069164156860876,-4.389880023831753,0.17907865354882718,0.14,0.0,0.26,0.01576094515621662,-5.027722363593057e-05,0.3889721632003784,0.0,1.9773630001768994
0.0,99.0,0.023797256872057915,-0.00214373623020947,-0.004147032741457224,-0.022233502939343452,-0.01991129107773304,-0.00014697882579639554,-0.0031899772584438324,-1.216019868850708,0.8191855549812317,-1.1635501384735107,-0.2041904181241989,0.0,0.020607279613614082,-1.2181636095046997,0.8150385022163391,-1.1857836246490479,-0.2241017073392868,0.003,0.0,0.0,0.0,0.0,0.0,0.0,-3.1,3.1,-1.571,1.571,-1.571,1.571,-1.745,1.745,-2.617,2.617,0.003,0.03,-0.05000000074505806,-0.02500000037252903,-0.02500000037252903,-0.02500000037252903,-0.05000000074505806,-0.0005000000237487257,0.05000000074505806,0.02500000037252903,0.02500000037252903,0.02500000037252903,0.05000000074505806,0.0005000000237487257,-0.03317759858870483,-4.423057622420458,0.18214718935164723,0.14,0.0,0.26,0.011942177079617977,0.0002461306285113096,0.38953274488449097,1.0,0.7364485926768105
