PierreExeter/WidowX-reacher/tests/Check_env_consistency/logs/3_actionRand.csv
episode,timestep,action_1,action_2,action_3,action_4,action_5,action_6,current_joint_pos_1,current_joint_pos_2,current_joint_pos_3,current_joint_pos_4,current_joint_pos_5,current_joint_pos_6,new_joint_pos_1,new_joint_pos_2,new_joint_pos_3,new_joint_pos_4,new_joint_pos_5,new_joint_pos_6,joint_vel_1,joint_vel_2,joint_vel_3,joint_vel_4,joint_vel_5,joint_vel_6,joint1_min,joint1_max,joint2_min,joint2_max,joint3_min,joint3_max,joint4_min,joint4_max,joint5_min,joint5_max,joint6_min,joint6_max,action_low1,action_low2,action_low3,action_low4,action_low5,action_low6,action_high1,action_high2,action_high3,action_high4,action_high5,action_high6,reward,return,dist,target_x,target_y,target_z,tip_x,tip_y,tip_z,done,est_vel,est_acc
0.0,0.0,-0.036223702132701874,-0.0024437217507511377,0.021440647542476654,0.015866223722696304,-0.02651471272110939,0.0003047373320441693,0.015339807607233524,-1.293145775794983,1.0109710693359375,-1.3537670373916626,-0.0715857669711113,0.0,-0.020883895456790924,-1.2955894470214844,1.0324116945266724,-1.3379007577896118,-0.09810048341751099,0.003,0.0,0.0,0.0,0.0,0.0,0.0,-3.1,3.1,-1.571,1.571,-1.571,1.571,-1.745,1.745,-2.617,2.617,0.003,0.03,-0.05000000074505806,-0.02500000037252903,-0.02500000037252903,-0.02500000037252903,-0.05000000074505806,-0.0005000000237487257,0.05000000074505806,0.02500000037252903,0.02500000037252903,0.02500000037252903,0.05000000074505806,0.0005000000237487257,-0.02716224137800396,-0.02716224137800396,0.16480971263249009,0.14,0.0,0.26,0.01009714137762785,-0.0002108983026118949,0.36142703890800476,0.0,0.0,0.0
0.0,1.0,-0.04864887520670891,0.010269326157867908,-0.021138252690434456,0.0011092980857938528,0.02255927212536335,0.0004445630474947393,-0.020883895456790924,-1.2955894470214844,1.0324116945266724,-1.3379007577896118,-0.09810048341751099,0.0,-0.06953276693820953,-1.2853201627731323,1.0112733840942383,-1.3367915153503418,-0.07554121315479279,0.003,0.0,0.0,0.0,0.0,0.0,0.0,-3.1,3.1,-1.571,1.571,-1.571,1.571,-1.745,1.745,-2.617,2.617,0.003,0.03,-0.05000000074505806,-0.02500000037252903,-0.02500000037252903,-0.02500000037252903,-0.05000000074505806,-0.0005000000237487257,0.05000000074505806,0.02500000037252903,0.02500000037252903,0.02500000037252903,0.05000000074505806,0.0005000000237487257,-0.0278942964932868,-0.055056537871290764,0.16701585701150296,0.14,0.0,0.26,0.009429709985852242,-0.0006567325326614082,0.3641405999660492,0.0,0.5294746509630888,127.07391623114131
0.0,2.0,0.012994171120226383,-0.0072084576822817326,0.022290540859103203,-0.006402224767953157,-0.005789417773485184,0.0004377759760245681,-0.06953276693820953,-1.2853201627731323,1.0112733840942383,-1.3367915153503418,-0.07554121315479279,0.0,-0.056538596749305725,-1.2925286293029785,1.0335639715194702,-1.343193769454956,-0.08133062720298767,0.003,0.0,0.0,0.0,0.0,0.0,0.0,-3.1,3.1,-1.571,1.571,-1.571,1.571,-1.745,1.745,-2.617,2.617,0.003,0.03,-0.05000000074505806,-0.02500000037252903,-0.02500000037252903,-0.02500000037252903,-0.05000000074505806,-0.0005000000237487257,0.05000000074505806,0.02500000037252903,0.02500000037252903,0.02500000037252903,0.05000000074505806,0.0005000000237487257,-0.027049216270306514,-0.08210575414159728,0.16446645940831375,0.14,0.0,0.26,0.010374441742897034,-0.000587182177696377,0.3612229526042938,0.0,-0.6118554247654084,-273.91921817483933
0.0,3.0,0.008505950681865215,-0.011515640653669834,0.007464307360351086,-0.010210494510829449,-0.021050898358225822,-9.943447366822511e-05,-0.056538596749305725,-1.2925286293029785,1.0335639715194702,-1.343193769454956,-0.08133062720298767,0.0,-0.048032645136117935,-1.304044246673584,1.0410282611846924,-1.3534042835235596,-0.10238152742385864,0.003,0.0,0.0,0.0,0.0,0.0,0.0,-3.1,3.1,-1.571,1.571,-1.571,1.571,-1.745,1.745,-2.617,2.617,0.003,0.03,-0.05000000074505806,-0.02500000037252903,-0.02500000037252903,-0.02500000037252903,-0.05000000074505806,-0.0005000000237487257,0.05000000074505806,0.02500000037252903,0.02500000037252903,0.02500000037252903,0.05000000074505806,0.0005000000237487257,-0.027580992036170437,-0.10968674617776772,0.16607526015686513,0.14,0.0,0.26,0.007626673206686974,-0.00036661128979176283,0.36029037833213806,0.0,0.38611217965233147,239.51222506025758
0.0,4.0,-0.04019441083073616,0.005167102441191673,0.004337018355727196,-0.023767074570059776,0.012039745226502419,-0.0002204947086283937,-0.048032645136117935,-1.304044246673584,1.0410282611846924,-1.3534042835235596,-0.10238152742385864,0.0,-0.0882270559668541,-1.2988771200180054,1.045365333557129,-1.3771713972091675,-0.09034178406000137,0.003,0.0,0.0,0.0,0.0,0.0,0.0,-3.1,3.1,-1.571,1.571,-1.571,1.571,-1.745,1.745,-2.617,2.617,0.003,0.03,-0.05000000074505806,-0.02500000037252903,-0.02500000037252903,-0.02500000037252903,-0.05000000074505806,-0.0005000000237487257,0.05000000074505806,0.02500000037252903,0.02500000037252903,0.02500000037252903,0.05000000074505806,0.0005000000237487257,-0.027661879811181105,-0.1373486259889488,0.1663186093351586,0.14,0.0,0.26,0.006758639123290777,-0.0005978468689136207,0.35954025387763977,0.0,0.05840380279043211,-78.65001044685584
0.0,5.0,0.03803494572639465,-0.015925301238894463,-0.01132088154554367,-0.0051657455042004585,-0.001482948544435203,0.0004463481018319726,-0.0882270559668541,-1.2988771200180054,1.045365333557129,-1.3771713972091675,-0.09034178406000137,0.0,-0.05019211024045944,-1.3148024082183838,1.0340445041656494,-1.3823370933532715,-0.0918247327208519,0.003,0.0,0.0,0.0,0.0,0.0,0.0,-3.1,3.1,-1.571,1.571,-1.571,1.571,-1.745,1.745,-2.617,2.617,0.003,0.03,-0.05000000074505806,-0.02500000037252903,-0.02500000037252903,-0.02500000037252903,-0.05000000074505806,-0.0005000000237487257,0.05000000074505806,0.02500000037252903,0.02500000037252903,0.02500000037252903,0.05000000074505806,0.0005000000237487257,-0.02959851361895997,-0.16694713960790877,0.1720421855794676,0.14,0.0,0.26,0.0007304955506697297,-3.6695932067232206e-05,0.3610075116157532,0.0,1.3736582986341594,315.66107900249455
0.0,6.0,-0.04766467586159706,0.01159135065972805,-0.021321332082152367,-0.018618175759911537,0.025663351640105247,-5.0280177674721926e-05,-0.05019211024045944,-1.3148024082183838,1.0340445041656494,-1.3823370933532715,-0.0918247327208519,0.0,-0.0978567898273468,-1.3032110929489136,1.0127232074737549,-1.400955319404602,-0.0661613792181015,0.003,0.0,0.0,0.0,0.0,0.0,0.0,-3.1,3.1,-1.571,1.571,-1.571,1.571,-1.745,1.745,-2.617,2.617,0.003,0.03,-0.05000000074505806,-0.02500000037252903,-0.02500000037252903,-0.02500000037252903,-0.05000000074505806,-0.0005000000237487257,0.05000000074505806,0.02500000037252903,0.02500000037252903,0.02500000037252903,0.05000000074505806,0.0005000000237487257,-0.030837030637523,-0.19778417024543177,0.1756047568761251,0.14,0.0,0.26,-0.0019098510965704918,0.00018749074661172926,0.36343398690223694,0.0,0.8550171111977978,-124.4738849847268
0.0,7.0,-0.014768346212804317,-0.00982948299497366,-0.004777383990585804,0.021928608417510986,0.029202604666352272,0.00039542652666568756,-0.0978567898273468,-1.3032110929489136,1.0127232074737549,-1.400955319404602,-0.0661613792181015,0.0,-0.1126251369714737,-1.3130406141281128,1.0079457759857178,-1.3790266513824463,-0.03695877641439438,0.003,0.0,0.0,0.0,0.0,0.0,0.0,-3.1,3.1,-1.571,1.571,-1.571,1.571,-1.745,1.745,-2.617,2.617,0.003,0.03,-0.05000000074505806,-0.02500000037252903,-0.02500000037252903,-0.02500000037252903,-0.05000000074505806,-0.0005000000237487257,0.05000000074505806,0.02500000037252903,0.02500000037252903,0.02500000037252903,0.05000000074505806,0.0005000000237487257,-0.031182670111486732,-0.2289668403569185,0.1765861549258229,0.14,0.0,0.26,-0.002499711001291871,0.0002827267162501812,0.3642900884151459,0.0,0.23553553192747767,-148.6755790248768
0.0,8.0,0.03147925063967705,0.016343535855412483,0.019161440432071686,0.020888524129986763,-0.029617341235280037,-0.0004919128259643912,-0.1126251369714737,-1.3130406141281128,1.0079457759857178,-1.3790266513824463,-0.03695877641439438,0.0,-0.08114588260650635,-1.2966970205307007,1.0271072387695312,-1.358138084411621,-0.06657611578702927,0.003,0.0,0.0,0.0,0.0,0.0,0.0,-3.1,3.1,-1.571,1.571,-1.571,1.571,-1.745,1.745,-2.617,2.617,0.003,0.03,-0.05000000074505806,-0.02500000037252903,-0.02500000037252903,-0.02500000037252903,-0.05000000074505806,-0.0005000000237487257,0.05000000074505806,0.02500000037252903,0.02500000037252903,0.02500000037252903,0.05000000074505806,0.0005000000237487257,-0.02818178460940179,-0.2571486249663203,0.1678743119402185,0.14,0.0,0.26,0.00669504189863801,-0.0005444706766866148,0.3620356619358063,0.0,-2.0908423165450563,-558.3306836334082
0.0,9.0,-0.04453560709953308,0.023281576111912727,-0.02026626281440258,0.020662369206547737,0.033202651888132095,-0.0003734275815077126,-0.08114588260650635,-1.2966970205307007,1.0271072387695312,-1.358138084411621,-0.06657611578702927,0.0,-0.12568148970603943,-1.273415446281433,1.0068409442901611,-1.3374756574630737,-0.03337346389889717,0.003,0.0,0.0,0.0,0.0,0.0,0.0,-3.1,3.1,-1.571,1.571,-1.571,1.571,-1.745,1.745,-2.617,2.617,0.003,0.03,-0.05000000074505806,-0.02500000037252903,-0.02500000037252903,-0.02500000037252903,-0.05000000074505806,-0.0005000000237487257,0.05000000074505806,0.02500000037252903,0.02500000037252903,0.02500000037252903,0.05000000074505806,0.0005000000237487257,-0.02746658952344985,-0.2846152144897701,0.16573047252527173,0.14,0.0,0.26,0.011457560583949089,-0.001447633607313037,0.3646008372306824,0.0,-0.5145214595872272,378.317005669879
0.0,10.0,0.0428500659763813,0.015417258255183697,-0.0022637962829321623,-0.00010645484871929511,0.03592120483517647,0.0001267176412511617,-0.12568148970603943,-1.273415446281433,1.0068409442901611,-1.3374756574630737,-0.03337346389889717,0.0,-0.08283142745494843,-1.2579982280731201,1.0045771598815918,-1.3375821113586426,0.002547740936279297,0.003,0.0,0.0,0.0,0.0,0.0,0.0,-3.1,3.1,-1.571,1.571,-1.571,1.571,-1.745,1.745,-2.617,2.617,0.003,0.03,-0.05000000074505806,-0.02500000037252903,-0.02500000037252903,-0.02500000037252903,-0.05000000074505806,-0.0005000000237487257,0.05000000074505806,0.02500000037252903,0.02500000037252903,0.02500000037252903,0.05000000074505806,0.0005000000237487257,-0.026629122857523294,-0.3112443373472934,0.16318432172706818,0.14,0.0,0.26,0.014838458970189095,-0.0012319093802943826,0.3647004961967468,0.0,-0.6110761915688534,-23.173135675590295
0.0,11.0,-0.032042719423770905,0.022799823433160782,0.007324980106204748,0.02439965307712555,-0.022255869582295418,-0.00024220006889663637,-0.08283142745494843,-1.2579982280731201,1.0045771598815918,-1.3375821113586426,0.002547740936279297,0.0,-0.11487414687871933,-1.2351983785629272,1.011902093887329,-1.3131824731826782,-0.01970812864601612,0.003,0.0,0.0,0.0,0.0,0.0,0.0,-3.1,3.1,-1.571,1.571,-1.571,1.571,-1.745,1.745,-2.617,2.617,0.003,0.03,-0.05000000074505806,-0.02500000037252903,-0.02500000037252903,-0.02500000037252903,-0.05000000074505806,-0.0005000000237487257,0.05000000074505806,0.02500000037252903,0.02500000037252903,0.02500000037252903,0.05000000074505806,0.0005000000237487257,-0.024104566334375625,-0.33534890368166903,0.15525645343873995,0.14,0.0,0.26,0.024056486785411835,-0.002775688422843814,0.3632180392742157,0.0,-1.9026883891987745,-309.9869274311811
0.0,12.0,0.04445655271410942,-0.012407608330249786,-0.008468642830848694,-0.01654946431517601,0.03894752264022827,-0.00010535418550716713,-0.11487414687871933,-1.2351983785629272,1.011902093887329,-1.3131824731826782,-0.01970812864601612,0.0,-0.07041759788990021,-1.2476060390472412,1.0034334659576416,-1.3297319412231445,0.01923939399421215,0.003,0.0,0.0,0.0,0.0,0.0,0.0,-3.1,3.1,-1.571,1.571,-1.571,1.571,-1.745,1.745,-2.617,2.617,0.003,0.03,-0.05000000074505806,-0.02500000037252903,-0.02500000037252903,-0.02500000037252903,-0.05000000074505806,-0.0005000000237487257,0.05000000074505806,0.02500000037252903,0.02500000037252903,0.02500000037252903,0.05000000074505806,0.0005000000237487257,-0.025831269421502098,-0.36118017310317113,0.16072109202435783,0.14,0.0,0.26,0.018063487485051155,-0.001274094101972878,0.3646954298019409,0.0,1.3115132605482915,771.4083959392958
0.0,13.0,-0.011070255190134048,-0.011133329011499882,0.01413663662970066,0.007633610162883997,0.014863231219351292,0.0003971474652644247,-0.07041759788990021,-1.2476060390472412,1.0034334659576416,-1.3297319412231445,0.01923939399421215,0.0,-0.08148784935474396,-1.2587393522262573,1.0175701379776,-1.3220983743667603,0.03410262614488602,0.003,0.0,0.0,0.0,0.0,0.0,0.0,-3.1,3.1,-1.571,1.571,-1.571,1.571,-1.745,1.745,-2.617,2.617,0.003,0.03,-0.05000000074505806,-0.02500000037252903,-0.02500000037252903,-0.02500000037252903,-0.05000000074505806,-0.0005000000237487257,0.05000000074505806,0.02500000037252903,0.02500000037252903,0.02500000037252903,0.05000000074505806,0.0005000000237487257,-0.025395211535155685,-0.3865753846383268,0.15935875104667357,0.14,0.0,0.26,0.018363498151302338,-0.001499722944572568,0.36294427514076233,0.0,-0.32696183464422157,-393.2340228462032
0.0,14.0,-0.022577017545700073,-0.008334306068718433,-0.016076156869530678,-0.004492027219384909,-0.045278653502464294,-0.0002876129874493927,-0.08148784935474396,-1.2587393522262573,1.0175701379776,-1.3220983743667603,0.03410262614488602,0.0,-0.10406486690044403,-1.267073631286621,1.0014939308166504,-1.3265904188156128,-0.011176027357578278,0.003,0.0,0.0,0.0,0.0,0.0,0.0,-3.1,3.1,-1.571,1.571,-1.571,1.571,-1.745,1.745,-2.617,2.617,0.003,0.03,-0.05000000074505806,-0.02500000037252903,-0.02500000037252903,-0.02500000037252903,-0.05000000074505806,-0.0005000000237487257,0.05000000074505806,0.02500000037252903,0.02500000037252903,0.02500000037252903,0.05000000074505806,0.0005000000237487257,-0.027103642769588317,-0.4136790274079151,0.16463184008443907,0.14,0.0,0.26,0.0134314289316535,-0.0014028074219822884,0.3652714192867279,0.0,1.2655413690637185,382.2007688899056
0.0,15.0,-0.035226792097091675,0.0029492145404219627,-0.003353869542479515,-0.014675031416118145,0.02276761643588543,-0.00028913706773892045,-0.10406486690044403,-1.267073631286621,1.0014939308166504,-1.3265904188156128,-0.011176027357578278,0.0,-0.1392916589975357,-1.2641243934631348,0.9981400370597839,-1.3412654399871826,0.011591589078307152,0.003,0.0,0.0,0.0,0.0,0.0,0.0,-3.1,3.1,-1.571,1.571,-1.571,1.571,-1.745,1.745,-2.617,2.617,0.003,0.03,-0.05000000074505806,-0.02500000037252903,-0.02500000037252903,-0.02500000037252903,-0.05000000074505806,-0.0005000000237487257,0.05000000074505806,0.02500000037252903,0.02500000037252903,0.02500000037252903,0.05000000074505806,0.0005000000237487257,-0.027568671413270487,-0.4412476988211856,0.16603816252076053,0.14,0.0,0.26,0.01190862711519003,-0.0016695843078196049,0.3656337261199951,0.0,0.337517384717152,-222.72575624317597
0.0,16.0,0.04393057897686958,-0.007423036266118288,-0.02467982843518257,-0.005573737900704145,0.04363797605037689,7.779551378916949e-05,-0.1392916589975357,-1.2641243934631348,0.9981400370597839,-1.3412654399871826,0.011591589078307152,0.0,-0.09536108374595642,-1.2715474367141724,0.9734601974487305,-1.346839189529419,0.05522956699132919,0.003,0.0,0.0,0.0,0.0,0.0,0.0,-3.1,3.1,-1.571,1.571,-1.571,1.571,-1.745,1.745,-2.617,2.617,0.003,0.03,-0.05000000074505806,-0.02500000037252903,-0.02500000037252903,-0.02500000037252903,-0.05000000074505806,-0.0005000000237487257,0.05000000074505806,0.02500000037252903,0.02500000037252903,0.02500000037252903,0.05000000074505806,0.0005000000237487257,-0.029872780321345282,-0.47112047914253086,0.17283743900366402,0.14,0.0,0.26,0.0057663279585540295,-0.0005515561788342893,0.3688751459121704,0.0,1.631826355896837,310.63415308312443
0.0,17.0,-0.007689511403441429,-0.0007880034390836954,0.024270161986351013,-0.011730597354471684,-0.002988014603033662,0.00026699696900323033,-0.09536108374595642,-1.2715474367141724,0.9734601974487305,-1.346839189529419,0.05522956699132919,0.0,-0.103050597012043,-1.272335410118103,0.9977303743362427,-1.3585697412490845,0.052241552621126175,0.003,0.0,0.0,0.0,0.0,0.0,0.0,-3.1,3.1,-1.571,1.571,-1.571,1.571,-1.745,1.745,-2.617,2.617,0.003,0.03,-0.05000000074505806,-0.02500000037252903,-0.02500000037252903,-0.02500000037252903,-0.05000000074505806,-0.0005000000237487257,0.05000000074505806,0.02500000037252903,0.02500000037252903,0.02500000037252903,0.05000000074505806,0.0005000000237487257,-0.028600379457789035,-0.4997208586003199,0.16911646713962847,0.14,0.0,0.26,0.007965298369526863,-0.0008237467845901847,0.365671843290329,0.0,-0.8930332473685332,-605.9663047836889
0.0,18.0,-0.04530154541134834,0.012931671924889088,-0.0031049400568008423,-0.005738604813814163,-0.01124893594533205,0.000284380279481411,-0.103050597012043,-1.272335410118103,0.9977303743362427,-1.3585697412490845,0.052241552621126175,0.0,-0.14835214614868164,-1.2594037055969238,0.994625449180603,-1.3643083572387695,0.0409926176071167,0.003,0.0,0.0,0.0,0.0,0.0,0.0,-3.1,3.1,-1.571,1.571,-1.571,1.571,-1.745,1.745,-2.617,2.617,0.003,0.03,-0.05000000074505806,-0.02500000037252903,-0.02500000037252903,-0.02500000037252903,-0.05000000074505806,-0.0005000000237487257,0.05000000074505806,0.02500000037252903,0.02500000037252903,0.02500000037252903,0.05000000074505806,0.0005000000237487257,-0.02815136892766406,-0.5278722275279839,0.16778369684705383,0.14,0.0,0.26,0.009883695282042027,-0.0014771196292713284,0.36591947078704834,0.0,-0.3198648702179141,137.56041051614858
0.0,19.0,-0.024741709232330322,-0.00890488550066948,-0.01920299045741558,0.014261849224567413,0.0013368991203606129,-0.00020952157501596957,-0.14835214614868164,-1.2594037055969238,0.994625449180603,-1.3643083572387695,0.0409926176071167,0.0,-0.17309385538101196,-1.2683086395263672,0.9754224419593811,-1.3500465154647827,0.042329516261816025,0.003,0.0,0.0,0.0,0.0,0.0,0.0,-3.1,3.1,-1.571,1.571,-1.571,1.571,-1.745,1.745,-2.617,2.617,0.003,0.03,-0.05000000074505806,-0.02500000037252903,-0.02500000037252903,-0.02500000037252903,-0.05000000074505806,-0.0005000000237487257,0.05000000074505806,0.02500000037252903,0.02500000037252903,0.02500000037252903,0.05000000074505806,0.0005000000237487257,-0.02963314480666603,-0.5575053723346499,0.17214280352854147,0.14,0.0,0.26,0.006423559971153736,-0.001123117981478572,0.368578165769577,0.0,1.046185603557035,327.8521137059878
0.0,20.0,0.006151208188384771,0.021487539634108543,0.006651998031884432,0.005961488001048565,0.031301990151405334,0.0004957958008162677,-0.17309385538101196,-1.2683086395263672,0.9754224419593811,-1.3500465154647827,0.042329516261816025,0.0,-0.16694264113903046,-1.2468210458755493,0.9820744395256042,-1.3440849781036377,0.07363151013851166,0.003,0.0,0.0,0.0,0.0,0.0,0.0,-3.1,3.1,-1.571,1.571,-1.571,1.571,-1.745,1.745,-2.617,2.617,0.003,0.03,-0.05000000074505806,-0.02500000037252903,-0.02500000037252903,-0.02500000037252903,-0.05000000074505806,-0.0005000000237487257,0.05000000074505806,0.02500000037252903,0.02500000037252903,0.02500000037252903,0.05000000074505806,0.0005000000237487257,-0.027631974724491172,-0.5851373470591411,0.16622868201514193,0.14,0.0,0.26,0.01325913891196251,-0.0022343110758811235,0.3675348162651062,0.0,-1.4193891632158895,-591.7379440255019
0.0,21.0,-0.037176139652729034,-0.012012509629130363,-0.022643063217401505,-0.018492048606276512,0.03817678615450859,-0.00030023130238987505,-0.16694264113903046,-1.2468210458755493,0.9820744395256042,-1.3440849781036377,0.07363151013851166,0.0,-0.2041187882423401,-1.2588335275650024,0.9594313502311707,-1.3625770807266235,0.11180830001831055,0.003,0.0,0.0,0.0,0.0,0.0,0.0,-3.1,3.1,-1.571,1.571,-1.571,1.571,-1.745,1.745,-2.617,2.617,0.003,0.03,-0.05000000074505806,-0.02500000037252903,-0.02500000037252903,-0.02500000037252903,-0.05000000074505806,-0.0005000000237487257,0.05000000074505806,0.02500000037252903,0.02500000037252903,0.02500000037252903,0.05000000074505806,0.0005000000237487257,-0.030469940207359596,-0.6156072872665007,0.17455640981459145,0.14,0.0,0.26,0.004817991517484188,-0.000997332390397787,0.3704299330711365,0.0,1.9986546718678833,820.3305204201055
0.0,22.0,-0.01813378743827343,-0.011825143359601498,-0.013130184262990952,-0.020632700994610786,0.00512087345123291,-0.0002550262724980712,-0.2041187882423401,-1.2588335275650024,0.9594313502311707,-1.3625770807266235,0.11180830001831055,0.0,-0.22225257754325867,-1.2706586122512817,0.9463011622428894,-1.3832098245620728,0.11692917346954346,0.003,0.0,0.0,0.0,0.0,0.0,0.0,-3.1,3.1,-1.571,1.571,-1.571,1.571,-1.745,1.745,-2.617,2.617,0.003,0.03,-0.05000000074505806,-0.02500000037252903,-0.02500000037252903,-0.02500000037252903,-0.05000000074505806,-0.0005000000237487257,0.05000000074505806,0.02500000037252903,0.02500000037252903,0.02500000037252903,0.05000000074505806,0.0005000000237487257,-0.032756858232905785,-0.6483641454994065,0.18098855829279867,0.14,0.0,0.26,-0.0023439056240022182,0.0005296894814819098,0.3717800974845886,0.0,1.5437156347697334,-109.18536890355597
0.0,23.0,-0.038897477090358734,-0.023654982447624207,0.017380602657794952,-0.011293059214949608,0.043482307344675064,0.00023442193923983723,-0.22225257754325867,-1.2706586122512817,0.9463011622428894,-1.3832098245620728,0.11692917346954346,0.0,-0.261150062084198,-1.2943135499954224,0.9636817574501038,-1.394502878189087,0.16041147708892822,0.003,0.0,0.0,0.0,0.0,0.0,0.0,-3.1,3.1,-1.571,1.571,-1.571,1.571,-1.745,1.745,-2.617,2.617,0.003,0.03,-0.05000000074505806,-0.02500000037252903,-0.02500000037252903,-0.02500000037252903,-0.05000000074505806,-0.0005000000237487257,0.05000000074505806,0.02500000037252903,0.02500000037252903,0.02500000037252903,0.05000000074505806,0.0005000000237487257,-0.033441775416768384,-0.6818059209161749,0.18287092556436735,0.14,0.0,0.26,-0.006501142401248217,0.0017374522285535932,0.36943569779396057,0.0,0.4517681451764832,-262.06739750238006
0.0,24.0,-0.01868395134806633,0.001131424680352211,0.014028405770659447,0.011590218171477318,0.0199209563434124,0.0002325983950868249,-0.261150062084198,-1.2943135499954224,0.9636817574501038,-1.394502878189087,0.16041147708892822,0.0,-0.27983400225639343,-1.293182134628296,0.9777101874351501,-1.3829126358032227,0.18033243715763092,0.003,0.0,0.0,0.0,0.0,0.0,0.0,-3.1,3.1,-1.571,1.571,-1.571,1.571,-1.745,1.745,-2.617,2.617,0.003,0.03,-0.05000000074505806,-0.02500000037252903,-0.02500000037252903,-0.02500000037252903,-0.05000000074505806,-0.0005000000237487257,0.05000000074505806,0.02500000037252903,0.02500000037252903,0.02500000037252903,0.05000000074505806,0.0005000000237487257,-0.03204966843838808,-0.713855589354563,0.1790242118775784,0.14,0.0,0.26,-0.002803431125357747,0.0008056349470280111,0.36796388030052185,0.0,-0.9232112848293506,-329.9950632014001
0.0,25.0,-0.014568950049579144,0.0014917643275111914,-0.003661461640149355,0.010444249957799911,0.03921222314238548,0.00015351361071225256,-0.27983400225639343,-1.293182134628296,0.9777101874351501,-1.3829126358032227,0.18033243715763092,0.0,-0.29440295696258545,-1.2916903495788574,0.9740487337112427,-1.37246835231781,0.2195446640253067,0.003,0.0,0.0,0.0,0.0,0.0,0.0,-3.1,3.1,-1.571,1.571,-1.571,1.571,-1.745,1.745,-2.617,2.617,0.003,0.03,-0.05000000074505806,-0.02500000037252903,-0.02500000037252903,-0.02500000037252903,-0.05000000074505806,-0.0005000000237487257,0.05000000074505806,0.02500000037252903,0.02500000037252903,0.02500000037252903,0.05000000074505806,0.0005000000237487257,-0.03190969797235308,-0.745765287326916,0.1786328580422792,0.14,0.0,0.26,-0.0018614752916619182,0.0005644257180392742,0.3685573637485504,0.0,-0.09392492047180179,199.0287274458117
0.0,26.0,0.028442008420825005,-0.009433383122086525,-0.024901313707232475,0.006398315075784922,0.04668474197387695,-8.63891327753663e-05,-0.29440295696258545,-1.2916903495788574,0.9740487337112427,-1.37246835231781,0.2195446640253067,0.0,-0.2659609615802765,-1.3011237382888794,0.9491474032402039,-1.366070032119751,0.26622939109802246,0.003,0.0,0.0,0.0,0.0,0.0,0.0,-3.1,3.1,-1.571,1.571,-1.571,1.571,-1.745,1.745,-2.617,2.617,0.003,0.03,-0.05000000074505806,-0.02500000037252903,-0.02500000037252903,-0.02500000037252903,-0.05000000074505806,-0.0005000000237487257,0.05000000074505806,0.02500000037252903,0.02500000037252903,0.02500000037252903,0.05000000074505806,0.0005000000237487257,-0.034135995136476784,-0.7799012824633929,0.1847592897163138,0.14,0.0,0.26,-0.007254521828144789,0.0019762373995035887,0.37157148122787476,0.0,1.4703436017683025,375.424445337625
0.0,27.0,-0.0022715386003255844,0.006363282911479473,0.013798168860375881,0.021105727180838585,-0.04988338425755501,-0.0004423596546985209,-0.2659609615802765,-1.3011237382888794,0.9491474032402039,-1.366070032119751,0.26622939109802246,0.0,-0.2682324945926666,-1.2947604656219482,0.9629455804824829,-1.3449642658233643,0.21634601056575775,0.003,0.0,0.0,0.0,0.0,0.0,0.0,-3.1,3.1,-1.571,1.571,-1.571,1.571,-1.745,1.745,-2.617,2.617,0.003,0.03,-0.05000000074505806,-0.02500000037252903,-0.02500000037252903,-0.02500000037252903,-0.05000000074505806,-0.0005000000237487257,0.05000000074505806,0.02500000037252903,0.02500000037252903,0.02500000037252903,0.05000000074505806,0.0005000000237487257,-0.03211840238987531,-0.8120196848532681,0.17921607737553935,0.14,0.0,0.26,-0.0012850200291723013,0.0003531957045197487,0.3702579736709595,0.0,-1.3303709617858694,-672.1714952530012
0.0,28.0,-0.016197003424167633,0.014151978306472301,-0.01125838328152895,0.019667426124215126,0.04152895137667656,4.272697333362885e-05,-0.2682324945926666,-1.2947604656219482,0.9629455804824829,-1.3449642658233643,0.21634601056575775,0.0,-0.28442949056625366,-1.2806085348129272,0.951687216758728,-1.3252968788146973,0.2578749656677246,0.003,0.0,0.0,0.0,0.0,0.0,0.0,-3.1,3.1,-1.571,1.571,-1.571,1.571,-1.745,1.745,-2.617,2.617,0.003,0.03,-0.05000000074505806,-0.02500000037252903,-0.02500000037252903,-0.02500000037252903,-0.05000000074505806,-0.0005000000237487257,0.05000000074505806,0.02500000037252903,0.02500000037252903,0.02500000037252903,0.05000000074505806,0.0005000000237487257,-0.03142183935188092,-0.8434415242051491,0.17726206405173364,0.14,0.0,0.26,0.0024853250943124294,-0.0007266002940014005,0.37185269594192505,0.0,-0.46896319771337014,206.73786337739983
0.0,29.0,-0.03441246971487999,-0.01714526116847992,0.01387233566492796,-0.017448468133807182,-0.012599593959748745,0.0003561732592061162,-0.28442949056625366,-1.2806085348129272,0.951687216758728,-1.3252968788146973,0.2578749656677246,0.0,-0.31884196400642395,-1.2977538108825684,0.9655595421791077,-1.342745304107666,0.2452753782272339,0.003,0.0,0.0,0.0,0.0,0.0,0.0,-3.1,3.1,-1.571,1.571,-1.571,1.571,-1.745,1.745,-2.617,2.617,0.003,0.03,-0.05000000074505806,-0.02500000037252903,-0.02500000037252903,-0.02500000037252903,-0.05000000074505806,-0.0005000000237487257,0.05000000074505806,0.02500000037252903,0.02500000037252903,0.02500000037252903,0.05000000074505806,0.0005000000237487257,-0.03206427881276357,-0.8755058030179126,0.1790650128103298,0.14,0.0,0.26,-0.001324734534136951,0.00043730108882300556,0.3699609339237213,0.0,0.4327077020630776,216.40101594634746
0.0,30.0,0.038259219378232956,0.010349404998123646,-0.007189568132162094,-0.006824323907494545,0.030318941920995712,-0.0001190433613373898,-0.31884196400642395,-1.2977538108825684,0.9655595421791077,-1.342745304107666,0.2452753782272339,0.0,-0.2805827558040619,-1.2874044179916382,0.9583699703216553,-1.3495696783065796,0.2755943238735199,0.003,0.0,0.0,0.0,0.0,0.0,0.0,-3.1,3.1,-1.571,1.571,-1.571,1.571,-1.745,1.745,-2.617,2.617,0.003,0.03,-0.05000000074505806,-0.02500000037252903,-0.02500000037252903,-0.02500000037252903,-0.05000000074505806,-0.0005000000237487257,0.05000000074505806,0.02500000037252903,0.02500000037252903,0.02500000037252903,0.05000000074505806,0.0005000000237487257,-0.03208082752594555,-0.9075866305438581,0.1791112155224947,0.14,0.0,0.26,-0.0007521308725699782,0.00021675312018487602,0.37076830863952637,0.0,0.011088650919577336,-101.18857227444008
0.0,31.0,-0.04148894175887108,-0.0052869743667542934,0.019908007234334946,-0.016386577859520912,0.02058110572397709,0.00012894239625893533,-0.2805827558040619,-1.2874044179916382,0.9583699703216553,-1.3495696783065796,0.2755943238735199,0.0,-0.32207170128822327,-1.2926913499832153,0.9782779812812805,-1.3659563064575195,0.29617542028427124,0.003,0.0,0.0,0.0,0.0,0.0,0.0,-3.1,3.1,-1.571,1.571,-1.571,1.571,-1.745,1.745,-2.617,2.617,0.003,0.03,-0.05000000074505806,-0.02500000037252903,-0.02500000037252903,-0.02500000037252903,-0.05000000074505806,-0.0005000000237487257,0.05000000074505806,0.02500000037252903,0.02500000037252903,0.02500000037252903,0.05000000074505806,0.0005000000237487257,-0.031498964953986346,-0.9390855954978444,0.1774794775572273,0.14,0.0,0.26,-0.000740117160603404,0.00024696983746252954,0.3681254982948303,0.0,-0.3916171116641798,-96.64938302010171
0.0,32.0,0.018801653757691383,-0.019898124039173126,-0.008152494207024574,-0.02186783216893673,-0.036292292177677155,0.0001300158182857558,-0.32207170128822327,-1.2926913499832153,0.9782779812812805,-1.3659563064575195,0.29617542028427124,0.0,-0.30327004194259644,-1.3125895261764526,0.9701254963874817,-1.3878241777420044,0.2598831355571747,0.003,0.0,0.0,0.0,0.0,0.0,0.0,-3.1,3.1,-1.571,1.571,-1.571,1.571,-1.745,1.745,-2.617,2.617,0.003,0.03,-0.05000000074505806,-0.02500000037252903,-0.02500000037252903,-0.02500000037252903,-0.05000000074505806,-0.0005000000237487257,0.05000000074505806,0.02500000037252903,0.02500000037252903,0.02500000037252903,0.05000000074505806,0.0005000000237487257,-0.03400801007078892,-0.9730936055686333,0.18441260822077465,0.14,0.0,0.26,-0.0089741675183177,0.0028082220815122128,0.36865919828414917,0.0,1.6639513592513677,493.33643301973143
0.0,33.0,0.028083663433790207,-0.022089289501309395,0.006486122030764818,0.015143024735152721,-0.030639085918664932,-7.121633825590834e-05,-0.30327004194259644,-1.3125895261764526,0.9701254963874817,-1.3878241777420044,0.2598831355571747,0.0,-0.2751863896846771,-1.3346787691116333,0.9766116142272949,-1.3726811408996582,0.22924405336380005,0.003,0.0,0.0,0.0,0.0,0.0,0.0,-3.1,3.1,-1.571,1.571,-1.571,1.571,-1.745,1.745,-2.617,2.617,0.003,0.03,-0.05000000074505806,-0.02500000037252903,-0.02500000037252903,-0.02500000037252903,-0.05000000074505806,-0.0005000000237487257,0.05000000074505806,0.02500000037252903,0.02500000037252903,0.02500000037252903,0.05000000074505806,0.0005000000237487257,-0.03463592589900034,-1.0077295314676338,0.18610729673766244,0.14,0.0,0.26,-0.011564548127353191,0.003265248378738761,0.3679511547088623,0.0,0.40672524405306776,-301.734267647592
0.0,34.0,-0.017275195568799973,0.013588691130280495,0.006926565431058407,-0.008081050589680672,-0.010000813752412796,8.138229895848781e-05,-0.2751863896846771,-1.3346787691116333,0.9766116142272949,-1.3726811408996582,0.22924405336380005,0.0,-0.2924615740776062,-1.3210901021957397,0.9835381507873535,-1.3807622194290161,0.21924324333667755,0.003,0.0,0.0,0.0,0.0,0.0,0.0,-3.1,3.1,-1.571,1.571,-1.571,1.571,-1.745,1.745,-2.617,2.617,0.003,0.03,-0.05000000074505806,-0.02500000037252903,-0.02500000037252903,-0.02500000037252903,-0.05000000074505806,-0.0005000000237487257,0.05000000074505806,0.02500000037252903,0.02500000037252903,0.02500000037252903,0.05000000074505806,0.0005000000237487257,-0.033435929121565254,-1.0411654605891991,0.18285494010708395,0.14,0.0,0.26,-0.008154427632689476,0.002455261768773198,0.3671455383300781,0.0,-0.7805655913388376,-284.9498004940573
0.0,35.0,-0.02883104793727398,-0.022016478702425957,-0.0244190264493227,0.012492631562054157,-0.028385167941451073,0.00033572586835362017,-0.2924615740776062,-1.3210901021957397,0.9835381507873535,-1.3807622194290161,0.21924324333667755,0.0,-0.32129260897636414,-1.3431066274642944,0.9591191411018372,-1.3682695627212524,0.19085808098316193,0.003,0.0,0.0,0.0,0.0,0.0,0.0,-3.1,3.1,-1.571,1.571,-1.571,1.571,-1.745,1.745,-2.617,2.617,0.003,0.03,-0.05000000074505806,-0.02500000037252903,-0.02500000037252903,-0.02500000037252903,-0.05000000074505806,-0.0005000000237487257,0.05000000074505806,0.02500000037252903,0.02500000037252903,0.02500000037252903,0.05000000074505806,0.0005000000237487257,-0.03631695557500596,-1.0774824161642051,0.19057008048223614,0.14,0.0,0.26,-0.015607479028403759,0.005194552708417177,0.3698921501636505,0.0,1.8516336900365271,631.7278275300876
0.0,36.0,0.02400418370962143,0.00018726036068983376,-0.013424151577055454,0.010225447826087475,-0.020878057926893234,0.00014959806867409497,-0.32129260897636414,-1.3431066274642944,0.9591191411018372,-1.3682695627212524,0.19085808098316193,0.0,-0.2972884178161621,-1.3429193496704102,0.9456949830055237,-1.358044147491455,0.1699800193309784,0.003,0.0,0.0,0.0,0.0,0.0,0.0,-3.1,3.1,-1.571,1.571,-1.571,1.571,-1.745,1.745,-2.617,2.617,0.003,0.03,-0.05000000074505806,-0.02500000037252903,-0.02500000037252903,-0.02500000037252903,-0.05000000074505806,-0.0005000000237487257,0.05000000074505806,0.02500000037252903,0.02500000037252903,0.02500000037252903,0.05000000074505806,0.0005000000237487257,-0.03704077474642652,-1.1145231909106317,0.19245980033873702,0.14,0.0,0.26,-0.016722101718187332,0.0051231118850409985,0.371591717004776,0.0,0.4535327655602117,-335.54422187431567
0.0,37.0,-0.04105573892593384,0.0023988268803805113,-0.016092201694846153,-0.020958958193659782,0.03572949022054672,0.00019721328862942755,-0.2972884178161621,-1.3429193496704102,0.9456949830055237,-1.358044147491455,0.1699800193309784,0.0,-0.33834415674209595,-1.3405205011367798,0.9296028017997742,-1.3790030479431152,0.2057095170021057,0.003,0.0,0.0,0.0,0.0,0.0,0.0,-3.1,3.1,-1.571,1.571,-1.571,1.571,-1.745,1.745,-2.617,2.617,0.003,0.03,-0.05000000074505806,-0.02500000037252903,-0.02500000037252903,-0.02500000037252903,-0.05000000074505806,-0.0005000000237487257,0.05000000074505806,0.02500000037252903,0.02500000037252903,0.02500000037252903,0.05000000074505806,0.0005000000237487257,-0.03862381380097863,-1.1531470047116104,0.1965294222272549,0.14,0.0,0.26,-0.02070632390677929,0.007286036387085915,0.3728902339935303,0.0,0.9767092532442878,125.56235704417827
0.0,38.0,0.038587786257267,0.017915066331624985,-0.005678699817508459,-0.006895150523632765,-0.0009387885220348835,-0.00040680545498616993,-0.33834415674209595,-1.3405205011367798,0.9296028017997742,-1.3790030479431152,0.2057095170021057,0.0,-0.29975637793540955,-1.3226054906845093,0.9239240884780884,-1.385898232460022,0.20477072894573212,0.003,0.0,0.0,0.0,0.0,0.0,0.0,-3.1,3.1,-1.571,1.571,-1.571,1.571,-1.745,1.745,-2.617,2.617,0.003,0.03,-0.05000000074505806,-0.02500000037252903,-0.02500000037252903,-0.02500000037252903,-0.05000000074505806,-0.0005000000237487257,0.05000000074505806,0.02500000037252903,0.02500000037252903,0.02500000037252903,0.05000000074505806,0.0005000000237487257,-0.03803869703747009,-1.1911857017490806,0.19503511744675647,0.14,0.0,0.26,-0.018369048833847046,0.0056773098185658455,0.37369129061698914,0.0,-0.35863314731962026,-320.4821761353379
0.0,39.0,0.026978813111782074,-0.012764745391905308,0.012379064224660397,-0.005531661212444305,0.002966764848679304,-0.0004458664625417441,-0.29975637793540955,-1.3226054906845093,0.9239240884780884,-1.385898232460022,0.20477072894573212,0.0,-0.2727775573730469,-1.3353701829910278,0.9363031387329102,-1.3914299011230469,0.2077374905347824,0.003,0.0,0.0,0.0,0.0,0.0,0.0,-3.1,3.1,-1.571,1.571,-1.571,1.571,-1.745,1.745,-2.617,2.617,0.003,0.03,-0.05000000074505806,-0.02500000037252903,-0.02500000037252903,-0.02500000037252903,-0.05000000074505806,-0.0005000000237487257,0.05000000074505806,0.02500000037252903,0.02500000037252903,0.02500000037252903,0.05000000074505806,0.0005000000237487257,-0.03822561110149522,-1.2294113128505757,0.19551371077624,0.14,0.0,0.26,-0.0201671551913023,0.005641777068376541,0.3719833195209503,0.0,0.11486239907604556,113.63893113495979
0.0,40.0,0.0025460964534431696,0.012022075243294239,0.008154571056365967,-0.004447110462933779,0.021503258496522903,0.0004212498606648296,-0.2727775573730469,-1.3353701829910278,0.9363031387329102,-1.3914299011230469,0.2077374905347824,0.0,-0.2702314555644989,-1.3233481645584106,0.9444577097892761,-1.3958770036697388,0.22924074530601501,0.003,0.0,0.0,0.0,0.0,0.0,0.0,-3.1,3.1,-1.571,1.571,-1.571,1.571,-1.745,1.745,-2.617,2.617,0.003,0.03,-0.05000000074505806,-0.02500000037252903,-0.02500000037252903,-0.02500000037252903,-0.05000000074505806,-0.0005000000237487257,0.05000000074505806,0.02500000037252903,0.02500000037252903,0.02500000037252903,0.05000000074505806,0.0005000000237487257,-0.03688551648427143,-1.266296829334847,0.1920560243373569,0.14,0.0,0.26,-0.016501039266586304,0.004570908844470978,0.37122970819473267,0.0,-0.8298447453319402,-226.7297146579166
0.0,41.0,-0.016930922865867615,0.012124165892601013,0.012868533842265606,-0.003118931083008647,-0.03614456579089165,0.0002793347230181098,-0.2702314555644989,-1.3233481645584106,0.9444577097892761,-1.3958770036697388,0.22924074530601501,0.0,-0.2871623635292053,-1.3112239837646484,0.9573262333869934,-1.3989958763122559,0.19309617578983307,0.003,0.0,0.0,0.0,0.0,0.0,0.0,-3.1,3.1,-1.571,1.571,-1.571,1.571,-1.745,1.745,-2.617,2.617,0.003,0.03,-0.05000000074505806,-0.02500000037252903,-0.02500000037252903,-0.02500000037252903,-0.05000000074505806,-0.0005000000237487257,0.05000000074505806,0.02500000037252903,0.02500000037252903,0.02500000037252903,0.05000000074505806,0.0005000000237487257,-0.03516361668513963,-1.3014604460199868,0.18751964346473046,0.14,0.0,0.26,-0.01188707072287798,0.003510549897328019,0.3699163794517517,0.0,-1.088731409430348,-62.132799383617865
0.0,42.0,-0.018840206786990166,0.018619295209646225,-0.012349016964435577,-0.01256377249956131,-0.04535053297877312,-0.00011904601706191897,-0.2871623635292053,-1.3112239837646484,0.9573262333869934,-1.3989958763122559,0.19309617578983307,0.0,-0.30600255727767944,-1.292604684829712,0.9449772238731384,-1.4115597009658813,0.14774563908576965,0.003,0.0,0.0,0.0,0.0,0.0,0.0,-3.1,3.1,-1.571,1.571,-1.571,1.571,-1.745,1.745,-2.617,2.617,0.003,0.03,-0.05000000074505806,-0.02500000037252903,-0.02500000037252903,-0.02500000037252903,-0.05000000074505806,-0.0005000000237487257,0.05000000074505806,0.02500000037252903,0.02500000037252903,0.02500000037252903,0.05000000074505806,0.0005000000237487257,-0.03510230399559245,-1.3365627500155792,0.1873560887603935,0.14,0.0,0.26,-0.010706676170229912,0.003382511902600527,0.37125808000564575,0.0,-0.039253129040870416,251.8747872934746
0.0,43.0,0.01834654062986374,0.008196685463190079,-0.009869510307908058,-0.012483634054660797,0.004451888147741556,0.00032971767359413207,-0.30600255727767944,-1.292604684829712,0.9449772238731384,-1.4115597009658813,0.14774563908576965,0.0,-0.2876560091972351,-1.2844079732894897,0.9351077079772949,-1.4240432977676392,0.15219752490520477,0.003,0.0,0.0,0.0,0.0,0.0,0.0,-3.1,3.1,-1.571,1.571,-1.571,1.571,-1.745,1.745,-2.617,2.617,0.003,0.03,-0.05000000074505806,-0.02500000037252903,-0.02500000037252903,-0.02500000037252903,-0.05000000074505806,-0.0005000000237487257,0.05000000074505806,0.02500000037252903,0.02500000037252903,0.02500000037252903,0.05000000074505806,0.0005000000237487257,-0.035606226695962986,-1.3721689767115421,0.18869612263097243,0.14,0.0,0.26,-0.011694222688674927,0.0034598743077367544,0.3721745014190674,0.0,0.32160812893894386,86.60670191515543
0.0,44.0,-0.00442741671577096,-0.010310075245797634,0.009494204074144363,-0.015117819420993328,0.023007048293948174,-0.0004271997604519129,-0.2876560091972351,-1.2844079732894897,0.9351077079772949,-1.4240432977676392,0.15219752490520477,0.0,-0.29208341240882874,-1.2947180271148682,0.9446018934249878,-1.4391610622406006,0.1752045750617981,0.003,0.0,0.0,0.0,0.0,0.0,0.0,-3.1,3.1,-1.571,1.571,-1.571,1.571,-1.745,1.745,-2.617,2.617,0.003,0.03,-0.05000000074505806,-0.02500000037252903,-0.02500000037252903,-0.02500000037252903,-0.05000000074505806,-0.0005000000237487257,0.05000000074505806,0.02500000037252903,0.02500000037252903,0.02500000037252903,0.05000000074505806,0.0005000000237487257,-0.03605808317029743,-1.4082270598818396,0.18988966051446146,0.14,0.0,0.26,-0.01427222415804863,0.0042914170771837234,0.37063339352607727,0.0,0.28644909203736635,-8.438168856378603
0.0,45.0,0.04395022243261337,0.019351210445165634,0.006078049540519714,-0.006162635050714016,0.024750815704464912,0.0003121202753391117,-0.29208341240882874,-1.2947180271148682,0.9446018934249878,-1.4391610622406006,0.1752045750617981,0.0,-0.24813318252563477,-1.2753667831420898,0.9506799578666687,-1.4453237056732178,0.19995538890361786,0.003,0.0,0.0,0.0,0.0,0.0,0.0,-3.1,3.1,-1.571,1.571,-1.571,1.571,-1.745,1.745,-2.617,2.617,0.003,0.03,-0.05000000074505806,-0.02500000037252903,-0.02500000037252903,-0.02500000037252903,-0.05000000074505806,-0.0005000000237487257,0.05000000074505806,0.02500000037252903,0.02500000037252903,0.02500000037252903,0.05000000074505806,0.0005000000237487257,-0.03449151808749088,-1.4427185779693306,0.18571892226558628,0.14,0.0,0.26,-0.009576678276062012,0.00242629274725914,0.3700565695762634,0.0,-1.0009771797300426,-308.98230522417816
0.0,46.0,-0.015913022682070732,0.023586565628647804,-0.023233940824866295,0.017886698246002197,0.025806071236729622,0.00043438392458483577,-0.24813318252563477,-1.2753667831420898,0.9506799578666687,-1.4453237056732178,0.19995538890361786,0.0,-0.26404619216918945,-1.2517802715301514,0.9274460077285767,-1.4274370670318604,0.22576145827770233,0.003,0.0,0.0,0.0,0.0,0.0,0.0,-3.1,3.1,-1.571,1.571,-1.571,1.571,-1.745,1.745,-2.617,2.617,0.003,0.03,-0.05000000074505806,-0.02500000037252903,-0.02500000037252903,-0.02500000037252903,-0.05000000074505806,-0.0005000000237487257,0.05000000074505806,0.02500000037252903,0.02500000037252903,0.02500000037252903,0.05000000074505806,0.0005000000237487257,-0.03400348343262088,-1.4767220614019514,0.18440033468684616,0.14,0.0,0.26,-0.005516691133379936,0.0014914857456460595,0.37325260043144226,0.0,-0.3164610188976291,164.28387859977926
0.0,47.0,-0.03621929883956909,-0.007240253034979105,0.009403645992279053,-0.0019088805420324206,-0.033936478197574615,-3.3706666727084666e-05,-0.26404619216918945,-1.2517802715301514,0.9274460077285767,-1.4274370670318604,0.22576145827770233,0.0,-0.30026549100875854,-1.2590205669403076,0.9368496537208557,-1.429345965385437,0.19182497262954712,0.003,0.0,0.0,0.0,0.0,0.0,0.0,-3.1,3.1,-1.571,1.571,-1.571,1.571,-1.745,1.745,-2.617,2.617,0.003,0.03,-0.05000000074505806,-0.02500000037252903,-0.02500000037252903,-0.02500000037252903,-0.05000000074505806,-0.0005000000237487257,0.05000000074505806,0.02500000037252903,0.02500000037252903,0.02500000037252903,0.05000000074505806,0.0005000000237487257,-0.03387364284845419,-1.5105957042504057,0.18404793627871568,0.14,0.0,0.26,-0.005960414651781321,0.0018455063691362739,0.3720972537994385,0.0,-0.08457561795131463,55.65249622711548
0.0,48.0,0.040414515882730484,-0.0020252284593880177,-0.018491819500923157,-0.009438607841730118,-0.04023496434092522,3.021459087904077e-05,-0.30026549100875854,-1.2590205669403076,0.9368496537208557,-1.429345965385437,0.19182497262954712,0.0,-0.25985097885131836,-1.2610458135604858,0.9183578491210938,-1.4387845993041992,0.1515900045633316,0.003,0.0,0.0,0.0,0.0,0.0,0.0,-3.1,3.1,-1.571,1.571,-1.571,1.571,-1.745,1.745,-2.617,2.617,0.003,0.03,-0.05000000074505806,-0.02500000037252903,-0.02500000037252903,-0.02500000037252903,-0.05000000074505806,-0.0005000000237487257,0.05000000074505806,0.02500000037252903,0.02500000037252903,0.02500000037252903,0.05000000074505806,0.0005000000237487257,-0.03560288743339659,-1.5461985916838024,0.1886872741691834,0.14,0.0,0.26,-0.01037544198334217,0.0027584354393184185,0.3739407956600189,0.0,1.113441093712253,287.52401079925625
0.0,49.0,-0.03772788867354393,0.015008695423603058,-0.01137183140963316,0.0029680063016712666,-0.00531205115839839,0.00045895471703261137,-0.25985097885131836,-1.2610458135604858,0.9183578491210938,-1.4387845993041992,0.1515900045633316,0.0,-0.2975788712501526,-1.2460371255874634,0.9069859981536865,-1.4358166456222534,0.14627794921398163,0.003,0.0,0.0,0.0,0.0,0.0,0.0,-3.1,3.1,-1.571,1.571,-1.571,1.571,-1.745,1.745,-2.617,2.617,0.003,0.03,-0.05000000074505806,-0.02500000037252903,-0.02500000037252903,-0.02500000037252903,-0.05000000074505806,-0.0005000000237487257,0.05000000074505806,0.02500000037252903,0.02500000037252903,0.02500000037252903,0.05000000074505806,0.0005000000237487257,-0.03525838691561217,-1.5814569785994146,0.18777216757446288,0.14,0.0,0.26,-0.00809785071760416,0.0024834927171468735,0.3754090368747711,0.0,-0.2196255827329252,-319.93600234684277
0.0,50.0,0.019832007586956024,-0.009021934121847153,-0.016708998009562492,0.0032910939771682024,-0.000868191767949611,-0.0004982235841453075,-0.2975788712501526,-1.2460371255874634,0.9069859981536865,-1.4358166456222534,0.14627794921398163,0.0,-0.27774685621261597,-1.255059003829956,0.8902770280838013,-1.4325255155563354,0.14540976285934448,0.003,0.0,0.0,0.0,0.0,0.0,0.0,-3.1,3.1,-1.571,1.571,-1.571,1.571,-1.745,1.745,-2.617,2.617,0.003,0.03,-0.05000000074505806,-0.02500000037252903,-0.02500000037252903,-0.02500000037252903,-0.05000000074505806,-0.0005000000237487257,0.05000000074505806,0.02500000037252903,0.02500000037252903,0.02500000037252903,0.05000000074505806,0.0005000000237487257,-0.03702465980489695,-1.6184816384043115,0.19241793005044242,0.14,0.0,0.26,-0.012555955909192562,0.003579909447580576,0.37721145153045654,0.0,1.1149829942350875,320.30605847232306
0.0,51.0,0.017568616196513176,0.0018159544561058283,0.013913793489336967,-0.0011760034831240773,0.04595157876610756,0.00047157195513136685,-0.27774685621261597,-1.255059003829956,0.8902770280838013,-1.4325255155563354,0.14540976285934448,0.0,-0.26017823815345764,-1.253243088722229,0.9041908383369446,-1.433701515197754,0.19136133790016174,0.003,0.0,0.0,0.0,0.0,0.0,0.0,-3.1,3.1,-1.571,1.571,-1.571,1.571,-1.745,1.745,-2.617,2.617,0.003,0.03,-0.05000000074505806,-0.02500000037252903,-0.02500000037252903,-0.02500000037252903,-0.05000000074505806,-0.0005000000237487257,0.05000000074505806,0.02500000037252903,0.02500000037252903,0.02500000037252903,0.05000000074505806,0.0005000000237487257,-0.03593325003133164,-1.654414888435643,0.18956067638445384,0.14,0.0,0.26,-0.010132797062397003,0.0026974764186888933,0.37569838762283325,0.0,-0.6857408798372577,-432.17372977736284
0.0,52.0,-0.04975933954119682,-0.003470140043646097,0.019843991845846176,-0.014294802211225033,-0.03449889272451401,0.00010529607970966026,-0.26017823815345764,-1.253243088722229,0.9041908383369446,-1.433701515197754,0.19136133790016174,0.0,-0.30993756651878357,-1.2567132711410522,0.924034833908081,-1.4479962587356567,0.15686243772506714,0.003,0.0,0.0,0.0,0.0,0.0,0.0,-3.1,3.1,-1.571,1.571,-1.571,1.571,-1.745,1.745,-2.617,2.617,0.003,0.03,-0.05000000074505806,-0.02500000037252903,-0.02500000037252903,-0.02500000037252903,-0.05000000074505806,-0.0005000000237487257,0.05000000074505806,0.02500000037252903,0.02500000037252903,0.02500000037252903,0.05000000074505806,0.0005000000237487257,-0.03510644342442977,-1.6895213318600728,0.18736713539046748,0.14,0.0,0.26,-0.009321366436779499,0.0029852483421564102,0.37314000725746155,0.0,-0.5264498385567262,38.22984990732756
0.0,53.0,0.04667350649833679,0.0020077808294445276,-0.008950007148087025,-0.013356892392039299,0.0484079085290432,0.00017927495355252177,-0.30993756651878357,-1.2567132711410522,0.924034833908081,-1.4479962587356567,0.15686243772506714,0.0,-0.2632640600204468,-1.254705548286438,0.9150848388671875,-1.4613531827926636,0.20527034997940063,0.003,0.0,0.0,0.0,0.0,0.0,0.0,-3.1,3.1,-1.571,1.571,-1.571,1.571,-1.745,1.745,-2.617,2.617,0.003,0.03,-0.05000000074505806,-0.02500000037252903,-0.02500000037252903,-0.02500000037252903,-0.05000000074505806,-0.0005000000237487257,0.05000000074505806,0.02500000037252903,0.02500000037252903,0.02500000037252903,0.05000000074505806,0.0005000000237487257,-0.03599884374703693,-1.7255201756071097,0.1897336125915409,0.14,0.0,0.26,-0.011780310422182083,0.0031750251073390245,0.37380465865135193,0.0,0.5679545282576193,262.6570480354429
0.0,54.0,0.003697850275784731,-0.020659906789660454,-0.008451652713119984,0.015486050397157669,-0.003744791029021144,-0.00023969364701770246,-0.2632640600204468,-1.254705548286438,0.9150848388671875,-1.4613531827926636,0.20527034997940063,0.0,-0.25956621766090393,-1.2753654718399048,0.906633198261261,-1.4458671808242798,0.20152555406093597,0.003,0.0,0.0,0.0,0.0,0.0,0.0,-3.1,3.1,-1.571,1.571,-1.571,1.571,-1.745,1.745,-2.617,2.617,0.003,0.03,-0.05000000074505806,-0.02500000037252903,-0.02500000037252903,-0.02500000037252903,-0.05000000074505806,-0.0005000000237487257,0.05000000074505806,0.02500000037252903,0.02500000037252903,0.02500000037252903,0.05000000074505806,0.0005000000237487257,-0.037668195036576424,-1.7631883706436862,0.1940829591607064,0.14,0.0,0.26,-0.016416016966104507,0.0043593901209533215,0.37481820583343506,0.0,1.0438431765997191,114.21327560210398
0.0,55.0,-0.0049545555375516415,-0.015115092508494854,-0.012605852447450161,-0.008890485391020775,0.03019249439239502,0.00028847716748714447,-0.25956621766090393,-1.2753654718399048,0.906633198261261,-1.4458671808242798,0.20152555406093597,0.0,-0.2645207643508911,-1.290480613708496,0.8940273523330688,-1.4547576904296875,0.231718048453331,0.003,0.0,0.0,0.0,0.0,0.0,0.0,-3.1,3.1,-1.571,1.571,-1.571,1.571,-1.745,1.745,-2.617,2.617,0.003,0.03,-0.05000000074505806,-0.02500000037252903,-0.02500000037252903,-0.02500000037252903,-0.05000000074505806,-0.0005000000237487257,0.05000000074505806,0.02500000037252903,0.02500000037252903,0.02500000037252903,0.05000000074505806,0.0005000000237487257,-0.03995042597120865,-1.8031387966148948,0.19987602650445263,0.14,0.0,0.26,-0.02298397570848465,0.006225625518709421,0.3755330741405487,0.0,1.3903361624990973,83.15831661585077
0.0,56.0,0.019749091938138008,0.023674143478274345,-0.009890665300190449,-0.0069882990792393684,-0.008199965581297874,-0.0002842213725671172,-0.2645207643508911,-1.290480613708496,0.8940273523330688,-1.4547576904296875,0.231718048453331,0.0,-0.24477167427539825,-1.2668064832687378,0.8841366767883301,-1.4617459774017334,0.22351808845996857,0.003,0.0,0.0,0.0,0.0,0.0,0.0,-3.1,3.1,-1.571,1.571,-1.571,1.571,-1.745,1.745,-2.617,2.617,0.003,0.03,-0.05000000074505806,-0.02500000037252903,-0.02500000037252903,-0.02500000037252903,-0.05000000074505806,-0.0005000000237487257,0.05000000074505806,0.02500000037252903,0.02500000037252903,0.02500000037252903,0.05000000074505806,0.0005000000237487257,-0.03916184410516204,-1.8423006407200568,0.19789351708725084,0.14,0.0,0.26,-0.019654253497719765,0.004909241106361151,0.3768257796764374,0.0,-0.47580226012843063,-447.8732214306067
0.0,57.0,0.016685739159584045,0.017784809693694115,-0.009771601296961308,0.0057034422643482685,-0.014301766641438007,0.0001412376732332632,-0.24477167427539825,-1.2668064832687378,0.8841366767883301,-1.4617459774017334,0.22351808845996857,0.0,-0.2280859351158142,-1.2490216493606567,0.8743650913238525,-1.4560425281524658,0.20921632647514343,0.003,0.0,0.0,0.0,0.0,0.0,0.0,-3.1,3.1,-1.571,1.571,-1.571,1.571,-1.745,1.745,-2.617,2.617,0.003,0.03,-0.05000000074505806,-0.02500000037252903,-0.02500000037252903,-0.02500000037252903,-0.05000000074505806,-0.0005000000237487257,0.05000000074505806,0.02500000037252903,0.02500000037252903,0.02500000037252903,0.05000000074505806,0.0005000000237487257,-0.0384424642101756,-1.8807431049302323,0.19606749911746107,0.14,0.0,0.26,-0.016295168548822403,0.003782520303502679,0.37832149863243103,0.0,-0.4382443127495428,9.013907370933083
0.0,58.0,0.005555556155741215,0.011525098234415054,0.018273361027240753,0.01858164556324482,-0.028281986713409424,-0.00039111473597586155,-0.2280859351158142,-1.2490216493606567,0.8743650913238525,-1.4560425281524658,0.20921632647514343,0.0,-0.22253037989139557,-1.2374964952468872,0.8926384449005127,-1.4374608993530273,0.180934339761734,0.003,0.0,0.0,0.0,0.0,0.0,0.0,-3.1,3.1,-1.571,1.571,-1.571,1.571,-1.745,1.745,-2.617,2.617,0.003,0.03,-0.05000000074505806,-0.02500000037252903,-0.02500000037252903,-0.02500000037252903,-0.05000000074505806,-0.0005000000237487257,0.05000000074505806,0.02500000037252903,0.02500000037252903,0.02500000037252903,0.05000000074505806,0.0005000000237487257,-0.0357753636278172,-1.9165184685580496,0.18914376444339157,0.14,0.0,0.26,-0.00858257431536913,0.0019420464523136616,0.3770248293876648,0.0,-1.6616963217766823,-293.6284821665135
0.0,59.0,-0.03650197014212608,0.007165118586272001,-0.018514668568968773,-0.021944332867860794,0.017028745263814926,0.00026794581208378077,-0.22253037989139557,-1.2374964952468872,0.8926384449005127,-1.4374608993530273,0.180934339761734,0.0,-0.25903233885765076,-1.2303314208984375,0.874123752117157,-1.4594051837921143,0.19796308875083923,0.003,0.0,0.0,0.0,0.0,0.0,0.0,-3.1,3.1,-1.571,1.571,-1.571,1.571,-1.745,1.745,-2.617,2.617,0.003,0.03,-0.05000000074505806,-0.02500000037252903,-0.02500000037252903,-0.02500000037252903,-0.05000000074505806,-0.0005000000237487257,0.05000000074505806,0.02500000037252903,0.02500000037252903,0.02500000037252903,0.05000000074505806,0.0005000000237487257,-0.03715863300797574,-1.9536771015660255,0.19276574645920821,0.14,0.0,0.26,-0.011989811435341835,0.00317712826654315,0.37852272391319275,0.0,0.8692756837959958,607.4332813374427
0.0,60.0,-0.010669389739632607,0.019685285165905952,0.013761826790869236,0.018359767273068428,-0.0015195028390735388,0.00014627014752477407,-0.25903233885765076,-1.2303314208984375,0.874123752117157,-1.4594051837921143,0.19796308875083923,0.0,-0.2697017192840576,-1.210646152496338,0.887885570526123,-1.4410454034805298,0.1964435875415802,0.003,0.0,0.0,0.0,0.0,0.0,0.0,-3.1,3.1,-1.571,1.571,-1.571,1.571,-1.745,1.745,-2.617,2.617,0.003,0.03,-0.05000000074505806,-0.02500000037252903,-0.02500000037252903,-0.02500000037252903,-0.05000000074505806,-0.0005000000237487257,0.05000000074505806,0.02500000037252903,0.02500000037252903,0.02500000037252903,0.05000000074505806,0.0005000000237487257,-0.034305682991896486,-1.9879827845579219,0.18521793377504372,0.14,0.0,0.26,-0.0030655178707093,0.0008474226342514157,0.3776317238807678,0.0,-1.8114750441994776,-643.3801747189136
0.0,61.0,-0.040080681443214417,0.006300267297774553,-0.023476973176002502,0.0033438170794397593,-0.021119708195328712,0.0004533799656201154,-0.2697017192840576,-1.210646152496338,0.887885570526123,-1.4410454034805298,0.1964435875415802,0.0,-0.30978238582611084,-1.204345941543579,0.8644086122512817,-1.4377015829086304,0.17532387375831604,0.003,0.0,0.0,0.0,0.0,0.0,0.0,-3.1,3.1,-1.571,1.571,-1.571,1.571,-1.745,1.745,-2.617,2.617,0.003,0.03,-0.05000000074505806,-0.02500000037252903,-0.02500000037252903,-0.02500000037252903,-0.05000000074505806,-0.0005000000237487257,0.05000000074505806,0.02500000037252903,0.02500000037252903,0.02500000037252903,0.05000000074505806,0.0005000000237487257,-0.03542213524320837,-2.02340491980113,0.18820769177482724,0.14,0.0,0.26,-0.004689918365329504,0.001501184655353427,0.3803524374961853,0.0,0.7175419199480437,606.9640713954051
0.0,62.0,-0.010233909823000431,-0.017722943797707558,-0.0072356765158474445,0.022662192583084106,0.017221517860889435,3.485151319182478e-05,-0.30978238582611084,-1.204345941543579,0.8644086122512817,-1.4377015829086304,0.17532387375831604,0.0,-0.3200162947177887,-1.2220689058303833,0.8571729063987732,-1.4150394201278687,0.19254538416862488,0.003,0.0,0.0,0.0,0.0,0.0,0.0,-3.1,3.1,-1.571,1.571,-1.571,1.571,-1.745,1.745,-2.617,2.617,0.003,0.03,-0.05000000074505806,-0.02500000037252903,-0.02500000037252903,-0.02500000037252903,-0.05000000074505806,-0.0005000000237487257,0.05000000074505806,0.02500000037252903,0.02500000037252903,0.02500000037252903,0.05000000074505806,0.0005000000237487257,-0.03659326617229533,-2.0599981859734253,0.19129366474688944,0.14,0.0,0.26,-0.007676634471863508,0.0025440941099077463,0.38156646490097046,0.0,0.7406335132949282,5.541982403252277
0.0,63.0,-0.01016638521105051,-0.010809465311467648,0.016833974048495293,-0.019975313916802406,0.045278288424015045,-0.00011991662177024409,-0.3200162947177887,-1.2220689058303833,0.8571729063987732,-1.4150394201278687,0.19254538416862488,0.0,-0.33018267154693604,-1.23287832736969,0.8740068674087524,-1.4350147247314453,0.23782366514205933,0.003,0.0,0.0,0.0,0.0,0.0,0.0,-3.1,3.1,-1.571,1.571,-1.571,1.571,-1.745,1.745,-2.617,2.617,0.003,0.03,-0.05000000074505806,-0.02500000037252903,-0.02500000037252903,-0.02500000037252903,-0.05000000074505806,-0.0005000000237487257,0.05000000074505806,0.02500000037252903,0.02500000037252903,0.02500000037252903,0.05000000074505806,0.0005000000237487257,-0.036646838315217964,-2.096645024288643,0.19143363945560343,0.14,0.0,0.26,-0.009793181903660297,0.0033564071636646986,0.3791535794734955,0.0,0.033593930091357915,-169.68949996885686
0.0,64.0,-0.012894359417259693,0.015635330229997635,0.010929062031209469,-0.007539135869592428,0.02121993526816368,-0.0002904005232267082,-0.33018267154693604,-1.23287832736969,0.8740068674087524,-1.4350147247314453,0.23782366514205933,0.0,-0.34307703375816345,-1.217242956161499,0.8849359154701233,-1.4425538778305054,0.2590436041355133,0.003,0.0,0.0,0.0,0.0,0.0,0.0,-3.1,3.1,-1.571,1.571,-1.571,1.571,-1.745,1.745,-2.617,2.617,0.003,0.03,-0.05000000074505806,-0.02500000037252903,-0.02500000037252903,-0.02500000037252903,-0.05000000074505806,-0.0005000000237487257,0.05000000074505806,0.02500000037252903,0.02500000037252903,0.02500000037252903,0.05000000074505806,0.0005000000237487257,-0.034976084006555504,-2.1316211082951986,0.18701894023482088,0.14,0.0,0.26,-0.005163613706827164,0.001844456885010004,0.3778991401195526,0.0,-1.0595278129878127,-262.34921833900097
0.0,65.0,-0.014341458678245544,0.0019077796023339033,0.021672256290912628,0.011003647930920124,-0.01309481542557478,0.0002744317753240466,-0.34307703375816345,-1.217242956161499,0.8849359154701233,-1.4425538778305054,0.2590436041355133,0.0,-0.3574184775352478,-1.2153351306915283,0.9066081643104553,-1.4315502643585205,0.24594879150390625,0.003,0.0,0.0,0.0,0.0,0.0,0.0,-3.1,3.1,-1.571,1.571,-1.571,1.571,-1.745,1.745,-2.617,2.617,0.003,0.03,-0.05000000074505806,-0.02500000037252903,-0.02500000037252903,-0.02500000037252903,-0.05000000074505806,-0.0005000000237487257,0.05000000074505806,0.02500000037252903,0.02500000037252903,0.02500000037252903,0.05000000074505806,0.0005000000237487257,-0.033075161824228795,-2.1646962701194274,0.18186577969543583,0.14,0.0,0.26,-0.00033430912299081683,0.00012485057231970131,0.3756781220436096,0.0,-1.236758529452413,-42.535371951504075
0.0,66.0,0.041514914482831955,-0.004107347223907709,0.017257336527109146,0.0086732292547822,0.03578346222639084,0.00015686528058722615,-0.3574184775352478,-1.2153351306915283,0.9066081643104553,-1.4315502643585205,0.24594879150390625,0.0,-0.31590357422828674,-1.2194424867630005,0.9238654971122742,-1.4228770732879639,0.2817322611808777,0.003,0.0,0.0,0.0,0.0,0.0,0.0,-3.1,3.1,-1.571,1.571,-1.571,1.571,-1.745,1.745,-2.617,2.617,0.003,0.03,-0.05000000074505806,-0.02500000037252903,-0.02500000037252903,-0.02500000037252903,-0.05000000074505806,-0.0005000000237487257,0.05000000074505806,0.02500000037252903,0.02500000037252903,0.02500000037252903,0.05000000074505806,0.0005000000237487257,-0.03195171651375668,-2.196647986633184,0.17875043080719186,0.14,0.0,0.26,0.002165688667446375,-0.0007078537018969655,0.37381088733673096,0.0,-0.7476837331785524,117.37795110572655
0.0,67.0,0.003275471506640315,0.007743235677480698,-0.017597325146198273,-0.011612742207944393,0.011263097636401653,0.0002482520358171314,-0.31590357422828674,-1.2194424867630005,0.9238654971122742,-1.4228770732879639,0.2817322611808777,0.0,-0.3126280903816223,-1.2116992473602295,0.9062681794166565,-1.4344898462295532,0.2929953634738922,0.003,0.0,0.0,0.0,0.0,0.0,0.0,-3.1,3.1,-1.571,1.571,-1.571,1.571,-1.745,1.745,-2.617,2.617,0.003,0.03,-0.05000000074505806,-0.02500000037252903,-0.02500000037252903,-0.02500000037252903,-0.05000000074505806,-0.0005000000237487257,0.05000000074505806,0.02500000037252903,0.02500000037252903,0.02500000037252903,0.05000000074505806,0.0005000000237487257,-0.03293230633783734,-2.2295802929710216,0.18147260492382133,0.14,0.0,0.26,0.0001615759392734617,-5.2225819672457874e-05,0.3756612241268158,0.0,0.6533217879910747,336.2413250807105
0.0,68.0,-0.015108591876924038,0.015105224214494228,0.006507754325866699,-0.00801428034901619,-0.03520767390727997,-0.00048017592052929103,-0.3126280903816223,-1.2116992473602295,0.9062681794166565,-1.4344898462295532,0.2929953634738922,0.0,-0.32773667573928833,-1.196593999862671,0.9127759337425232,-1.4425041675567627,0.25778770446777344,0.003,0.0,0.0,0.0,0.0,0.0,0.0,-3.1,3.1,-1.571,1.571,-1.571,1.571,-1.745,1.745,-2.617,2.617,0.003,0.03,-0.05000000074505806,-0.02500000037252903,-0.02500000037252903,-0.02500000037252903,-0.05000000074505806,-0.0005000000237487257,0.05000000074505806,0.02500000037252903,0.02500000037252903,0.02500000037252903,0.05000000074505806,0.0005000000237487257,-0.031703467237186686,-2.261283760208208,0.17805467485350304,0.14,0.0,0.26,0.0038317933212965727,-0.0013028018875047565,0.37471699714660645,0.0,-0.8203032168763902,-353.67000116819156
0.0,69.0,-0.02997705526649952,0.024360783398151398,-0.002159297466278076,0.015945252031087875,-0.01406281627714634,-4.667777466238476e-05,-0.32773667573928833,-1.196593999862671,0.9127759337425232,-1.4425041675567627,0.25778770446777344,0.0,-0.3577137291431427,-1.1722332239151,0.9106166362762451,-1.4265589714050293,0.24372488260269165,0.003,0.0,0.0,0.0,0.0,0.0,0.0,-3.1,3.1,-1.571,1.571,-1.571,1.571,-1.745,1.745,-2.617,2.617,0.003,0.03,-0.05000000074505806,-0.02500000037252903,-0.02500000037252903,-0.02500000037252903,-0.05000000074505806,-0.0005000000237487257,0.05000000074505806,0.02500000037252903,0.02500000037252903,0.02500000037252903,0.05000000074505806,0.0005000000237487257,-0.029921689168708267,-2.2912054493769163,0.1729788691392919,0.14,0.0,0.26,0.010880712419748306,-0.004067154601216316,0.3750363290309906,0.0,-1.2181933714106763,-95.49363708822867
0.0,70.0,-0.02098916657269001,0.017887191846966743,-0.016433946788311005,-0.01317621674388647,-0.015964865684509277,0.0003991197154391557,-0.3577137291431427,-1.1722332239151,0.9106166362762451,-1.4265589714050293,0.24372488260269165,0.0,-0.37870290875434875,-1.154345989227295,0.8941826820373535,-1.4397351741790771,0.22776001691818237,0.003,0.0,0.0,0.0,0.0,0.0,0.0,-3.1,3.1,-1.571,1.571,-1.571,1.571,-1.745,1.745,-2.617,2.617,0.003,0.03,-0.05000000074505806,-0.02500000037252903,-0.02500000037252903,-0.02500000037252903,-0.05000000074505806,-0.0005000000237487257,0.05000000074505806,0.02500000037252903,0.02500000037252903,0.02500000037252903,0.05000000074505806,0.0005000000237487257,-0.030199970542908298,-2.3214054199198246,0.17378138721654945,0.14,0.0,0.26,0.011276463977992535,-0.004487012047320604,0.3766622841358185,0.0,0.19260433854181525,338.591450388598
0.0,71.0,0.019370699301362038,-0.005850831978023052,0.005484979599714279,-0.007800353690981865,-0.02176695689558983,-0.00013901569764129817,-0.37870290875434875,-1.154345989227295,0.8941826820373535,-1.4397351741790771,0.22776001691818237,0.0,-0.35933220386505127,-1.1601967811584473,0.8996676802635193,-1.447535514831543,0.20599305629730225,0.003,0.0,0.0,0.0,0.0,0.0,0.0,-3.1,3.1,-1.571,1.571,-1.571,1.571,-1.745,1.745,-2.617,2.617,0.003,0.03,-0.05000000074505806,-0.02500000037252903,-0.02500000037252903,-0.02500000037252903,-0.05000000074505806,-0.0005000000237487257,0.05000000074505806,0.02500000037252903,0.02500000037252903,0.02500000037252903,0.05000000074505806,0.0005000000237487257,-0.030375269922667553,-2.3517806898424922,0.17428502495242543,0.14,0.0,0.26,0.009926598519086838,-0.0037288337480276823,0.37594082951545715,0.0,0.1208730566102334,-17.215507663579643
0.0,72.0,0.00048041745321825147,-0.011218606494367123,0.016015395522117615,-0.023245535790920258,0.048642005771398544,-0.0003259759396314621,-0.35933220386505127,-1.1601967811584473,0.8996676802635193,-1.447535514831543,0.20599305629730225,0.0,-0.3588517904281616,-1.1714153289794922,0.9156830906867981,-1.4707810878753662,0.2546350657939911,0.003,0.0,0.0,0.0,0.0,0.0,0.0,-3.1,3.1,-1.571,1.571,-1.571,1.571,-1.745,1.745,-2.617,2.617,0.003,0.03,-0.05000000074505806,-0.02500000037252903,-0.02500000037252903,-0.02500000037252903,-0.05000000074505806,-0.0005000000237487257,0.05000000074505806,0.02500000037252903,0.02500000037252903,0.02500000037252903,0.05000000074505806,0.0005000000237487257,-0.030607342146722942,-2.382388031989215,0.17494954171624155,0.14,0.0,0.26,0.007080995477735996,-0.0026560283731669188,0.3737225830554962,0.0,0.15948402331587008,9.266632009352804
0.0,73.0,-0.009394324384629726,0.02270306646823883,-0.024057434871792793,-0.022432738915085793,-0.012238672003149986,-0.0004727155901491642,-0.3588517904281616,-1.1714153289794922,0.9156830906867981,-1.4707810878753662,0.2546350657939911,0.0,-0.3682461082935333,-1.1487122774124146,0.8916256427764893,-1.4932137727737427,0.24239639937877655,0.003,0.0,0.0,0.0,0.0,0.0,0.0,-3.1,3.1,-1.571,1.571,-1.571,1.571,-1.745,1.745,-2.617,2.617,0.003,0.03,-0.05000000074505806,-0.02500000037252903,-0.02500000037252903,-0.02500000037252903,-0.05000000074505806,-0.0005000000237487257,0.05000000074505806,0.02500000037252903,0.02500000037252903,0.02500000037252903,0.05000000074505806,0.0005000000237487257,-0.031240442471597088,-2.413628474460812,0.17674966045680848,0.14,0.0,0.26,0.006642969325184822,-0.002563168527558446,0.3759731650352478,0.0,0.43202849773606333,65.41067386084637
0.0,74.0,0.037562958896160126,0.018605517223477364,0.020211488008499146,-0.004254551138728857,-0.03430430591106415,0.00041322092874906957,-0.3682461082935333,-1.1487122774124146,0.8916256427764893,-1.4932137727737427,0.24239639937877655,0.0,-0.3306831419467926,-1.130106806755066,0.911837100982666,-1.49746835231781,0.2080920934677124,0.003,0.0,0.0,0.0,0.0,0.0,0.0,-3.1,3.1,-1.571,1.571,-1.571,1.571,-1.745,1.745,-2.617,2.617,0.003,0.03,-0.05000000074505806,-0.02500000037252903,-0.02500000037252903,-0.02500000037252903,-0.05000000074505806,-0.0005000000237487257,0.05000000074505806,0.02500000037252903,0.02500000037252903,0.02500000037252903,0.05000000074505806,0.0005000000237487257,-0.02886292788010539,-2.4424914023409174,0.16989092936382857,0.14,0.0,0.26,0.013472173362970352,-0.004624839872121811,0.37327951192855835,0.0,-1.646095462315178,-498.74975041229794
0.0,75.0,-0.02971751242876053,0.0014351262943819165,0.021625148132443428,-0.015936242416501045,0.013026614673435688,-0.0003154161968268454,-0.3306831419467926,-1.130106806755066,0.911837100982666,-1.49746835231781,0.2080920934677124,0.0,-0.36040064692497253,-1.128671646118164,0.9334622621536255,-1.5134046077728271,0.22111870348453522,0.003,0.0,0.0,0.0,0.0,0.0,0.0,-3.1,3.1,-1.571,1.571,-1.571,1.571,-1.745,1.745,-2.617,2.617,0.003,0.03,-0.05000000074505806,-0.02500000037252903,-0.02500000037252903,-0.02500000037252903,-0.05000000074505806,-0.0005000000237487257,0.05000000074505806,0.02500000037252903,0.02500000037252903,0.02500000037252903,0.05000000074505806,0.0005000000237487257,-0.027868680987592476,-2.4703600833285098,0.16693915354880795,0.14,0.0,0.26,0.014853669330477715,-0.005597758572548628,0.37034374475479126,0.0,-0.7084261956049498,225.04062401045476
0.0,76.0,-0.013966843485832214,0.008153649047017097,0.004157030954957008,-0.019320642575621605,-0.04004095494747162,0.0002470164035912603,-0.36040064692497253,-1.128671646118164,0.9334622621536255,-1.5134046077728271,0.22111870348453522,0.0,-0.37436747550964355,-1.1205179691314697,0.9376192688941956,-1.532725214958191,0.1810777485370636,0.003,0.0,0.0,0.0,0.0,0.0,0.0,-3.1,3.1,-1.571,1.571,-1.571,1.571,-1.745,1.745,-2.617,2.617,0.003,0.03,-0.05000000074505806,-0.02500000037252903,-0.02500000037252903,-0.02500000037252903,-0.05000000074505806,-0.0005000000237487257,0.05000000074505806,0.02500000037252903,0.02500000037252903,0.02500000037252903,0.05000000074505806,0.0005000000237487257,-0.027592245934110034,-2.49795232926262,0.16610913862310536,0.14,0.0,0.26,0.015135731548070908,-0.005946771707385778,0.36938828229904175,0.0,-0.1992035821686211,122.21342722471888
0.0,77.0,0.041115496307611465,-0.01116995606571436,-0.004736167844384909,-0.000869165756739676,-0.03520423546433449,-1.2694436009041965e-05,-0.37436747550964355,-1.1205179691314697,0.9376192688941956,-1.532725214958191,0.1810777485370636,0.0,-0.3332519829273224,-1.131687879562378,0.932883083820343,-1.5335943698883057,0.1458735167980194,0.003,0.0,0.0,0.0,0.0,0.0,0.0,-3.1,3.1,-1.571,1.571,-1.571,1.571,-1.745,1.745,-2.617,2.617,0.003,0.03,-0.05000000074505806,-0.02500000037252903,-0.02500000037252903,-0.02500000037252903,-0.05000000074505806,-0.0005000000237487257,0.05000000074505806,0.02500000037252903,0.02500000037252903,0.02500000037252903,0.05000000074505806,0.0005000000237487257,-0.02850993600177338,-2.5264622652643935,0.16884885549441364,0.14,0.0,0.26,0.012063922360539436,-0.004176076967269182,0.37011292576789856,0.0,0.6575320491139869,205.61655150782593
0.0,78.0,-0.009439248591661453,0.01295720599591732,-0.01750435121357441,2.2725305825588293e-05,-0.019593240693211555,0.00016773343668319285,-0.3332519829273224,-1.131687879562378,0.932883083820343,-1.5335943698883057,0.1458735167980194,0.0,-0.34269124269485474,-1.1187306642532349,0.915378749370575,-1.5335716009140015,0.126280277967453,0.003,0.0,0.0,0.0,0.0,0.0,0.0,-3.1,3.1,-1.571,1.571,-1.571,1.571,-1.745,1.745,-2.617,2.617,0.003,0.03,-0.05000000074505806,-0.02500000037252903,-0.02500000037252903,-0.02500000037252903,-0.05000000074505806,-0.0005000000237487257,0.05000000074505806,0.02500000037252903,0.02500000037252903,0.02500000037252903,0.05000000074505806,0.0005000000237487257,-0.0287816955031904,-2.555243960767584,0.1696516887719966,0.14,0.0,0.26,0.012699461542069912,-0.00453075859695673,0.372052401304245,0.0,0.19267998661991026,-111.5644949985784
0.0,79.0,-0.029268847778439522,-0.013444886542856693,-0.008661502972245216,0.014630177058279514,-0.026217620819807053,-0.00024829767062328756,-0.34269124269485474,-1.1187306642532349,0.915378749370575,-1.5335716009140015,0.126280277967453,0.0,-0.3719601035118103,-1.1321755647659302,0.9067172408103943,-1.5189414024353027,0.10006265342235565,0.003,0.0,0.0,0.0,0.0,0.0,0.0,-3.1,3.1,-1.571,1.571,-1.571,1.571,-1.745,1.745,-2.617,2.617,0.003,0.03,-0.05000000074505806,-0.02500000037252903,-0.02500000037252903,-0.02500000037252903,-0.05000000074505806,-0.0005000000237487257,0.05000000074505806,0.02500000037252903,0.02500000037252903,0.02500000037252903,0.05000000074505806,0.0005000000237487257,-0.029845448129376784,-2.5850894088969607,0.17275835183682664,0.14,0.0,0.26,0.00984134804457426,-0.003839305369183421,0.37353163957595825,0.0,0.7455991355592095,132.70059574543183
0.0,80.0,-0.01815846376121044,-0.01900472678244114,0.024757595732808113,-0.021089045330882072,0.015448059886693954,-2.4253482479252852e-05,-0.3719601035118103,-1.1321755647659302,0.9067172408103943,-1.5189414024353027,0.10006265342235565,0.0,-0.3901185691356659,-1.1511802673339844,0.9314748644828796,-1.5400304794311523,0.1155107170343399,0.003,0.0,0.0,0.0,0.0,0.0,0.0,-3.1,3.1,-1.571,1.571,-1.571,1.571,-1.745,1.745,-2.617,2.617,0.003,0.03,-0.05000000074505806,-0.02500000037252903,-0.02500000037252903,-0.02500000037252903,-0.05000000074505806,-0.0005000000237487257,0.05000000074505806,0.02500000037252903,0.02500000037252903,0.02500000037252903,0.05000000074505806,0.0005000000237487257,-0.02999762497939888,-2.6150870338763594,0.1731982245272707,0.14,0.0,0.26,0.006529559381306171,-0.002684912644326687,0.37034517526626587,0.0,0.105569445706577,-153.60712556463181
0.0,81.0,0.006107178516685963,0.012176250107586384,0.022551171481609344,-0.019799882546067238,8.26584582682699e-05,-0.0004970029112882912,-0.3901185691356659,-1.1511802673339844,0.9314748644828796,-1.5400304794311523,0.1155107170343399,0.0,-0.3840113878250122,-1.1390039920806885,0.9540260434150696,-1.5598303079605103,0.11559337377548218,0.003,0.0,0.0,0.0,0.0,0.0,0.0,-3.1,3.1,-1.571,1.571,-1.571,1.571,-1.745,1.745,-2.617,2.617,0.003,0.03,-0.05000000074505806,-0.02500000037252903,-0.02500000037252903,-0.02500000037252903,-0.05000000074505806,-0.0005000000237487257,0.05000000074505806,0.02500000037252903,0.02500000037252903,0.02500000037252903,0.05000000074505806,0.0005000000237487257,-0.028351808365699765,-2.6434388422420594,0.16837995238655867,0.14,0.0,0.26,0.01018176507204771,-0.004114161245524883,0.367154598236084,0.0,-1.156385313770889,-302.86914227459187
0.0,82.0,0.01576535589993,-0.01616695336997509,0.017796462401747704,-0.011928489431738853,-0.021731046959757805,-0.00039105210453271866,-0.3840113878250122,-1.1390039920806885,0.9540260434150696,-1.5598303079605103,0.11559337377548218,0.0,-0.36824601888656616,-1.1551709175109863,0.9718225002288818,-1.57175874710083,0.09386232495307922,0.003,0.0,0.0,0.0,0.0,0.0,0.0,-3.1,3.1,-1.571,1.571,-1.571,1.571,-1.745,1.745,-2.617,2.617,0.003,0.03,-0.05000000074505806,-0.02500000037252903,-0.02500000037252903,-0.02500000037252903,-0.05000000074505806,-0.0005000000237487257,0.05000000074505806,0.02500000037252903,0.02500000037252903,0.02500000037252903,0.05000000074505806,0.0005000000237487257,-0.028536445993984822,-2.671975288236044,0.16892733939177762,0.14,0.0,0.26,0.007658182643353939,-0.002954884199425578,0.36494454741477966,0.0,0.1313728812525472,309.0619668056247
0.0,83.0,0.012282000854611397,0.0097969900816679,-0.0014517554081976414,-0.014389343559741974,0.0036963652819395065,-1.642553979763761e-05,-0.36824601888656616,-1.1551709175109863,0.9718225002288818,-1.57175874710083,0.09386232495307922,0.0,-0.3559640049934387,-1.1453739404678345,0.9703707695007324,-1.5861481428146362,0.09755869209766388,0.003,0.0,0.0,0.0,0.0,0.0,0.0,-3.1,3.1,-1.571,1.571,-1.571,1.571,-1.745,1.745,-2.617,2.617,0.003,0.03,-0.05000000074505806,-0.02500000037252903,-0.02500000037252903,-0.02500000037252903,-0.05000000074505806,-0.0005000000237487257,0.05000000074505806,0.02500000037252903,0.02500000037252903,0.02500000037252903,0.05000000074505806,0.0005000000237487257,-0.028350424684698092,-2.7003257129207423,0.16837584353076926,0.14,0.0,0.26,0.00819147378206253,-0.0030456064268946648,0.36472660303115845,0.0,-0.13235900664200662,-63.295653094692916
0.0,84.0,-0.03273821249604225,0.012756734155118465,-0.007157653570175171,-0.018269358202815056,0.037177957594394684,9.499926818534732e-05,-0.3559640049934387,-1.1453739404678345,0.9703707695007324,-1.5861481428146362,0.09755869209766388,0.0,-0.3887022137641907,-1.1326172351837158,0.9632130861282349,-1.6044174432754517,0.13473665714263916,0.003,0.0,0.0,0.0,0.0,0.0,0.0,-3.1,3.1,-1.571,1.571,-1.571,1.571,-1.745,1.745,-2.617,2.617,0.003,0.03,-0.05000000074505806,-0.02500000037252903,-0.02500000037252903,-0.02500000037252903,-0.05000000074505806,-0.0005000000237487257,0.05000000074505806,0.02500000037252903,0.02500000037252903,0.02500000037252903,0.05000000074505806,0.0005000000237487257,-0.02843945746672913,-2.7287651703874714,0.16864002332402925,0.14,0.0,0.26,0.008115870878100395,-0.003323763143271208,0.36504754424095154,0.0,0.0634031503823973,46.98291768585694
0.0,85.0,-0.027525687590241432,0.0038933136966079473,-0.007631002459675074,-0.017151078209280968,-0.007372872903943062,-0.0003549167304299772,-0.3887022137641907,-1.1326172351837158,0.9632130861282349,-1.6044174432754517,0.13473665714263916,0.0,-0.41622790694236755,-1.1287239789962769,0.9555820822715759,-1.6215685606002808,0.12736378610134125,0.003,0.0,0.0,0.0,0.0,0.0,0.0,-3.1,3.1,-1.571,1.571,-1.571,1.571,-1.745,1.745,-2.617,2.617,0.003,0.03,-0.05000000074505806,-0.02500000037252903,-0.02500000037252903,-0.02500000037252903,-0.05000000074505806,-0.0005000000237487257,0.05000000074505806,0.02500000037252903,0.02500000037252903,0.02500000037252903,0.05000000074505806,0.0005000000237487257,-0.029044400930119466,-2.757809571317591,0.1704241794174743,0.14,0.0,0.26,0.006171603221446276,-0.0027281928341835737,0.36548420786857605,0.0,0.42819746242680923,87.55063489065887
0.0,86.0,0.0009286740678362548,-0.0022083374205976725,-0.015085350722074509,0.018833285197615623,0.002446886617690325,-0.00015488643839489669,-0.41622790694236755,-1.1287239789962769,0.9555820822715759,-1.6215685606002808,0.12736378610134125,0.0,-0.4152992367744446,-1.130932331085205,0.9404967427253723,-1.6027352809906006,0.12981067597866058,0.003,0.0,0.0,0.0,0.0,0.0,0.0,-3.1,3.1,-1.571,1.571,-1.571,1.571,-1.745,1.745,-2.617,2.617,0.003,0.03,-0.05000000074505806,-0.02500000037252903,-0.02500000037252903,-0.02500000037252903,-0.05000000074505806,-0.0005000000237487257,0.05000000074505806,0.02500000037252903,0.02500000037252903,0.02500000037252903,0.05000000074505806,0.0005000000237487257,-0.02963840668236817,-2.787447977999959,0.17215808631129753,0.14,0.0,0.26,0.005714465864002705,-0.002519771456718445,0.3677007555961609,0.0,0.4161376545175788,-2.894353898215307
0.0,87.0,-0.014568262733519077,0.0016127453418448567,-0.022748157382011414,0.022572187706828117,-0.048783957958221436,-2.0221741579007357e-05,-0.4152992367744446,-1.130932331085205,0.9404967427253723,-1.6027352809906006,0.12981067597866058,0.0,-0.4298675060272217,-1.1293195486068726,0.9177485704421997,-1.5801631212234497,0.08102671802043915,0.003,0.0,0.0,0.0,0.0,0.0,0.0,-3.1,3.1,-1.571,1.571,-1.571,1.571,-1.745,1.745,-2.617,2.617,0.003,0.03,-0.05000000074505806,-0.02500000037252903,-0.02500000037252903,-0.02500000037252903,-0.05000000074505806,-0.0005000000237487257,0.05000000074505806,0.02500000037252903,0.02500000037252903,0.02500000037252903,0.05000000074505806,0.0005000000237487257,-0.030403235187255094,-2.817851213187214,0.17436523503053897,0.14,0.0,0.26,0.0054310401901602745,-0.002489918377250433,0.3708522915840149,0.0,0.5297156926179447,27.258729144087823
0.0,88.0,-0.03663471341133118,-0.015481791459023952,-0.0026317492593079805,0.002514513209462166,0.04006658121943474,-0.00013904523802921176,-0.4298675060272217,-1.1293195486068726,0.9177485704421997,-1.5801631212234497,0.08102671802043915,0.0,-0.46650221943855286,-1.144801378250122,0.9151168465614319,-1.577648639678955,0.12109330296516418,0.003,0.0,0.0,0.0,0.0,0.0,0.0,-3.1,3.1,-1.571,1.571,-1.571,1.571,-1.745,1.745,-2.617,2.617,0.003,0.03,-0.05000000074505806,-0.02500000037252903,-0.02500000037252903,-0.02500000037252903,-0.05000000074505806,-0.0005000000237487257,0.05000000074505806,0.02500000037252903,0.02500000037252903,0.02500000037252903,0.05000000074505806,0.0005000000237487257,-0.03146898526969614,-2.8493201984569105,0.17739499787112414,0.14,0.0,0.26,0.0018489265348762274,-0.0009310701861977577,0.37127622961997986,0.0,0.7271430817404423,47.38257338939942
0.0,89.0,0.03559675067663193,0.013215371407568455,0.01256590522825718,0.010313545353710651,0.017032621428370476,0.00039154794649221003,-0.46650221943855286,-1.144801378250122,0.9151168465614319,-1.577648639678955,0.12109330296516418,0.0,-0.43090546131134033,-1.131585955619812,0.9276827573776245,-1.5673351287841797,0.1381259262561798,0.003,0.0,0.0,0.0,0.0,0.0,0.0,-3.1,3.1,-1.571,1.571,-1.571,1.571,-1.745,1.745,-2.617,2.617,0.003,0.03,-0.05000000074505806,-0.02500000037252903,-0.02500000037252903,-0.02500000037252903,-0.05000000074505806,-0.0005000000237487257,0.05000000074505806,0.02500000037252903,0.02500000037252903,0.02500000037252903,0.05000000074505806,0.0005000000237487257,-0.029674568442348035,-2.8789947668992584,0.17226307916192615,0.14,0.0,0.26,0.00750304339453578,-0.0034492795821279287,0.3700328469276428,0.0,-1.2316604902075179,-470.11285726751044
0.0,90.0,0.046457428485155106,-0.018590236082673073,0.01514526829123497,0.01699417643249035,-0.027925249189138412,-8.863450057106093e-05,-0.43090546131134033,-1.131585955619812,0.9276827573776245,-1.5673351287841797,0.1381259262561798,0.0,-0.38444802165031433,-1.1501761674880981,0.9428279995918274,-1.550341010093689,0.1102006733417511,0.003,0.0,0.0,0.0,0.0,0.0,0.0,-3.1,3.1,-1.571,1.571,-1.571,1.571,-1.745,1.745,-2.617,2.617,0.003,0.03,-0.05000000074505806,-0.02500000037252903,-0.02500000037252903,-0.02500000037252903,-0.05000000074505806,-0.0005000000237487257,0.05000000074505806,0.02500000037252903,0.02500000037252903,0.02500000037252903,0.05000000074505806,0.0005000000237487257,-0.02947890631245903,-2.9084736732117173,0.17169422329379352,0.14,0.0,0.26,0.007197792641818523,-0.002912079682573676,0.36878418922424316,0.0,-0.1365254083518308,262.8324196453649
0.0,91.0,-0.026700004935264587,-0.02337760291993618,0.01431373693048954,-0.011407904326915741,0.01771629974246025,-0.0002693656424526125,-0.38444802165031433,-1.1501761674880981,0.9428279995918274,-1.550341010093689,0.1102006733417511,0.0,-0.4111480116844177,-1.1735538244247437,0.9571417570114136,-1.5617488622665405,0.12791697680950165,0.003,0.0,0.0,0.0,0.0,0.0,0.0,-3.1,3.1,-1.571,1.571,-1.571,1.571,-1.745,1.745,-2.617,2.617,0.003,0.03,-0.05000000074505806,-0.02500000037252903,-0.02500000037252903,-0.02500000037252903,-0.05000000074505806,-0.0005000000237487257,0.05000000074505806,0.02500000037252903,0.02500000037252903,0.02500000037252903,0.05000000074505806,0.0005000000237487257,-0.030325049389021645,-2.938798722600739,0.1741408894803907,0.14,0.0,0.26,0.0026034004986286163,-0.0011350741842761636,0.3669856786727905,0.0,0.5871998847833204,173.69407035243628
0.0,92.0,0.010406041517853737,-0.024188388139009476,0.01104002632200718,-0.013966730795800686,0.024018865078687668,0.00034911316470243037,-0.4111480116844177,-1.1735538244247437,0.9571417570114136,-1.5617488622665405,0.12791697680950165,0.0,-0.40074196457862854,-1.197742223739624,0.9681817889213562,-1.5757155418395996,0.15193584561347961,0.003,0.0,0.0,0.0,0.0,0.0,0.0,-3.1,3.1,-1.571,1.571,-1.571,1.571,-1.745,1.745,-2.617,2.617,0.003,0.03,-0.05000000074505806,-0.02500000037252903,-0.02500000037252903,-0.02500000037252903,-0.05000000074505806,-0.0005000000237487257,0.05000000074505806,0.02500000037252903,0.02500000037252903,0.02500000037252903,0.05000000074505806,0.0005000000237487257,-0.031480878597046645,-2.970279601197786,0.17742851686537495,0.14,0.0,0.26,-0.0027385989669710398,0.0011602570302784443,0.3653813302516937,0.0,0.789030572396221,48.43936502709614
0.0,93.0,-0.009920358657836914,0.02042081393301487,0.010237730108201504,-0.020882222801446915,0.03908945992588997,-0.0003376851964276284,-0.40074196457862854,-1.197742223739624,0.9681817889213562,-1.5757155418395996,0.15193584561347961,0.0,-0.41066232323646545,-1.177321434020996,0.9784195423126221,-1.5965977907180786,0.19102530181407928,0.003,0.0,0.0,0.0,0.0,0.0,0.0,-3.1,3.1,-1.571,1.571,-1.571,1.571,-1.745,1.745,-2.617,2.617,0.003,0.03,-0.05000000074505806,-0.02500000037252903,-0.02500000037252903,-0.02500000037252903,-0.05000000074505806,-0.0005000000237487257,0.05000000074505806,0.02500000037252903,0.02500000037252903,0.02500000037252903,0.05000000074505806,0.0005000000237487257,-0.030088405215056242,-3.000368006412842,0.17346009689567293,0.14,0.0,0.26,0.0009533842094242573,-0.00041512149618938565,0.36370280385017395,0.0,-0.9524207927284833,-417.94832762992905
0.0,94.0,-0.03106831945478916,-0.007490049581974745,-0.01678285002708435,0.01825767010450363,-0.010909277014434338,-5.798530764877796e-05,-0.41066232323646545,-1.177321434020996,0.9784195423126221,-1.5965977907180786,0.19102530181407928,0.0,-0.44173064827919006,-1.1848114728927612,0.9616366624832153,-1.5783401727676392,0.18011602759361267,0.003,0.0,0.0,0.0,0.0,0.0,0.0,-3.1,3.1,-1.571,1.571,-1.571,1.571,-1.745,1.745,-2.617,2.617,0.003,0.03,-0.05000000074505806,-0.02500000037252903,-0.02500000037252903,-0.02500000037252903,-0.05000000074505806,-0.0005000000237487257,0.05000000074505806,0.02500000037252903,0.02500000037252903,0.02500000037252903,0.05000000074505806,0.0005000000237487257,-0.031128701417103378,-3.0314967078299455,0.1764332775218535,0.14,0.0,0.26,-0.0009869571076706052,0.00046672855387441814,0.366071492433548,0.0,0.7135633502833372,399.83619432283695
0.0,95.0,-0.026202278211712837,-0.0006669153226539493,-0.007881729863584042,-0.02156667225062847,0.030880320817232132,-0.00011828343849629164,-0.44173064827919006,-1.1848114728927612,0.9616366624832153,-1.5783401727676392,0.18011602759361267,0.0,-0.46793293952941895,-1.1854783296585083,0.9537549614906311,-1.5999068021774292,0.2109963446855545,0.003,0.0,0.0,0.0,0.0,0.0,0.0,-3.1,3.1,-1.571,1.571,-1.571,1.571,-1.745,1.745,-2.617,2.617,0.003,0.03,-0.05000000074505806,-0.02500000037252903,-0.02500000037252903,-0.02500000037252903,-0.05000000074505806,-0.0005000000237487257,0.05000000074505806,0.02500000037252903,0.02500000037252903,0.02500000037252903,0.05000000074505806,0.0005000000237487257,-0.032124331006952375,-3.063621038836898,0.1792326170286881,0.14,0.0,0.26,-0.004262068308889866,0.0021539139561355114,0.366339772939682,0.0,0.6718414816403007,-10.013248474328762
0.0,96.0,0.026215001940727234,-0.007055568974465132,-0.018505478277802467,-0.001931845094077289,0.04126777499914169,0.0003714359481818974,-0.46793293952941895,-1.1854783296585083,0.9537549614906311,-1.5999068021774292,0.2109963446855545,0.0,-0.4417179226875305,-1.1925338506698608,0.9352495074272156,-1.6018385887145996,0.2522641122341156,0.003,0.0,0.0,0.0,0.0,0.0,0.0,-3.1,3.1,-1.571,1.571,-1.571,1.571,-1.745,1.745,-2.617,2.617,0.003,0.03,-0.05000000074505806,-0.02500000037252903,-0.02500000037252903,-0.02500000037252903,-0.05000000074505806,-0.0005000000237487257,0.05000000074505806,0.02500000037252903,0.02500000037252903,0.02500000037252903,0.05000000074505806,0.0005000000237487257,-0.03376894012839218,-3.0973899789652903,0.18376327197890274,0.14,0.0,0.26,-0.008473733440041542,0.0040070666000247,0.3682055175304413,0.0,1.0873571880515165,99.7237695386918
0.0,97.0,-0.03943260759115219,-0.0007286362233571708,-0.010114666074514389,0.015287293121218681,0.005609733983874321,0.00014023280527908355,-0.4417179226875305,-1.1925338506698608,0.9352495074272156,-1.6018385887145996,0.2522641122341156,0.0,-0.4811505377292633,-1.1932624578475952,0.9251348376274109,-1.586551308631897,0.2578738331794739,0.003,0.0,0.0,0.0,0.0,0.0,0.0,-3.1,3.1,-1.571,1.571,-1.571,1.571,-1.745,1.745,-2.617,2.617,0.003,0.03,-0.05000000074505806,-0.02500000037252903,-0.02500000037252903,-0.02500000037252903,-0.05000000074505806,-0.0005000000237487257,0.05000000074505806,0.02500000037252903,0.02500000037252903,0.02500000037252903,0.05000000074505806,0.0005000000237487257,-0.03405554686508717,-3.1314455258303777,0.18454145026277205,0.14,0.0,0.26,-0.008293797262012959,0.004329976625740528,0.3697531223297119,0.0,0.18676278812863378,-216.14265598149186
0.0,98.0,-0.03829917684197426,0.019433367997407913,0.009408941492438316,0.008700402453541756,0.035908348858356476,-0.0004969240981154144,-0.4811505377292633,-1.1932624578475952,0.9251348376274109,-1.586551308631897,0.2578738331794739,0.0,-0.5194497108459473,-1.1738290786743164,0.934543788433075,-1.5778509378433228,0.29378217458724976,0.003,0.0,0.0,0.0,0.0,0.0,0.0,-3.1,3.1,-1.571,1.571,-1.571,1.571,-1.745,1.745,-2.617,2.617,0.003,0.03,-0.05000000074505806,-0.02500000037252903,-0.02500000037252903,-0.02500000037252903,-0.05000000074505806,-0.0005000000237487257,0.05000000074505806,0.02500000037252903,0.02500000037252903,0.02500000037252903,0.05000000074505806,0.0005000000237487257,-0.03206295203757936,-3.163508477867957,0.1790613080416296,0.14,0.0,0.26,-0.0019698278047144413,0.001126409275457263,0.36911576986312866,0.0,-1.3152341330741901,-360.47926108867773
0.0,99.0,-0.0065261851996183395,0.0035850198473781347,-0.012749304063618183,0.018986795097589493,-0.031193265691399574,0.00017787536489777267,-0.5194497108459473,-1.1738290786743164,0.934543788433075,-1.5778509378433228,0.29378217458724976,0.0,-0.5259758830070496,-1.1702440977096558,0.9217944741249084,-1.5588641166687012,0.2625889182090759,0.003,0.0,0.0,0.0,0.0,0.0,0.0,-3.1,3.1,-1.571,1.571,-1.571,1.571,-1.745,1.745,-2.617,2.617,0.003,0.03,-0.05000000074505806,-0.02500000037252903,-0.02500000037252903,-0.02500000037252903,-0.05000000074505806,-0.0005000000237487257,0.05000000074505806,0.02500000037252903,0.02500000037252903,0.02500000037252903,0.05000000074505806,0.0005000000237487257,-0.032208017278405096,-3.195716495146362,0.17946592233180397,0.14,0.0,0.26,-0.0009809567127376795,0.0005694690044037998,0.37104982137680054,1.0,0.0971074296418517,338.96197505185006
