PierreExeter/WidowX-reacher/tests/Check_env_consistency/logs/4_trained_agent.csv
episode,timestep,action_1,action_2,action_3,action_4,action_5,action_6,current_joint_pos_1,current_joint_pos_2,current_joint_pos_3,current_joint_pos_4,current_joint_pos_5,current_joint_pos_6,new_joint_pos_1,new_joint_pos_2,new_joint_pos_3,new_joint_pos_4,new_joint_pos_5,new_joint_pos_6,joint_vel_1,joint_vel_2,joint_vel_3,joint_vel_4,joint_vel_5,joint_vel_6,joint1_min,joint1_max,joint2_min,joint2_max,joint3_min,joint3_max,joint4_min,joint4_max,joint5_min,joint5_max,joint6_min,joint6_max,action_low1,action_low2,action_low3,action_low4,action_low5,action_low6,action_high1,action_high2,action_high3,action_high4,action_high5,action_high6,reward,return,dist,target_x,target_y,target_z,tip_y,tip_x,tip_z,done,est_vel
0.0,0.0,-0.05000000074505806,0.02500000037252903,0.02500000037252903,0.02500000037252903,0.05000000074505806,0.0005000000237487257,0.015339807607233524,-1.293145775794983,1.0109710693359375,-1.3537670373916626,-0.0715857669711113,0.0,-0.03466019406914711,-1.2681457996368408,1.0359710454940796,-1.3287670612335205,-0.021585766226053238,0.003,0.0,0.0,0.0,0.0,0.0,0.0,-3.1,3.1,-1.571,1.571,-1.571,1.571,-1.745,1.745,-2.617,2.617,0.003,0.03,-0.05000000074505806,-0.02500000037252903,-0.02500000037252903,-0.02500000037252903,-0.05000000074505806,-0.0005000000237487257,0.05000000074505806,0.02500000037252903,0.02500000037252903,0.02500000037252903,0.05000000074505806,0.0005000000237487257,-0.02496270276606083,-0.02496270276606083,0.15799589196472236,0.14,0.0,0.26,-0.000629084010142833,0.01814277470111847,0.3605640232563019,0.0,
0.0,1.0,0.05000000074505806,0.02500000037252903,0.02500000037252903,0.02500000037252903,0.05000000074505806,0.0005000000237487257,-0.03466019406914711,-1.2681457996368408,1.0359710454940796,-1.3287670612335205,-0.021585766226053238,0.0,0.01533980667591095,-1.2431458234786987,1.0609710216522217,-1.3037670850753784,0.028414234519004822,0.003,0.0,0.0,0.0,0.0,0.0,0.0,-3.1,3.1,-1.571,1.571,-1.571,1.571,-1.745,1.745,-2.617,2.617,0.003,0.03,-0.05000000074505806,-0.02500000037252903,-0.02500000037252903,-0.02500000037252903,-0.05000000074505806,-0.0005000000237487257,0.05000000074505806,0.02500000037252903,0.02500000037252903,0.02500000037252903,0.05000000074505806,0.0005000000237487257,-0.021261421963572502,-0.04622412472963333,0.14581296907420574,0.14,0.0,0.26,0.00046688702423125505,0.03043391741812229,0.3562105894088745,0.0,-2.923901493723988
0.0,2.0,-0.05000000074505806,0.02500000037252903,0.02500000037252903,0.02500000037252903,0.05000000074505806,0.0005000000237487257,0.01533980667591095,-1.2431458234786987,1.0609710216522217,-1.3037670850753784,0.028414234519004822,0.0,-0.03466019406914711,-1.2181458473205566,1.0859709978103638,-1.2787671089172363,0.07841423153877258,0.003,0.0,0.0,0.0,0.0,0.0,0.0,-3.1,3.1,-1.571,1.571,-1.571,1.571,-1.745,1.745,-2.617,2.617,0.003,0.03,-0.05000000074505806,-0.02500000037252903,-0.02500000037252903,-0.02500000037252903,-0.05000000074505806,-0.0005000000237487257,0.05000000074505806,0.02500000037252903,0.02500000037252903,0.02500000037252903,0.05000000074505806,0.0005000000237487257,-0.01783262938261032,-0.06405675411224365,0.13353886774857762,0.14,0.0,0.26,-0.0014690198004245758,0.04236650839447975,0.3510943055152893,0.0,-2.945784318150748
0.0,3.0,0.05000000074505806,0.02500000037252903,0.02500000037252903,0.02500000037252903,0.05000000074505806,0.0005000000237487257,-0.03466019406914711,-1.2181458473205566,1.0859709978103638,-1.2787671089172363,0.07841423153877258,0.0,0.01533980667591095,-1.1931458711624146,1.1109709739685059,-1.2537671327590942,0.12841422855854034,0.003,0.0,0.0,0.0,0.0,0.0,0.0,-3.1,3.1,-1.571,1.571,-1.571,1.571,-1.745,1.745,-2.617,2.617,0.003,0.03,-0.05000000074505806,-0.02500000037252903,-0.02500000037252903,-0.02500000037252903,-0.05000000074505806,-0.0005000000237487257,0.05000000074505806,0.02500000037252903,0.02500000037252903,0.02500000037252903,0.05000000074505806,0.0005000000237487257,-0.014669104479253292,-0.07872585859149694,0.12111608031857658,0.14,0.0,0.26,0.0008277795277535915,0.05395860597491264,0.34523671865463257,0.0,-2.9814689832002497
0.0,4.0,-0.05000000074505806,0.02500000037252903,0.02500000037252903,0.02500000037252903,0.05000000074505806,0.0005000000237487257,0.01533980667591095,-1.1931458711624146,1.1109709739685059,-1.2537671327590942,0.12841422855854034,0.0,-0.03466019406914711,-1.1681458950042725,1.135970950126648,-1.2287671566009521,0.1784142255783081,0.003,0.0,0.0,0.0,0.0,0.0,0.0,-3.1,3.1,-1.571,1.571,-1.571,1.571,-1.745,1.745,-2.617,2.617,0.003,0.03,-0.05000000074505806,-0.02500000037252903,-0.02500000037252903,-0.02500000037252903,-0.05000000074505806,-0.0005000000237487257,0.05000000074505806,0.02500000037252903,0.02500000037252903,0.02500000037252903,0.05000000074505806,0.0005000000237487257,-0.011807993985712528,-0.09053385257720947,0.1086645954317983,0.14,0.0,0.26,-0.0022561252117156982,0.0650666207075119,0.33866316080093384,0.0,-2.9883563728267895
0.0,5.0,0.05000000074505806,0.02500000037252903,0.02500000037252903,0.02500000037252903,0.05000000074505806,0.0005000000237487257,-0.03466019406914711,-1.1681458950042725,1.135970950126648,-1.2287671566009521,0.1784142255783081,0.0,0.01533980667591095,-1.1431459188461304,1.16097092628479,-1.20376718044281,0.22841422259807587,0.003,0.0,0.0,0.0,0.0,0.0,0.0,-3.1,3.1,-1.571,1.571,-1.571,1.571,-1.745,1.745,-2.617,2.617,0.003,0.03,-0.05000000074505806,-0.02500000037252903,-0.02500000037252903,-0.02500000037252903,-0.05000000074505806,-0.0005000000237487257,0.05000000074505806,0.02500000037252903,0.02500000037252903,0.02500000037252903,0.05000000074505806,0.0005000000237487257,-0.009226923808455467,-0.09976077638566494,0.09605687883751805,0.14,0.0,0.26,0.001162178348749876,0.07575631886720657,0.3314025402069092,0.0,-3.025851982627258
0.0,6.0,-0.05000000074505806,0.02500000037252903,0.02500000037252903,0.02500000037252903,0.05000000074505806,0.0005000000237487257,0.01533980667591095,-1.1431459188461304,1.16097092628479,-1.20376718044281,0.22841422259807587,0.0,-0.03466019406914711,-1.1181459426879883,1.1859709024429321,-1.178767204284668,0.27841421961784363,0.003,0.0,0.0,0.0,0.0,0.0,0.0,-3.1,3.1,-1.571,1.571,-1.571,1.571,-1.745,1.745,-2.617,2.617,0.003,0.03,-0.05000000074505806,-0.02500000037252903,-0.02500000037252903,-0.02500000037252903,-0.05000000074505806,-0.0005000000237487257,0.05000000074505806,0.02500000037252903,0.02500000037252903,0.02500000037252903,0.05000000074505806,0.0005000000237487257,-0.00697228591889143,-0.10673306230455637,0.0835002163488842,0.14,0.0,0.26,-0.0029765889048576355,0.08584478497505188,0.3234873116016388,0.0,-3.0135989972721244
0.0,7.0,0.05000000074505806,0.02500000037252903,0.02500000037252903,0.02500000037252903,-0.05000000074505806,0.0005000000237487257,-0.03466019406914711,-1.1181459426879883,1.1859709024429321,-1.178767204284668,0.27841421961784363,0.0,0.01533980667591095,-1.0931459665298462,1.2109708786010742,-1.1537672281265259,0.22841422259807587,0.003,0.0,0.0,0.0,0.0,0.0,0.0,-3.1,3.1,-1.571,1.571,-1.571,1.571,-1.745,1.745,-2.617,2.617,0.003,0.03,-0.05000000074505806,-0.02500000037252903,-0.02500000037252903,-0.02500000037252903,-0.05000000074505806,-0.0005000000237487257,0.05000000074505806,0.02500000037252903,0.02500000037252903,0.02500000037252903,0.05000000074505806,0.0005000000237487257,-0.005007339175790548,-0.11174040148034692,0.0707625558007016,0.14,0.0,0.26,0.0014641924062743783,0.09544302523136139,0.31495335698127747,0.0,-3.057038531563826
0.0,8.0,-0.05000000074505806,0.02500000037252903,0.02500000037252903,0.02500000037252903,0.05000000074505806,0.0005000000237487257,0.01533980667591095,-1.0931459665298462,1.2109708786010742,-1.1537672281265259,0.22841422259807587,0.0,-0.03466019406914711,-1.068145990371704,1.2359708547592163,-1.1287672519683838,0.27841421961784363,0.003,0.0,0.0,0.0,0.0,0.0,0.0,-3.1,3.1,-1.571,1.571,-1.571,1.571,-1.745,1.745,-2.617,2.617,0.003,0.03,-0.05000000074505806,-0.02500000037252903,-0.02500000037252903,-0.02500000037252903,-0.05000000074505806,-0.0005000000237487257,0.05000000074505806,0.02500000037252903,0.02500000037252903,0.02500000037252903,0.05000000074505806,0.0005000000237487257,-0.003386444179341197,-0.11512684565968812,0.05819316278049232,0.14,0.0,0.26,-0.003617676207795739,0.10433373600244522,0.3058396577835083,0.0,-3.016654324850225
0.0,9.0,0.05000000074505806,0.02500000037252903,0.02500000037252903,0.02500000037252903,0.05000000074505806,0.0005000000237487257,-0.03466019406914711,-1.068145990371704,1.2359708547592163,-1.1287672519683838,0.27841421961784363,0.0,0.01533980667591095,-1.043146014213562,1.2609708309173584,-1.1037672758102417,0.3284142315387726,0.003,0.0,0.0,0.0,0.0,0.0,0.0,-3.1,3.1,-1.571,1.571,-1.571,1.571,-1.745,1.745,-2.617,2.617,0.003,0.03,-0.05000000074505806,-0.02500000037252903,-0.02500000037252903,-0.02500000037252903,-0.05000000074505806,-0.0005000000237487257,0.05000000074505806,0.02500000037252903,0.02500000037252903,0.02500000037252903,0.05000000074505806,0.0005000000237487257,-0.002059521619230509,-0.11718636727891862,0.04538195165354136,0.14,0.0,0.26,0.0017284698551520705,0.11266989260911942,0.2961883842945099,0.0,-3.074690670468232
0.0,10.0,-0.05000000074505806,0.02500000037252903,0.02500000037252903,0.02500000037252903,0.05000000074505806,0.0005000000237487257,0.01533980667591095,-1.043146014213562,1.2609708309173584,-1.1037672758102417,0.3284142315387726,0.0,-0.03466019406914711,-1.01814603805542,1.2859708070755005,-1.0787672996520996,0.37841424345970154,0.003,0.0,0.0,0.0,0.0,0.0,0.0,-3.1,3.1,-1.571,1.571,-1.571,1.571,-1.745,1.745,-2.617,2.617,0.003,0.03,-0.05000000074505806,-0.02500000037252903,-0.02500000037252903,-0.02500000037252903,-0.05000000074505806,-0.0005000000237487257,0.05000000074505806,0.02500000037252903,0.02500000037252903,0.02500000037252903,0.05000000074505806,0.0005000000237487257,-0.0010875173611566424,-0.11827388464007527,0.03297752827649468,0.14,0.0,0.26,-0.004168007988482714,0.12020529806613922,0.28604447841644287,0.0,-2.9770616104912024
0.0,11.0,0.05000000074505806,0.02500000037252903,0.02500000037252903,0.02500000037252903,0.05000000074505806,0.0005000000237487257,-0.03466019406914711,-1.01814603805542,1.2859708070755005,-1.0787672996520996,0.37841424345970154,0.0,0.01533980667591095,-0.9931460618972778,1.3109707832336426,-1.0537673234939575,0.4284142553806305,0.003,0.0,0.0,0.0,0.0,0.0,0.0,-3.1,3.1,-1.571,1.571,-1.571,1.571,-1.745,1.745,-2.617,2.617,0.003,0.03,-0.05000000074505806,-0.02500000037252903,-0.02500000037252903,-0.02500000037252903,-0.05000000074505806,-0.0005000000237487257,0.05000000074505806,0.02500000037252903,0.02500000037252903,0.02500000037252903,0.05000000074505806,0.0005000000237487257,-0.0004082916711922735,-0.11868217631126754,0.020206228245467653,0.14,0.0,0.26,0.0019503167131915689,0.1271309107542038,0.2754555642604828,0.0,-3.0651120074464866
0.0,12.0,-0.05000000074505806,0.02500000037252903,0.02500000037252903,0.02500000037252903,0.05000000074505806,0.0005000000237487257,0.01533980667591095,-0.9931460618972778,1.3109707832336426,-1.0537673234939575,0.4284142553806305,0.0,-0.03466019406914711,-0.9681460857391357,1.3359707593917847,-1.0287673473358154,0.47841426730155945,0.003,0.0,0.0,0.0,0.0,0.0,0.0,-3.1,3.1,-1.571,1.571,-1.571,1.571,-1.745,1.745,-2.617,2.617,0.003,0.03,-0.05000000074505806,-0.02500000037252903,-0.02500000037252903,-0.02500000037252903,-0.05000000074505806,-0.0005000000237487257,0.05000000074505806,0.02500000037252903,0.02500000037252903,0.02500000037252903,0.05000000074505806,0.0005000000237487257,-8.786420221440494e-05,-0.11877004051348194,0.009373590722670659,0.14,0.0,0.26,-0.004617813974618912,0.13317769765853882,0.26447170972824097,0.0,-2.5998330054712784
0.0,13.0,0.05000000074505806,0.02500000037252903,0.02500000037252903,-0.02500000037252903,-0.05000000074505806,0.0005000000237487257,-0.03466019406914711,-0.9681460857391357,1.3359707593917847,-1.0287673473358154,0.47841426730155945,0.0,0.01533980667591095,-0.9431461095809937,1.3609707355499268,-1.0537673234939575,0.4284142553806305,0.003,0.0,0.0,0.0,0.0,0.0,0.0,-3.1,3.1,-1.571,1.571,-1.571,1.571,-1.745,1.745,-2.617,2.617,0.003,0.03,-0.05000000074505806,-0.02500000037252903,-0.02500000037252903,-0.02500000037252903,-0.05000000074505806,-0.0005000000237487257,0.05000000074505806,0.02500000037252903,0.02500000037252903,0.02500000037252903,0.05000000074505806,0.0005000000237487257,-3.121562986052595e-05,-0.11880125614334247,0.005587094814302397,0.14,0.0,0.26,0.0020754318684339523,0.13528650999069214,0.2578340768814087,0.0,-0.9087590180083828
0.0,14.0,-0.05000000074505806,0.02500000037252903,-0.02500000037252903,-0.02500000037252903,0.05000000074505806,0.0005000000237487257,0.01533980667591095,-0.9431461095809937,1.3609707355499268,-1.0537673234939575,0.4284142553806305,0.0,-0.03466019406914711,-0.9181461334228516,1.3359707593917847,-1.0787672996520996,0.47841426730155945,0.003,0.0,0.0,0.0,0.0,0.0,0.0,-3.1,3.1,-1.571,1.571,-1.571,1.571,-1.745,1.745,-2.617,2.617,0.003,0.03,-0.05000000074505806,-0.02500000037252903,-0.02500000037252903,-0.02500000037252903,-0.05000000074505806,-0.0005000000237487257,0.05000000074505806,0.02500000037252903,0.02500000037252903,0.02500000037252903,0.05000000074505806,0.0005000000237487257,-3.915446359314956e-05,-0.11884041060693562,0.00625735285493381,0.14,0.0,0.26,-0.004735781345516443,0.13657985627651215,0.2622426450252533,0.0,0.16086192975153915
0.0,15.0,0.05000000074505806,0.02500000037252903,0.02500000037252903,-0.02500000037252903,-0.05000000074505806,0.0005000000237487257,-0.03466019406914711,-0.9181461334228516,1.3359707593917847,-1.0787672996520996,0.47841426730155945,0.0,0.01533980667591095,-0.8931461572647095,1.3609707355499268,-1.1037672758102417,0.4284142553806305,0.003,0.0,0.0,0.0,0.0,0.0,0.0,-3.1,3.1,-1.571,1.571,-1.571,1.571,-1.745,1.745,-2.617,2.617,0.003,0.03,-0.05000000074505806,-0.02500000037252903,-0.02500000037252903,-0.02500000037252903,-0.05000000074505806,-0.0005000000237487257,0.05000000074505806,0.02500000037252903,0.02500000037252903,0.02500000037252903,0.05000000074505806,0.0005000000237487257,-2.625367596920114e-05,-0.11886666428290482,0.005123834147403343,0.14,0.0,0.26,0.002124303951859474,0.13847222924232483,0.2555946707725525,0.0,-0.27204448980731216
0.0,16.0,-0.05000000074505806,0.02500000037252903,-0.02500000037252903,-0.02500000037252903,0.05000000074505806,0.0005000000237487257,0.01533980667591095,-0.8931461572647095,1.3609707355499268,-1.1037672758102417,0.4284142553806305,0.0,-0.03466019406914711,-0.8681461811065674,1.3359707593917847,-1.1287672519683838,0.47841426730155945,0.003,0.0,0.0,0.0,0.0,0.0,0.0,-3.1,3.1,-1.571,1.571,-1.571,1.571,-1.745,1.745,-2.617,2.617,0.003,0.03,-0.05000000074505806,-0.02500000037252903,-0.02500000037252903,-0.02500000037252903,-0.05000000074505806,-0.0005000000237487257,0.05000000074505806,0.02500000037252903,0.02500000037252903,0.02500000037252903,0.05000000074505806,0.0005000000237487257,-2.356145705562085e-05,-0.11889022573996044,0.004854014465058795,0.14,0.0,0.26,-0.0048497398383915424,0.139866441488266,0.2598462402820587,0.0,-0.06475672376269156
0.0,17.0,0.05000000074505806,-0.02500000037252903,0.02500000037252903,-0.02500000037252903,-0.05000000074505806,0.0005000000237487257,-0.03466019406914711,-0.8681461811065674,1.3359707593917847,-1.1287672519683838,0.47841426730155945,0.0,0.01533980667591095,-0.8931461572647095,1.3609707355499268,-1.1537672281265259,0.4284142553806305,0.003,0.0,0.0,0.0,0.0,0.0,0.0,-3.1,3.1,-1.571,1.571,-1.571,1.571,-1.745,1.745,-2.617,2.617,0.003,0.03,-0.05000000074505806,-0.02500000037252903,-0.02500000037252903,-0.02500000037252903,-0.05000000074505806,-0.0005000000237487257,0.05000000074505806,0.02500000037252903,0.02500000037252903,0.02500000037252903,0.05000000074505806,0.0005000000237487257,-2.9714483389398083e-05,-0.11891994022334984,0.005451099206139564,0.14,0.0,0.26,0.0020704022608697414,0.1349586695432663,0.26011359691619873,0.0,0.1433003378593846
0.0,18.0,-0.05000000074505806,0.02500000037252903,-0.02500000037252903,-0.02500000037252903,0.05000000074505806,0.0005000000237487257,0.01533980667591095,-0.8931461572647095,1.3609707355499268,-1.1537672281265259,0.4284142553806305,0.0,-0.03466019406914711,-0.8681461811065674,1.3359707593917847,-1.178767204284668,0.47841426730155945,0.003,0.0,0.0,0.0,0.0,0.0,0.0,-3.1,3.1,-1.571,1.571,-1.571,1.571,-1.745,1.745,-2.617,2.617,0.003,0.03,-0.05000000074505806,-0.02500000037252903,-0.02500000037252903,-0.02500000037252903,-0.05000000074505806,-0.0005000000237487257,0.05000000074505806,0.02500000037252903,0.02500000037252903,0.02500000037252903,0.05000000074505806,0.0005000000237487257,-5.471727854455821e-05,-0.1189746575018944,0.007397112766469022,0.14,0.0,0.26,-0.004724092315882444,0.13624276220798492,0.2642759084701538,0.0,0.4670432544790699
0.0,19.0,0.05000000074505806,0.02500000037252903,0.02500000037252903,-0.02500000037252903,0.05000000074505806,0.0005000000237487257,-0.03466019406914711,-0.8681461811065674,1.3359707593917847,-1.178767204284668,0.47841426730155945,0.0,0.01533980667591095,-0.8431462049484253,1.3609707355499268,-1.20376718044281,0.528414249420166,0.003,0.0,0.0,0.0,0.0,0.0,0.0,-3.1,3.1,-1.571,1.571,-1.571,1.571,-1.745,1.745,-2.617,2.617,0.003,0.03,-0.05000000074505806,-0.02500000037252903,-0.02500000037252903,-0.02500000037252903,-0.05000000074505806,-0.0005000000237487257,0.05000000074505806,0.02500000037252903,0.02500000037252903,0.02500000037252903,0.05000000074505806,0.0005000000237487257,-1.3579415281128604e-05,-0.11898823691717553,0.003685025804256608,0.14,0.0,0.26,0.0021174964495003223,0.13802848756313324,0.25771772861480713,0.0,-0.8909008709309794
0.0,20.0,-0.05000000074505806,0.02500000037252903,-0.02500000037252903,-0.02500000037252903,0.05000000074505806,0.0005000000237487257,0.01533980667591095,-0.8431462049484253,1.3609707355499268,-1.20376718044281,0.528414249420166,0.0,-0.03466019406914711,-0.8181462287902832,1.3359707593917847,-1.2287671566009521,0.578414261341095,0.003,0.0,0.0,0.0,0.0,0.0,0.0,-3.1,3.1,-1.571,1.571,-1.571,1.571,-1.745,1.745,-2.617,2.617,0.003,0.03,-0.05000000074505806,-0.02500000037252903,-0.02500000037252903,-0.02500000037252903,-0.05000000074505806,-0.0005000000237487257,0.05000000074505806,0.02500000037252903,0.02500000037252903,0.02500000037252903,0.05000000074505806,0.0005000000237487257,-2.6670561055652797e-05,-0.11901490747823118,0.005164354803219192,0.14,0.0,0.26,-0.004833758343011141,0.1394055336713791,0.26171812415122986,0.0,0.3550389597510201
0.0,21.0,0.05000000074505806,-0.02500000037252903,0.02500000037252903,-0.02500000037252903,0.05000000074505806,0.0005000000237487257,-0.03466019406914711,-0.8181462287902832,1.3359707593917847,-1.2287671566009521,0.578414261341095,0.0,0.01533980667591095,-0.8431462049484253,1.3609707355499268,-1.2537671327590942,0.6284142732620239,0.003,0.0,0.0,0.0,0.0,0.0,0.0,-3.1,3.1,-1.571,1.571,-1.571,1.571,-1.745,1.745,-2.617,2.617,0.003,0.03,-0.05000000074505806,-0.02500000037252903,-0.02500000037252903,-0.02500000037252903,-0.05000000074505806,-0.0005000000237487257,0.05000000074505806,0.02500000037252903,0.02500000037252903,0.02500000037252903,0.05000000074505806,0.0005000000237487257,-4.1033421439351514e-05,-0.11905594089967053,0.006405733587640849,0.14,0.0,0.26,0.0020601977594196796,0.13429348170757294,0.2620553970336914,0.0,0.29793090826119756
0.0,22.0,-0.05000000074505806,0.02500000037252903,-0.02500000037252903,-0.02500000037252903,0.05000000074505806,0.0005000000237487257,0.01533980667591095,-0.8431462049484253,1.3609707355499268,-1.2537671327590942,0.6284142732620239,0.0,-0.03466019406914711,-0.8181462287902832,1.3359707593917847,-1.2787671089172363,0.6784142851829529,0.003,0.0,0.0,0.0,0.0,0.0,0.0,-3.1,3.1,-1.571,1.571,-1.571,1.571,-1.745,1.745,-2.617,2.617,0.003,0.03,-0.05000000074505806,-0.02500000037252903,-0.02500000037252903,-0.02500000037252903,-0.05000000074505806,-0.0005000000237487257,0.05000000074505806,0.02500000037252903,0.02500000037252903,0.02500000037252903,0.05000000074505806,0.0005000000237487257,-7.729778735665604e-05,-0.11913323868702719,0.008791915972499488,0.14,0.0,0.26,-0.0047005959786474705,0.1355651319026947,0.26596105098724365,0.0,0.5726837723660735
0.0,23.0,0.05000000074505806,0.02500000037252903,0.02500000037252903,-0.02500000037252903,0.05000000074505806,0.0005000000237487257,-0.03466019406914711,-0.8181462287902832,1.3359707593917847,-1.2787671089172363,0.6784142851829529,0.0,0.01533980667591095,-0.7931462526321411,1.3609707355499268,-1.3037670850753784,0.7284142971038818,0.003,0.0,0.0,0.0,0.0,0.0,0.0,-3.1,3.1,-1.571,1.571,-1.571,1.571,-1.745,1.745,-2.617,2.617,0.003,0.03,-0.05000000074505806,-0.02500000037252903,-0.02500000037252903,-0.02500000037252903,-0.05000000074505806,-0.0005000000237487257,0.05000000074505806,0.02500000037252903,0.02500000037252903,0.02500000037252903,0.05000000074505806,0.0005000000237487257,-1.2292645806155633e-05,-0.11914553133283334,0.0035060870162473123,0.14,0.0,0.26,0.0021053962409496307,0.1372397541999817,0.2595090866088867,0.0,-1.268598949500522
0.0,24.0,-0.05000000074505806,0.02500000037252903,0.02500000037252903,-0.02500000037252903,0.05000000074505806,0.0005000000237487257,0.01533980667591095,-0.7931462526321411,1.3609707355499268,-1.3037670850753784,0.7284142971038818,0.0,-0.03466019406914711,-0.768146276473999,1.3859707117080688,-1.3287670612335205,0.7784143090248108,0.003,0.0,0.0,0.0,0.0,0.0,0.0,-3.1,3.1,-1.571,1.571,-1.571,1.571,-1.745,1.745,-2.617,2.617,0.003,0.03,-0.05000000074505806,-0.02500000037252903,-0.02500000037252903,-0.02500000037252903,-0.05000000074505806,-0.0005000000237487257,0.05000000074505806,0.02500000037252903,0.02500000037252903,0.02500000037252903,0.05000000074505806,0.0005000000237487257,-7.277484837686643e-05,-0.11921830618121021,0.008530817635443534,0.14,0.0,0.26,-0.004801379982382059,0.13847173750400543,0.253116250038147,0.0,1.2059353486070932
0.0,25.0,0.05000000074505806,-0.02500000037252903,-0.02500000037252903,-0.02500000037252903,0.05000000074505806,-0.0005000000237487257,-0.03466019406914711,-0.768146276473999,1.3859707117080688,-1.3287670612335205,0.7784143090248108,0.0,0.01533980667591095,-0.7931462526321411,1.3609707355499268,-1.3537670373916626,0.8284143209457397,0.003,0.0,0.0,0.0,0.0,0.0,0.0,-3.1,3.1,-1.571,1.571,-1.571,1.571,-1.745,1.745,-2.617,2.617,0.003,0.03,-0.05000000074505806,-0.02500000037252903,-0.02500000037252903,-0.02500000037252903,-0.05000000074505806,-0.0005000000237487257,0.05000000074505806,0.02500000037252903,0.02500000037252903,0.02500000037252903,0.05000000074505806,0.0005000000237487257,-6.252624007174745e-05,-0.11928083242128196,0.007907353381105868,0.14,0.0,0.26,0.002044843742623925,0.13329264521598816,0.2636546194553375,0.0,-0.14963142104103988
0.0,26.0,-0.05000000074505806,0.02500000037252903,0.02500000037252903,-0.02500000037252903,0.05000000074505806,0.0005000000237487257,0.01533980667591095,-0.7931462526321411,1.3609707355499268,-1.3537670373916626,0.8284143209457397,0.0,-0.03466019406914711,-0.768146276473999,1.3859707117080688,-1.3787670135498047,0.8784143328666687,0.003,0.0,0.0,0.0,0.0,0.0,0.0,-3.1,3.1,-1.571,1.571,-1.571,1.571,-1.745,1.745,-2.617,2.617,0.003,0.03,-0.05000000074505806,-0.02500000037252903,-0.02500000037252903,-0.02500000037252903,-0.05000000074505806,-0.0005000000237487257,0.05000000074505806,0.02500000037252903,0.02500000037252903,0.02500000037252903,0.05000000074505806,0.0005000000237487257,-5.7588757044868544e-05,-0.11933842117832683,0.007588725749293197,0.14,0.0,0.26,-0.004668217618018389,0.13463133573532104,0.25735917687416077,0.0,-0.07647063163504102
0.0,27.0,0.05000000074505806,0.02500000037252903,-0.02500000037252903,-0.02500000037252903,0.05000000074505806,0.0005000000237487257,-0.03466019406914711,-0.768146276473999,1.3859707117080688,-1.3787670135498047,0.8784143328666687,0.0,0.01533980667591095,-0.7431463003158569,1.3609707355499268,-1.4037669897079468,0.9284143447875977,0.003,0.0,0.0,0.0,0.0,0.0,0.0,-3.1,3.1,-1.571,1.571,-1.571,1.571,-1.745,1.745,-2.617,2.617,0.003,0.03,-0.05000000074505806,-0.02500000037252903,-0.02500000037252903,-0.02500000037252903,-0.05000000074505806,-0.0005000000237487257,0.05000000074505806,0.02500000037252903,0.02500000037252903,0.02500000037252903,0.05000000074505806,0.0005000000237487257,-2.0437462808331475e-05,-0.11935885864113516,0.004520781262136165,0.14,0.0,0.26,0.002088033827021718,0.13610798120498657,0.2609642446041107,0.0,-0.7363066769176877
0.0,28.0,-0.05000000074505806,0.02500000037252903,0.02500000037252903,-0.02500000037252903,0.05000000074505806,0.0005000000237487257,0.01533980667591095,-0.7431463003158569,1.3609707355499268,-1.4037669897079468,0.9284143447875977,0.0,-0.03466019406914711,-0.7181463241577148,1.3859707117080688,-1.4287669658660889,0.9784143567085266,0.003,0.0,0.0,0.0,0.0,0.0,0.0,-3.1,3.1,-1.571,1.571,-1.571,1.571,-1.745,1.745,-2.617,2.617,0.003,0.03,-0.05000000074505806,-0.02500000037252903,-0.02500000037252903,-0.02500000037252903,-0.05000000074505806,-0.0005000000237487257,0.05000000074505806,0.02500000037252903,0.02500000037252903,0.02500000037252903,0.05000000074505806,0.0005000000237487257,-5.8343150158179924e-05,-0.11941720179129334,0.007638268839791054,0.14,0.0,0.26,-0.0047584595158696175,0.1372338980436325,0.2547038793563843,0.0,0.7481970186371733
0.0,29.0,0.05000000074505806,0.02500000037252903,-0.02500000037252903,-0.02500000037252903,0.05000000074505806,-0.0005000000237487257,-0.03466019406914711,-0.7181463241577148,1.3859707117080688,-1.4287669658660889,0.9784143567085266,0.0,0.01533980667591095,-0.6931463479995728,1.3609707355499268,-1.453766942024231,1.0284143686294556,0.003,0.0,0.0,0.0,0.0,0.0,0.0,-3.1,3.1,-1.571,1.571,-1.571,1.571,-1.745,1.745,-2.617,2.617,0.003,0.03,-0.05000000074505806,-0.02500000037252903,-0.02500000037252903,-0.02500000037252903,-0.05000000074505806,-0.0005000000237487257,0.05000000074505806,0.02500000037252903,0.02500000037252903,0.02500000037252903,0.05000000074505806,0.0005000000237487257,-9.481183042225894e-06,-0.11942668297433556,0.003079152908330444,0.14,0.0,0.26,0.002129107480868697,0.13878534734249115,0.25813648104667664,0.0,-1.0941878235505462
0.0,30.0,-0.05000000074505806,0.02500000037252903,0.02500000037252903,0.02500000037252903,0.05000000074505806,0.0005000000237487257,0.01533980667591095,-0.6931463479995728,1.3609707355499268,-1.453766942024231,1.0284143686294556,0.0,-0.03466019406914711,-0.6681463718414307,1.3859707117080688,-1.4287669658660889,1.0784143209457397,0.003,0.0,0.0,0.0,0.0,0.0,0.0,-3.1,3.1,-1.571,1.571,-1.571,1.571,-1.745,1.745,-2.617,2.617,0.003,0.03,-0.05000000074505806,-0.02500000037252903,-0.02500000037252903,-0.02500000037252903,-0.05000000074505806,-0.0005000000237487257,0.05000000074505806,0.02500000037252903,0.02500000037252903,0.02500000037252903,0.05000000074505806,0.0005000000237487257,-9.481183042225894e-06,-0.11943616415737779,0.003079152908330444,0.14,0.0,0.26,0.002129107480868697,0.13878534734249115,0.25813648104667664,0.0,0.0
0.0,31.0,-0.05000000074505806,0.02500000037252903,0.02500000037252903,0.02500000037252903,0.05000000074505806,0.0005000000237487257,0.01533980667591095,-0.6931463479995728,1.3609707355499268,-1.453766942024231,1.0284143686294556,0.0,-0.03466019406914711,-0.6681463718414307,1.3859707117080688,-1.4287669658660889,1.0784143209457397,0.003,0.0,0.0,0.0,0.0,0.0,0.0,-3.1,3.1,-1.571,1.571,-1.571,1.571,-1.745,1.745,-2.617,2.617,0.003,0.03,-0.05000000074505806,-0.02500000037252903,-0.02500000037252903,-0.02500000037252903,-0.05000000074505806,-0.0005000000237487257,0.05000000074505806,0.02500000037252903,0.02500000037252903,0.02500000037252903,0.05000000074505806,0.0005000000237487257,-9.481183042225894e-06,-0.11944564534042001,0.003079152908330444,0.14,0.0,0.26,0.002129107480868697,0.13878534734249115,0.25813648104667664,0.0,0.0
0.0,32.0,-0.05000000074505806,0.02500000037252903,0.02500000037252903,0.02500000037252903,0.05000000074505806,0.0005000000237487257,0.01533980667591095,-0.6931463479995728,1.3609707355499268,-1.453766942024231,1.0284143686294556,0.0,-0.03466019406914711,-0.6681463718414307,1.3859707117080688,-1.4287669658660889,1.0784143209457397,0.003,0.0,0.0,0.0,0.0,0.0,0.0,-3.1,3.1,-1.571,1.571,-1.571,1.571,-1.745,1.745,-2.617,2.617,0.003,0.03,-0.05000000074505806,-0.02500000037252903,-0.02500000037252903,-0.02500000037252903,-0.05000000074505806,-0.0005000000237487257,0.05000000074505806,0.02500000037252903,0.02500000037252903,0.02500000037252903,0.05000000074505806,0.0005000000237487257,-9.481183042225894e-06,-0.11945512652346224,0.003079152908330444,0.14,0.0,0.26,0.002129107480868697,0.13878534734249115,0.25813648104667664,0.0,0.0
0.0,33.0,-0.05000000074505806,0.02500000037252903,0.02500000037252903,0.02500000037252903,0.05000000074505806,-0.0005000000237487257,0.01533980667591095,-0.6931463479995728,1.3609707355499268,-1.453766942024231,1.0284143686294556,0.0,-0.03466019406914711,-0.6681463718414307,1.3859707117080688,-1.4287669658660889,1.0784143209457397,0.003,0.0,0.0,0.0,0.0,0.0,0.0,-3.1,3.1,-1.571,1.571,-1.571,1.571,-1.745,1.745,-2.617,2.617,0.003,0.03,-0.05000000074505806,-0.02500000037252903,-0.02500000037252903,-0.02500000037252903,-0.05000000074505806,-0.0005000000237487257,0.05000000074505806,0.02500000037252903,0.02500000037252903,0.02500000037252903,0.05000000074505806,0.0005000000237487257,-9.481183042225894e-06,-0.11946460770650447,0.003079152908330444,0.14,0.0,0.26,0.002129107480868697,0.13878534734249115,0.25813648104667664,0.0,0.0
0.0,34.0,-0.05000000074505806,0.02500000037252903,0.02500000037252903,0.02500000037252903,0.05000000074505806,0.0005000000237487257,0.01533980667591095,-0.6931463479995728,1.3609707355499268,-1.453766942024231,1.0284143686294556,0.0,-0.03466019406914711,-0.6681463718414307,1.3859707117080688,-1.4287669658660889,1.0784143209457397,0.003,0.0,0.0,0.0,0.0,0.0,0.0,-3.1,3.1,-1.571,1.571,-1.571,1.571,-1.745,1.745,-2.617,2.617,0.003,0.03,-0.05000000074505806,-0.02500000037252903,-0.02500000037252903,-0.02500000037252903,-0.05000000074505806,-0.0005000000237487257,0.05000000074505806,0.02500000037252903,0.02500000037252903,0.02500000037252903,0.05000000074505806,0.0005000000237487257,-9.481183042225894e-06,-0.11947408888954669,0.003079152908330444,0.14,0.0,0.26,0.002129107480868697,0.13878534734249115,0.25813648104667664,0.0,0.0
0.0,35.0,-0.05000000074505806,0.02500000037252903,0.02500000037252903,0.02500000037252903,0.05000000074505806,0.0005000000237487257,0.01533980667591095,-0.6931463479995728,1.3609707355499268,-1.453766942024231,1.0284143686294556,0.0,-0.03466019406914711,-0.6681463718414307,1.3859707117080688,-1.4287669658660889,1.0784143209457397,0.003,0.0,0.0,0.0,0.0,0.0,0.0,-3.1,3.1,-1.571,1.571,-1.571,1.571,-1.745,1.745,-2.617,2.617,0.003,0.03,-0.05000000074505806,-0.02500000037252903,-0.02500000037252903,-0.02500000037252903,-0.05000000074505806,-0.0005000000237487257,0.05000000074505806,0.02500000037252903,0.02500000037252903,0.02500000037252903,0.05000000074505806,0.0005000000237487257,-9.481183042225894e-06,-0.11948357007258892,0.003079152908330444,0.14,0.0,0.26,0.002129107480868697,0.13878534734249115,0.25813648104667664,0.0,0.0
0.0,36.0,-0.05000000074505806,0.02500000037252903,-0.02500000037252903,0.02500000037252903,0.05000000074505806,-0.0005000000237487257,0.01533980667591095,-0.6931463479995728,1.3609707355499268,-1.453766942024231,1.0284143686294556,0.0,-0.03466019406914711,-0.6681463718414307,1.3359707593917847,-1.4287669658660889,1.0784143209457397,0.003,0.0,0.0,0.0,0.0,0.0,0.0,-3.1,3.1,-1.571,1.571,-1.571,1.571,-1.745,1.745,-2.617,2.617,0.003,0.03,-0.05000000074505806,-0.02500000037252903,-0.02500000037252903,-0.02500000037252903,-0.05000000074505806,-0.0005000000237487257,0.05000000074505806,0.02500000037252903,0.02500000037252903,0.02500000037252903,0.05000000074505806,0.0005000000237487257,-9.481183042225894e-06,-0.11949305125563114,0.003079152908330444,0.14,0.0,0.26,0.002129107480868697,0.13878534734249115,0.25813648104667664,0.0,0.0
0.0,37.0,-0.05000000074505806,0.02500000037252903,0.02500000037252903,0.02500000037252903,0.05000000074505806,0.0005000000237487257,0.01533980667591095,-0.6931463479995728,1.3609707355499268,-1.453766942024231,1.0284143686294556,0.0,-0.03466019406914711,-0.6681463718414307,1.3859707117080688,-1.4287669658660889,1.0784143209457397,0.003,0.0,0.0,0.0,0.0,0.0,0.0,-3.1,3.1,-1.571,1.571,-1.571,1.571,-1.745,1.745,-2.617,2.617,0.003,0.03,-0.05000000074505806,-0.02500000037252903,-0.02500000037252903,-0.02500000037252903,-0.05000000074505806,-0.0005000000237487257,0.05000000074505806,0.02500000037252903,0.02500000037252903,0.02500000037252903,0.05000000074505806,0.0005000000237487257,-9.481183042225894e-06,-0.11950253243867337,0.003079152908330444,0.14,0.0,0.26,0.002129107480868697,0.13878534734249115,0.25813648104667664,0.0,0.0
0.0,38.0,-0.05000000074505806,0.02500000037252903,0.02500000037252903,0.02500000037252903,0.05000000074505806,-0.0005000000237487257,0.01533980667591095,-0.6931463479995728,1.3609707355499268,-1.453766942024231,1.0284143686294556,0.0,-0.03466019406914711,-0.6681463718414307,1.3859707117080688,-1.4287669658660889,1.0784143209457397,0.003,0.0,0.0,0.0,0.0,0.0,0.0,-3.1,3.1,-1.571,1.571,-1.571,1.571,-1.745,1.745,-2.617,2.617,0.003,0.03,-0.05000000074505806,-0.02500000037252903,-0.02500000037252903,-0.02500000037252903,-0.05000000074505806,-0.0005000000237487257,0.05000000074505806,0.02500000037252903,0.02500000037252903,0.02500000037252903,0.05000000074505806,0.0005000000237487257,-9.481183042225894e-06,-0.1195120136217156,0.003079152908330444,0.14,0.0,0.26,0.002129107480868697,0.13878534734249115,0.25813648104667664,0.0,0.0
0.0,39.0,-0.05000000074505806,0.02500000037252903,0.02500000037252903,0.02500000037252903,0.05000000074505806,-0.0005000000237487257,0.01533980667591095,-0.6931463479995728,1.3609707355499268,-1.453766942024231,1.0284143686294556,0.0,-0.03466019406914711,-0.6681463718414307,1.3859707117080688,-1.4287669658660889,1.0784143209457397,0.003,0.0,0.0,0.0,0.0,0.0,0.0,-3.1,3.1,-1.571,1.571,-1.571,1.571,-1.745,1.745,-2.617,2.617,0.003,0.03,-0.05000000074505806,-0.02500000037252903,-0.02500000037252903,-0.02500000037252903,-0.05000000074505806,-0.0005000000237487257,0.05000000074505806,0.02500000037252903,0.02500000037252903,0.02500000037252903,0.05000000074505806,0.0005000000237487257,-9.481183042225894e-06,-0.11952149480475782,0.003079152908330444,0.14,0.0,0.26,0.002129107480868697,0.13878534734249115,0.25813648104667664,0.0,0.0
0.0,40.0,-0.05000000074505806,0.02500000037252903,0.02500000037252903,0.02500000037252903,0.05000000074505806,-0.0005000000237487257,0.01533980667591095,-0.6931463479995728,1.3609707355499268,-1.453766942024231,1.0284143686294556,0.0,-0.03466019406914711,-0.6681463718414307,1.3859707117080688,-1.4287669658660889,1.0784143209457397,0.003,0.0,0.0,0.0,0.0,0.0,0.0,-3.1,3.1,-1.571,1.571,-1.571,1.571,-1.745,1.745,-2.617,2.617,0.003,0.03,-0.05000000074505806,-0.02500000037252903,-0.02500000037252903,-0.02500000037252903,-0.05000000074505806,-0.0005000000237487257,0.05000000074505806,0.02500000037252903,0.02500000037252903,0.02500000037252903,0.05000000074505806,0.0005000000237487257,-9.481183042225894e-06,-0.11953097598780005,0.003079152908330444,0.14,0.0,0.26,0.002129107480868697,0.13878534734249115,0.25813648104667664,0.0,0.0
0.0,41.0,-0.05000000074505806,0.02500000037252903,0.02500000037252903,0.02500000037252903,0.05000000074505806,-0.0005000000237487257,0.01533980667591095,-0.6931463479995728,1.3609707355499268,-1.453766942024231,1.0284143686294556,0.0,-0.03466019406914711,-0.6681463718414307,1.3859707117080688,-1.4287669658660889,1.0784143209457397,0.003,0.0,0.0,0.0,0.0,0.0,0.0,-3.1,3.1,-1.571,1.571,-1.571,1.571,-1.745,1.745,-2.617,2.617,0.003,0.03,-0.05000000074505806,-0.02500000037252903,-0.02500000037252903,-0.02500000037252903,-0.05000000074505806,-0.0005000000237487257,0.05000000074505806,0.02500000037252903,0.02500000037252903,0.02500000037252903,0.05000000074505806,0.0005000000237487257,-9.481183042225894e-06,-0.11954045717084227,0.003079152908330444,0.14,0.0,0.26,0.002129107480868697,0.13878534734249115,0.25813648104667664,0.0,0.0
0.0,42.0,-0.05000000074505806,0.02500000037252903,0.02500000037252903,0.02500000037252903,0.05000000074505806,0.0005000000237487257,0.01533980667591095,-0.6931463479995728,1.3609707355499268,-1.453766942024231,1.0284143686294556,0.0,-0.03466019406914711,-0.6681463718414307,1.3859707117080688,-1.4287669658660889,1.0784143209457397,0.003,0.0,0.0,0.0,0.0,0.0,0.0,-3.1,3.1,-1.571,1.571,-1.571,1.571,-1.745,1.745,-2.617,2.617,0.003,0.03,-0.05000000074505806,-0.02500000037252903,-0.02500000037252903,-0.02500000037252903,-0.05000000074505806,-0.0005000000237487257,0.05000000074505806,0.02500000037252903,0.02500000037252903,0.02500000037252903,0.05000000074505806,0.0005000000237487257,-9.481183042225894e-06,-0.1195499383538845,0.003079152908330444,0.14,0.0,0.26,0.002129107480868697,0.13878534734249115,0.25813648104667664,0.0,0.0
0.0,43.0,-0.05000000074505806,0.02500000037252903,0.02500000037252903,0.02500000037252903,0.05000000074505806,-0.0005000000237487257,0.01533980667591095,-0.6931463479995728,1.3609707355499268,-1.453766942024231,1.0284143686294556,0.0,-0.03466019406914711,-0.6681463718414307,1.3859707117080688,-1.4287669658660889,1.0784143209457397,0.003,0.0,0.0,0.0,0.0,0.0,0.0,-3.1,3.1,-1.571,1.571,-1.571,1.571,-1.745,1.745,-2.617,2.617,0.003,0.03,-0.05000000074505806,-0.02500000037252903,-0.02500000037252903,-0.02500000037252903,-0.05000000074505806,-0.0005000000237487257,0.05000000074505806,0.02500000037252903,0.02500000037252903,0.02500000037252903,0.05000000074505806,0.0005000000237487257,-9.481183042225894e-06,-0.11955941953692673,0.003079152908330444,0.14,0.0,0.26,0.002129107480868697,0.13878534734249115,0.25813648104667664,0.0,0.0
0.0,44.0,-0.05000000074505806,0.02500000037252903,0.02500000037252903,0.02500000037252903,0.05000000074505806,-0.0005000000237487257,0.01533980667591095,-0.6931463479995728,1.3609707355499268,-1.453766942024231,1.0284143686294556,0.0,-0.03466019406914711,-0.6681463718414307,1.3859707117080688,-1.4287669658660889,1.0784143209457397,0.003,0.0,0.0,0.0,0.0,0.0,0.0,-3.1,3.1,-1.571,1.571,-1.571,1.571,-1.745,1.745,-2.617,2.617,0.003,0.03,-0.05000000074505806,-0.02500000037252903,-0.02500000037252903,-0.02500000037252903,-0.05000000074505806,-0.0005000000237487257,0.05000000074505806,0.02500000037252903,0.02500000037252903,0.02500000037252903,0.05000000074505806,0.0005000000237487257,-9.481183042225894e-06,-0.11956890071996895,0.003079152908330444,0.14,0.0,0.26,0.002129107480868697,0.13878534734249115,0.25813648104667664,0.0,0.0
0.0,45.0,-0.05000000074505806,0.02500000037252903,0.02500000037252903,0.02500000037252903,0.05000000074505806,-0.0005000000237487257,0.01533980667591095,-0.6931463479995728,1.3609707355499268,-1.453766942024231,1.0284143686294556,0.0,-0.03466019406914711,-0.6681463718414307,1.3859707117080688,-1.4287669658660889,1.0784143209457397,0.003,0.0,0.0,0.0,0.0,0.0,0.0,-3.1,3.1,-1.571,1.571,-1.571,1.571,-1.745,1.745,-2.617,2.617,0.003,0.03,-0.05000000074505806,-0.02500000037252903,-0.02500000037252903,-0.02500000037252903,-0.05000000074505806,-0.0005000000237487257,0.05000000074505806,0.02500000037252903,0.02500000037252903,0.02500000037252903,0.05000000074505806,0.0005000000237487257,-9.481183042225894e-06,-0.11957838190301118,0.003079152908330444,0.14,0.0,0.26,0.002129107480868697,0.13878534734249115,0.25813648104667664,0.0,0.0
0.0,46.0,-0.05000000074505806,0.02500000037252903,0.02500000037252903,0.02500000037252903,0.05000000074505806,0.0005000000237487257,0.01533980667591095,-0.6931463479995728,1.3609707355499268,-1.453766942024231,1.0284143686294556,0.0,-0.03466019406914711,-0.6681463718414307,1.3859707117080688,-1.4287669658660889,1.0784143209457397,0.003,0.0,0.0,0.0,0.0,0.0,0.0,-3.1,3.1,-1.571,1.571,-1.571,1.571,-1.745,1.745,-2.617,2.617,0.003,0.03,-0.05000000074505806,-0.02500000037252903,-0.02500000037252903,-0.02500000037252903,-0.05000000074505806,-0.0005000000237487257,0.05000000074505806,0.02500000037252903,0.02500000037252903,0.02500000037252903,0.05000000074505806,0.0005000000237487257,-9.481183042225894e-06,-0.1195878630860534,0.003079152908330444,0.14,0.0,0.26,0.002129107480868697,0.13878534734249115,0.25813648104667664,0.0,0.0
0.0,47.0,-0.05000000074505806,0.02500000037252903,0.02500000037252903,0.02500000037252903,0.05000000074505806,-0.0005000000237487257,0.01533980667591095,-0.6931463479995728,1.3609707355499268,-1.453766942024231,1.0284143686294556,0.0,-0.03466019406914711,-0.6681463718414307,1.3859707117080688,-1.4287669658660889,1.0784143209457397,0.003,0.0,0.0,0.0,0.0,0.0,0.0,-3.1,3.1,-1.571,1.571,-1.571,1.571,-1.745,1.745,-2.617,2.617,0.003,0.03,-0.05000000074505806,-0.02500000037252903,-0.02500000037252903,-0.02500000037252903,-0.05000000074505806,-0.0005000000237487257,0.05000000074505806,0.02500000037252903,0.02500000037252903,0.02500000037252903,0.05000000074505806,0.0005000000237487257,-9.481183042225894e-06,-0.11959734426909563,0.003079152908330444,0.14,0.0,0.26,0.002129107480868697,0.13878534734249115,0.25813648104667664,0.0,0.0
0.0,48.0,-0.05000000074505806,0.02500000037252903,0.02500000037252903,0.02500000037252903,0.05000000074505806,-0.0005000000237487257,0.01533980667591095,-0.6931463479995728,1.3609707355499268,-1.453766942024231,1.0284143686294556,0.0,-0.03466019406914711,-0.6681463718414307,1.3859707117080688,-1.4287669658660889,1.0784143209457397,0.003,0.0,0.0,0.0,0.0,0.0,0.0,-3.1,3.1,-1.571,1.571,-1.571,1.571,-1.745,1.745,-2.617,2.617,0.003,0.03,-0.05000000074505806,-0.02500000037252903,-0.02500000037252903,-0.02500000037252903,-0.05000000074505806,-0.0005000000237487257,0.05000000074505806,0.02500000037252903,0.02500000037252903,0.02500000037252903,0.05000000074505806,0.0005000000237487257,-9.481183042225894e-06,-0.11960682545213785,0.003079152908330444,0.14,0.0,0.26,0.002129107480868697,0.13878534734249115,0.25813648104667664,0.0,0.0
0.0,49.0,-0.05000000074505806,0.02500000037252903,0.02500000037252903,0.02500000037252903,0.05000000074505806,0.0005000000237487257,0.01533980667591095,-0.6931463479995728,1.3609707355499268,-1.453766942024231,1.0284143686294556,0.0,-0.03466019406914711,-0.6681463718414307,1.3859707117080688,-1.4287669658660889,1.0784143209457397,0.003,0.0,0.0,0.0,0.0,0.0,0.0,-3.1,3.1,-1.571,1.571,-1.571,1.571,-1.745,1.745,-2.617,2.617,0.003,0.03,-0.05000000074505806,-0.02500000037252903,-0.02500000037252903,-0.02500000037252903,-0.05000000074505806,-0.0005000000237487257,0.05000000074505806,0.02500000037252903,0.02500000037252903,0.02500000037252903,0.05000000074505806,0.0005000000237487257,-9.481183042225894e-06,-0.11961630663518008,0.003079152908330444,0.14,0.0,0.26,0.002129107480868697,0.13878534734249115,0.25813648104667664,0.0,0.0
0.0,50.0,-0.05000000074505806,0.02500000037252903,0.02500000037252903,0.02500000037252903,0.05000000074505806,0.0005000000237487257,0.01533980667591095,-0.6931463479995728,1.3609707355499268,-1.453766942024231,1.0284143686294556,0.0,-0.03466019406914711,-0.6681463718414307,1.3859707117080688,-1.4287669658660889,1.0784143209457397,0.003,0.0,0.0,0.0,0.0,0.0,0.0,-3.1,3.1,-1.571,1.571,-1.571,1.571,-1.745,1.745,-2.617,2.617,0.003,0.03,-0.05000000074505806,-0.02500000037252903,-0.02500000037252903,-0.02500000037252903,-0.05000000074505806,-0.0005000000237487257,0.05000000074505806,0.02500000037252903,0.02500000037252903,0.02500000037252903,0.05000000074505806,0.0005000000237487257,-9.481183042225894e-06,-0.1196257878182223,0.003079152908330444,0.14,0.0,0.26,0.002129107480868697,0.13878534734249115,0.25813648104667664,0.0,0.0
0.0,51.0,-0.05000000074505806,0.02500000037252903,0.02500000037252903,0.02500000037252903,0.05000000074505806,0.0005000000237487257,0.01533980667591095,-0.6931463479995728,1.3609707355499268,-1.453766942024231,1.0284143686294556,0.0,-0.03466019406914711,-0.6681463718414307,1.3859707117080688,-1.4287669658660889,1.0784143209457397,0.003,0.0,0.0,0.0,0.0,0.0,0.0,-3.1,3.1,-1.571,1.571,-1.571,1.571,-1.745,1.745,-2.617,2.617,0.003,0.03,-0.05000000074505806,-0.02500000037252903,-0.02500000037252903,-0.02500000037252903,-0.05000000074505806,-0.0005000000237487257,0.05000000074505806,0.02500000037252903,0.02500000037252903,0.02500000037252903,0.05000000074505806,0.0005000000237487257,-9.481183042225894e-06,-0.11963526900126453,0.003079152908330444,0.14,0.0,0.26,0.002129107480868697,0.13878534734249115,0.25813648104667664,0.0,0.0
0.0,52.0,-0.05000000074505806,0.02500000037252903,0.02500000037252903,0.02500000037252903,0.05000000074505806,-0.0005000000237487257,0.01533980667591095,-0.6931463479995728,1.3609707355499268,-1.453766942024231,1.0284143686294556,0.0,-0.03466019406914711,-0.6681463718414307,1.3859707117080688,-1.4287669658660889,1.0784143209457397,0.003,0.0,0.0,0.0,0.0,0.0,0.0,-3.1,3.1,-1.571,1.571,-1.571,1.571,-1.745,1.745,-2.617,2.617,0.003,0.03,-0.05000000074505806,-0.02500000037252903,-0.02500000037252903,-0.02500000037252903,-0.05000000074505806,-0.0005000000237487257,0.05000000074505806,0.02500000037252903,0.02500000037252903,0.02500000037252903,0.05000000074505806,0.0005000000237487257,-9.481183042225894e-06,-0.11964475018430676,0.003079152908330444,0.14,0.0,0.26,0.002129107480868697,0.13878534734249115,0.25813648104667664,0.0,0.0
0.0,53.0,-0.05000000074505806,0.02500000037252903,0.02500000037252903,0.02500000037252903,0.05000000074505806,0.0005000000237487257,0.01533980667591095,-0.6931463479995728,1.3609707355499268,-1.453766942024231,1.0284143686294556,0.0,-0.03466019406914711,-0.6681463718414307,1.3859707117080688,-1.4287669658660889,1.0784143209457397,0.003,0.0,0.0,0.0,0.0,0.0,0.0,-3.1,3.1,-1.571,1.571,-1.571,1.571,-1.745,1.745,-2.617,2.617,0.003,0.03,-0.05000000074505806,-0.02500000037252903,-0.02500000037252903,-0.02500000037252903,-0.05000000074505806,-0.0005000000237487257,0.05000000074505806,0.02500000037252903,0.02500000037252903,0.02500000037252903,0.05000000074505806,0.0005000000237487257,-9.481183042225894e-06,-0.11965423136734898,0.003079152908330444,0.14,0.0,0.26,0.002129107480868697,0.13878534734249115,0.25813648104667664,0.0,0.0
0.0,54.0,-0.05000000074505806,0.02500000037252903,0.02500000037252903,0.02500000037252903,0.05000000074505806,0.0005000000237487257,0.01533980667591095,-0.6931463479995728,1.3609707355499268,-1.453766942024231,1.0284143686294556,0.0,-0.03466019406914711,-0.6681463718414307,1.3859707117080688,-1.4287669658660889,1.0784143209457397,0.003,0.0,0.0,0.0,0.0,0.0,0.0,-3.1,3.1,-1.571,1.571,-1.571,1.571,-1.745,1.745,-2.617,2.617,0.003,0.03,-0.05000000074505806,-0.02500000037252903,-0.02500000037252903,-0.02500000037252903,-0.05000000074505806,-0.0005000000237487257,0.05000000074505806,0.02500000037252903,0.02500000037252903,0.02500000037252903,0.05000000074505806,0.0005000000237487257,-9.481183042225894e-06,-0.11966371255039121,0.003079152908330444,0.14,0.0,0.26,0.002129107480868697,0.13878534734249115,0.25813648104667664,0.0,0.0
0.0,55.0,-0.05000000074505806,0.02500000037252903,0.02500000037252903,0.02500000037252903,0.05000000074505806,0.0005000000237487257,0.01533980667591095,-0.6931463479995728,1.3609707355499268,-1.453766942024231,1.0284143686294556,0.0,-0.03466019406914711,-0.6681463718414307,1.3859707117080688,-1.4287669658660889,1.0784143209457397,0.003,0.0,0.0,0.0,0.0,0.0,0.0,-3.1,3.1,-1.571,1.571,-1.571,1.571,-1.745,1.745,-2.617,2.617,0.003,0.03,-0.05000000074505806,-0.02500000037252903,-0.02500000037252903,-0.02500000037252903,-0.05000000074505806,-0.0005000000237487257,0.05000000074505806,0.02500000037252903,0.02500000037252903,0.02500000037252903,0.05000000074505806,0.0005000000237487257,-9.481183042225894e-06,-0.11967319373343344,0.003079152908330444,0.14,0.0,0.26,0.002129107480868697,0.13878534734249115,0.25813648104667664,0.0,0.0
0.0,56.0,-0.05000000074505806,0.02500000037252903,-0.02500000037252903,0.02500000037252903,0.05000000074505806,-0.0005000000237487257,0.01533980667591095,-0.6931463479995728,1.3609707355499268,-1.453766942024231,1.0284143686294556,0.0,-0.03466019406914711,-0.6681463718414307,1.3359707593917847,-1.4287669658660889,1.0784143209457397,0.003,0.0,0.0,0.0,0.0,0.0,0.0,-3.1,3.1,-1.571,1.571,-1.571,1.571,-1.745,1.745,-2.617,2.617,0.003,0.03,-0.05000000074505806,-0.02500000037252903,-0.02500000037252903,-0.02500000037252903,-0.05000000074505806,-0.0005000000237487257,0.05000000074505806,0.02500000037252903,0.02500000037252903,0.02500000037252903,0.05000000074505806,0.0005000000237487257,-9.481183042225894e-06,-0.11968267491647566,0.003079152908330444,0.14,0.0,0.26,0.002129107480868697,0.13878534734249115,0.25813648104667664,0.0,0.0
0.0,57.0,-0.05000000074505806,0.02500000037252903,-0.02500000037252903,0.02500000037252903,0.05000000074505806,0.0005000000237487257,0.01533980667591095,-0.6931463479995728,1.3609707355499268,-1.453766942024231,1.0284143686294556,0.0,-0.03466019406914711,-0.6681463718414307,1.3359707593917847,-1.4287669658660889,1.0784143209457397,0.003,0.0,0.0,0.0,0.0,0.0,0.0,-3.1,3.1,-1.571,1.571,-1.571,1.571,-1.745,1.745,-2.617,2.617,0.003,0.03,-0.05000000074505806,-0.02500000037252903,-0.02500000037252903,-0.02500000037252903,-0.05000000074505806,-0.0005000000237487257,0.05000000074505806,0.02500000037252903,0.02500000037252903,0.02500000037252903,0.05000000074505806,0.0005000000237487257,-9.481183042225894e-06,-0.11969215609951789,0.003079152908330444,0.14,0.0,0.26,0.002129107480868697,0.13878534734249115,0.25813648104667664,0.0,0.0
0.0,58.0,-0.05000000074505806,0.02500000037252903,0.02500000037252903,0.02500000037252903,0.05000000074505806,0.0005000000237487257,0.01533980667591095,-0.6931463479995728,1.3609707355499268,-1.453766942024231,1.0284143686294556,0.0,-0.03466019406914711,-0.6681463718414307,1.3859707117080688,-1.4287669658660889,1.0784143209457397,0.003,0.0,0.0,0.0,0.0,0.0,0.0,-3.1,3.1,-1.571,1.571,-1.571,1.571,-1.745,1.745,-2.617,2.617,0.003,0.03,-0.05000000074505806,-0.02500000037252903,-0.02500000037252903,-0.02500000037252903,-0.05000000074505806,-0.0005000000237487257,0.05000000074505806,0.02500000037252903,0.02500000037252903,0.02500000037252903,0.05000000074505806,0.0005000000237487257,-9.481183042225894e-06,-0.11970163728256011,0.003079152908330444,0.14,0.0,0.26,0.002129107480868697,0.13878534734249115,0.25813648104667664,0.0,0.0
0.0,59.0,-0.05000000074505806,0.02500000037252903,0.02500000037252903,0.02500000037252903,0.05000000074505806,0.0005000000237487257,0.01533980667591095,-0.6931463479995728,1.3609707355499268,-1.453766942024231,1.0284143686294556,0.0,-0.03466019406914711,-0.6681463718414307,1.3859707117080688,-1.4287669658660889,1.0784143209457397,0.003,0.0,0.0,0.0,0.0,0.0,0.0,-3.1,3.1,-1.571,1.571,-1.571,1.571,-1.745,1.745,-2.617,2.617,0.003,0.03,-0.05000000074505806,-0.02500000037252903,-0.02500000037252903,-0.02500000037252903,-0.05000000074505806,-0.0005000000237487257,0.05000000074505806,0.02500000037252903,0.02500000037252903,0.02500000037252903,0.05000000074505806,0.0005000000237487257,-9.481183042225894e-06,-0.11971111846560234,0.003079152908330444,0.14,0.0,0.26,0.002129107480868697,0.13878534734249115,0.25813648104667664,0.0,0.0
0.0,60.0,-0.05000000074505806,0.02500000037252903,0.02500000037252903,0.02500000037252903,0.05000000074505806,0.0005000000237487257,0.01533980667591095,-0.6931463479995728,1.3609707355499268,-1.453766942024231,1.0284143686294556,0.0,-0.03466019406914711,-0.6681463718414307,1.3859707117080688,-1.4287669658660889,1.0784143209457397,0.003,0.0,0.0,0.0,0.0,0.0,0.0,-3.1,3.1,-1.571,1.571,-1.571,1.571,-1.745,1.745,-2.617,2.617,0.003,0.03,-0.05000000074505806,-0.02500000037252903,-0.02500000037252903,-0.02500000037252903,-0.05000000074505806,-0.0005000000237487257,0.05000000074505806,0.02500000037252903,0.02500000037252903,0.02500000037252903,0.05000000074505806,0.0005000000237487257,-9.481183042225894e-06,-0.11972059964864457,0.003079152908330444,0.14,0.0,0.26,0.002129107480868697,0.13878534734249115,0.25813648104667664,0.0,0.0
0.0,61.0,-0.05000000074505806,0.02500000037252903,0.02500000037252903,0.02500000037252903,0.05000000074505806,0.0005000000237487257,0.01533980667591095,-0.6931463479995728,1.3609707355499268,-1.453766942024231,1.0284143686294556,0.0,-0.03466019406914711,-0.6681463718414307,1.3859707117080688,-1.4287669658660889,1.0784143209457397,0.003,0.0,0.0,0.0,0.0,0.0,0.0,-3.1,3.1,-1.571,1.571,-1.571,1.571,-1.745,1.745,-2.617,2.617,0.003,0.03,-0.05000000074505806,-0.02500000037252903,-0.02500000037252903,-0.02500000037252903,-0.05000000074505806,-0.0005000000237487257,0.05000000074505806,0.02500000037252903,0.02500000037252903,0.02500000037252903,0.05000000074505806,0.0005000000237487257,-9.481183042225894e-06,-0.11973008083168679,0.003079152908330444,0.14,0.0,0.26,0.002129107480868697,0.13878534734249115,0.25813648104667664,0.0,0.0
0.0,62.0,-0.05000000074505806,0.02500000037252903,-0.02500000037252903,0.02500000037252903,0.05000000074505806,0.0005000000237487257,0.01533980667591095,-0.6931463479995728,1.3609707355499268,-1.453766942024231,1.0284143686294556,0.0,-0.03466019406914711,-0.6681463718414307,1.3359707593917847,-1.4287669658660889,1.0784143209457397,0.003,0.0,0.0,0.0,0.0,0.0,0.0,-3.1,3.1,-1.571,1.571,-1.571,1.571,-1.745,1.745,-2.617,2.617,0.003,0.03,-0.05000000074505806,-0.02500000037252903,-0.02500000037252903,-0.02500000037252903,-0.05000000074505806,-0.0005000000237487257,0.05000000074505806,0.02500000037252903,0.02500000037252903,0.02500000037252903,0.05000000074505806,0.0005000000237487257,-9.481183042225894e-06,-0.11973956201472902,0.003079152908330444,0.14,0.0,0.26,0.002129107480868697,0.13878534734249115,0.25813648104667664,0.0,0.0
0.0,63.0,-0.05000000074505806,0.02500000037252903,0.02500000037252903,0.02500000037252903,0.05000000074505806,0.0005000000237487257,0.01533980667591095,-0.6931463479995728,1.3609707355499268,-1.453766942024231,1.0284143686294556,0.0,-0.03466019406914711,-0.6681463718414307,1.3859707117080688,-1.4287669658660889,1.0784143209457397,0.003,0.0,0.0,0.0,0.0,0.0,0.0,-3.1,3.1,-1.571,1.571,-1.571,1.571,-1.745,1.745,-2.617,2.617,0.003,0.03,-0.05000000074505806,-0.02500000037252903,-0.02500000037252903,-0.02500000037252903,-0.05000000074505806,-0.0005000000237487257,0.05000000074505806,0.02500000037252903,0.02500000037252903,0.02500000037252903,0.05000000074505806,0.0005000000237487257,-9.481183042225894e-06,-0.11974904319777124,0.003079152908330444,0.14,0.0,0.26,0.002129107480868697,0.13878534734249115,0.25813648104667664,0.0,0.0
0.0,64.0,-0.05000000074505806,0.02500000037252903,0.02500000037252903,0.02500000037252903,0.05000000074505806,0.0005000000237487257,0.01533980667591095,-0.6931463479995728,1.3609707355499268,-1.453766942024231,1.0284143686294556,0.0,-0.03466019406914711,-0.6681463718414307,1.3859707117080688,-1.4287669658660889,1.0784143209457397,0.003,0.0,0.0,0.0,0.0,0.0,0.0,-3.1,3.1,-1.571,1.571,-1.571,1.571,-1.745,1.745,-2.617,2.617,0.003,0.03,-0.05000000074505806,-0.02500000037252903,-0.02500000037252903,-0.02500000037252903,-0.05000000074505806,-0.0005000000237487257,0.05000000074505806,0.02500000037252903,0.02500000037252903,0.02500000037252903,0.05000000074505806,0.0005000000237487257,-9.481183042225894e-06,-0.11975852438081347,0.003079152908330444,0.14,0.0,0.26,0.002129107480868697,0.13878534734249115,0.25813648104667664,0.0,0.0
0.0,65.0,-0.05000000074505806,0.02500000037252903,0.02500000037252903,0.02500000037252903,0.05000000074505806,-0.0005000000237487257,0.01533980667591095,-0.6931463479995728,1.3609707355499268,-1.453766942024231,1.0284143686294556,0.0,-0.03466019406914711,-0.6681463718414307,1.3859707117080688,-1.4287669658660889,1.0784143209457397,0.003,0.0,0.0,0.0,0.0,0.0,0.0,-3.1,3.1,-1.571,1.571,-1.571,1.571,-1.745,1.745,-2.617,2.617,0.003,0.03,-0.05000000074505806,-0.02500000037252903,-0.02500000037252903,-0.02500000037252903,-0.05000000074505806,-0.0005000000237487257,0.05000000074505806,0.02500000037252903,0.02500000037252903,0.02500000037252903,0.05000000074505806,0.0005000000237487257,-9.481183042225894e-06,-0.1197680055638557,0.003079152908330444,0.14,0.0,0.26,0.002129107480868697,0.13878534734249115,0.25813648104667664,0.0,0.0
0.0,66.0,-0.05000000074505806,0.02500000037252903,0.02500000037252903,0.02500000037252903,0.05000000074505806,0.0005000000237487257,0.01533980667591095,-0.6931463479995728,1.3609707355499268,-1.453766942024231,1.0284143686294556,0.0,-0.03466019406914711,-0.6681463718414307,1.3859707117080688,-1.4287669658660889,1.0784143209457397,0.003,0.0,0.0,0.0,0.0,0.0,0.0,-3.1,3.1,-1.571,1.571,-1.571,1.571,-1.745,1.745,-2.617,2.617,0.003,0.03,-0.05000000074505806,-0.02500000037252903,-0.02500000037252903,-0.02500000037252903,-0.05000000074505806,-0.0005000000237487257,0.05000000074505806,0.02500000037252903,0.02500000037252903,0.02500000037252903,0.05000000074505806,0.0005000000237487257,-9.481183042225894e-06,-0.11977748674689792,0.003079152908330444,0.14,0.0,0.26,0.002129107480868697,0.13878534734249115,0.25813648104667664,0.0,0.0
0.0,67.0,-0.05000000074505806,0.02500000037252903,0.02500000037252903,0.02500000037252903,0.05000000074505806,0.0005000000237487257,0.01533980667591095,-0.6931463479995728,1.3609707355499268,-1.453766942024231,1.0284143686294556,0.0,-0.03466019406914711,-0.6681463718414307,1.3859707117080688,-1.4287669658660889,1.0784143209457397,0.003,0.0,0.0,0.0,0.0,0.0,0.0,-3.1,3.1,-1.571,1.571,-1.571,1.571,-1.745,1.745,-2.617,2.617,0.003,0.03,-0.05000000074505806,-0.02500000037252903,-0.02500000037252903,-0.02500000037252903,-0.05000000074505806,-0.0005000000237487257,0.05000000074505806,0.02500000037252903,0.02500000037252903,0.02500000037252903,0.05000000074505806,0.0005000000237487257,-9.481183042225894e-06,-0.11978696792994015,0.003079152908330444,0.14,0.0,0.26,0.002129107480868697,0.13878534734249115,0.25813648104667664,0.0,0.0
0.0,68.0,-0.05000000074505806,0.02500000037252903,0.02500000037252903,0.02500000037252903,0.05000000074505806,-0.0005000000237487257,0.01533980667591095,-0.6931463479995728,1.3609707355499268,-1.453766942024231,1.0284143686294556,0.0,-0.03466019406914711,-0.6681463718414307,1.3859707117080688,-1.4287669658660889,1.0784143209457397,0.003,0.0,0.0,0.0,0.0,0.0,0.0,-3.1,3.1,-1.571,1.571,-1.571,1.571,-1.745,1.745,-2.617,2.617,0.003,0.03,-0.05000000074505806,-0.02500000037252903,-0.02500000037252903,-0.02500000037252903,-0.05000000074505806,-0.0005000000237487257,0.05000000074505806,0.02500000037252903,0.02500000037252903,0.02500000037252903,0.05000000074505806,0.0005000000237487257,-9.481183042225894e-06,-0.11979644911298237,0.003079152908330444,0.14,0.0,0.26,0.002129107480868697,0.13878534734249115,0.25813648104667664,0.0,0.0
0.0,69.0,-0.05000000074505806,0.02500000037252903,0.02500000037252903,0.02500000037252903,0.05000000074505806,0.0005000000237487257,0.01533980667591095,-0.6931463479995728,1.3609707355499268,-1.453766942024231,1.0284143686294556,0.0,-0.03466019406914711,-0.6681463718414307,1.3859707117080688,-1.4287669658660889,1.0784143209457397,0.003,0.0,0.0,0.0,0.0,0.0,0.0,-3.1,3.1,-1.571,1.571,-1.571,1.571,-1.745,1.745,-2.617,2.617,0.003,0.03,-0.05000000074505806,-0.02500000037252903,-0.02500000037252903,-0.02500000037252903,-0.05000000074505806,-0.0005000000237487257,0.05000000074505806,0.02500000037252903,0.02500000037252903,0.02500000037252903,0.05000000074505806,0.0005000000237487257,-9.481183042225894e-06,-0.1198059302960246,0.003079152908330444,0.14,0.0,0.26,0.002129107480868697,0.13878534734249115,0.25813648104667664,0.0,0.0
0.0,70.0,-0.05000000074505806,0.02500000037252903,0.02500000037252903,0.02500000037252903,0.05000000074505806,0.0005000000237487257,0.01533980667591095,-0.6931463479995728,1.3609707355499268,-1.453766942024231,1.0284143686294556,0.0,-0.03466019406914711,-0.6681463718414307,1.3859707117080688,-1.4287669658660889,1.0784143209457397,0.003,0.0,0.0,0.0,0.0,0.0,0.0,-3.1,3.1,-1.571,1.571,-1.571,1.571,-1.745,1.745,-2.617,2.617,0.003,0.03,-0.05000000074505806,-0.02500000037252903,-0.02500000037252903,-0.02500000037252903,-0.05000000074505806,-0.0005000000237487257,0.05000000074505806,0.02500000037252903,0.02500000037252903,0.02500000037252903,0.05000000074505806,0.0005000000237487257,-9.481183042225894e-06,-0.11981541147906682,0.003079152908330444,0.14,0.0,0.26,0.002129107480868697,0.13878534734249115,0.25813648104667664,0.0,0.0
0.0,71.0,-0.05000000074505806,0.02500000037252903,-0.02500000037252903,0.02500000037252903,0.05000000074505806,0.0005000000237487257,0.01533980667591095,-0.6931463479995728,1.3609707355499268,-1.453766942024231,1.0284143686294556,0.0,-0.03466019406914711,-0.6681463718414307,1.3359707593917847,-1.4287669658660889,1.0784143209457397,0.003,0.0,0.0,0.0,0.0,0.0,0.0,-3.1,3.1,-1.571,1.571,-1.571,1.571,-1.745,1.745,-2.617,2.617,0.003,0.03,-0.05000000074505806,-0.02500000037252903,-0.02500000037252903,-0.02500000037252903,-0.05000000074505806,-0.0005000000237487257,0.05000000074505806,0.02500000037252903,0.02500000037252903,0.02500000037252903,0.05000000074505806,0.0005000000237487257,-9.481183042225894e-06,-0.11982489266210905,0.003079152908330444,0.14,0.0,0.26,0.002129107480868697,0.13878534734249115,0.25813648104667664,0.0,0.0
0.0,72.0,-0.05000000074505806,0.02500000037252903,0.02500000037252903,0.02500000037252903,0.05000000074505806,0.0005000000237487257,0.01533980667591095,-0.6931463479995728,1.3609707355499268,-1.453766942024231,1.0284143686294556,0.0,-0.03466019406914711,-0.6681463718414307,1.3859707117080688,-1.4287669658660889,1.0784143209457397,0.003,0.0,0.0,0.0,0.0,0.0,0.0,-3.1,3.1,-1.571,1.571,-1.571,1.571,-1.745,1.745,-2.617,2.617,0.003,0.03,-0.05000000074505806,-0.02500000037252903,-0.02500000037252903,-0.02500000037252903,-0.05000000074505806,-0.0005000000237487257,0.05000000074505806,0.02500000037252903,0.02500000037252903,0.02500000037252903,0.05000000074505806,0.0005000000237487257,-9.481183042225894e-06,-0.11983437384515128,0.003079152908330444,0.14,0.0,0.26,0.002129107480868697,0.13878534734249115,0.25813648104667664,0.0,0.0
0.0,73.0,-0.05000000074505806,0.02500000037252903,0.02500000037252903,0.02500000037252903,0.05000000074505806,-0.0005000000237487257,0.01533980667591095,-0.6931463479995728,1.3609707355499268,-1.453766942024231,1.0284143686294556,0.0,-0.03466019406914711,-0.6681463718414307,1.3859707117080688,-1.4287669658660889,1.0784143209457397,0.003,0.0,0.0,0.0,0.0,0.0,0.0,-3.1,3.1,-1.571,1.571,-1.571,1.571,-1.745,1.745,-2.617,2.617,0.003,0.03,-0.05000000074505806,-0.02500000037252903,-0.02500000037252903,-0.02500000037252903,-0.05000000074505806,-0.0005000000237487257,0.05000000074505806,0.02500000037252903,0.02500000037252903,0.02500000037252903,0.05000000074505806,0.0005000000237487257,-9.481183042225894e-06,-0.1198438550281935,0.003079152908330444,0.14,0.0,0.26,0.002129107480868697,0.13878534734249115,0.25813648104667664,0.0,0.0
0.0,74.0,-0.05000000074505806,0.02500000037252903,0.02500000037252903,0.02500000037252903,0.05000000074505806,-0.0005000000237487257,0.01533980667591095,-0.6931463479995728,1.3609707355499268,-1.453766942024231,1.0284143686294556,0.0,-0.03466019406914711,-0.6681463718414307,1.3859707117080688,-1.4287669658660889,1.0784143209457397,0.003,0.0,0.0,0.0,0.0,0.0,0.0,-3.1,3.1,-1.571,1.571,-1.571,1.571,-1.745,1.745,-2.617,2.617,0.003,0.03,-0.05000000074505806,-0.02500000037252903,-0.02500000037252903,-0.02500000037252903,-0.05000000074505806,-0.0005000000237487257,0.05000000074505806,0.02500000037252903,0.02500000037252903,0.02500000037252903,0.05000000074505806,0.0005000000237487257,-9.481183042225894e-06,-0.11985333621123573,0.003079152908330444,0.14,0.0,0.26,0.002129107480868697,0.13878534734249115,0.25813648104667664,0.0,0.0
0.0,75.0,-0.05000000074505806,0.02500000037252903,0.02500000037252903,0.02500000037252903,0.05000000074505806,-0.0005000000237487257,0.01533980667591095,-0.6931463479995728,1.3609707355499268,-1.453766942024231,1.0284143686294556,0.0,-0.03466019406914711,-0.6681463718414307,1.3859707117080688,-1.4287669658660889,1.0784143209457397,0.003,0.0,0.0,0.0,0.0,0.0,0.0,-3.1,3.1,-1.571,1.571,-1.571,1.571,-1.745,1.745,-2.617,2.617,0.003,0.03,-0.05000000074505806,-0.02500000037252903,-0.02500000037252903,-0.02500000037252903,-0.05000000074505806,-0.0005000000237487257,0.05000000074505806,0.02500000037252903,0.02500000037252903,0.02500000037252903,0.05000000074505806,0.0005000000237487257,-9.481183042225894e-06,-0.11986281739427795,0.003079152908330444,0.14,0.0,0.26,0.002129107480868697,0.13878534734249115,0.25813648104667664,0.0,0.0
0.0,76.0,-0.05000000074505806,0.02500000037252903,0.02500000037252903,0.02500000037252903,0.05000000074505806,-0.0005000000237487257,0.01533980667591095,-0.6931463479995728,1.3609707355499268,-1.453766942024231,1.0284143686294556,0.0,-0.03466019406914711,-0.6681463718414307,1.3859707117080688,-1.4287669658660889,1.0784143209457397,0.003,0.0,0.0,0.0,0.0,0.0,0.0,-3.1,3.1,-1.571,1.571,-1.571,1.571,-1.745,1.745,-2.617,2.617,0.003,0.03,-0.05000000074505806,-0.02500000037252903,-0.02500000037252903,-0.02500000037252903,-0.05000000074505806,-0.0005000000237487257,0.05000000074505806,0.02500000037252903,0.02500000037252903,0.02500000037252903,0.05000000074505806,0.0005000000237487257,-9.481183042225894e-06,-0.11987229857732018,0.003079152908330444,0.14,0.0,0.26,0.002129107480868697,0.13878534734249115,0.25813648104667664,0.0,0.0
0.0,77.0,-0.05000000074505806,0.02500000037252903,0.02500000037252903,0.02500000037252903,0.05000000074505806,-0.0005000000237487257,0.01533980667591095,-0.6931463479995728,1.3609707355499268,-1.453766942024231,1.0284143686294556,0.0,-0.03466019406914711,-0.6681463718414307,1.3859707117080688,-1.4287669658660889,1.0784143209457397,0.003,0.0,0.0,0.0,0.0,0.0,0.0,-3.1,3.1,-1.571,1.571,-1.571,1.571,-1.745,1.745,-2.617,2.617,0.003,0.03,-0.05000000074505806,-0.02500000037252903,-0.02500000037252903,-0.02500000037252903,-0.05000000074505806,-0.0005000000237487257,0.05000000074505806,0.02500000037252903,0.02500000037252903,0.02500000037252903,0.05000000074505806,0.0005000000237487257,-9.481183042225894e-06,-0.1198817797603624,0.003079152908330444,0.14,0.0,0.26,0.002129107480868697,0.13878534734249115,0.25813648104667664,0.0,0.0
0.0,78.0,-0.05000000074505806,0.02500000037252903,-0.02500000037252903,0.02500000037252903,0.05000000074505806,0.0005000000237487257,0.01533980667591095,-0.6931463479995728,1.3609707355499268,-1.453766942024231,1.0284143686294556,0.0,-0.03466019406914711,-0.6681463718414307,1.3359707593917847,-1.4287669658660889,1.0784143209457397,0.003,0.0,0.0,0.0,0.0,0.0,0.0,-3.1,3.1,-1.571,1.571,-1.571,1.571,-1.745,1.745,-2.617,2.617,0.003,0.03,-0.05000000074505806,-0.02500000037252903,-0.02500000037252903,-0.02500000037252903,-0.05000000074505806,-0.0005000000237487257,0.05000000074505806,0.02500000037252903,0.02500000037252903,0.02500000037252903,0.05000000074505806,0.0005000000237487257,-9.481183042225894e-06,-0.11989126094340463,0.003079152908330444,0.14,0.0,0.26,0.002129107480868697,0.13878534734249115,0.25813648104667664,0.0,0.0
0.0,79.0,-0.05000000074505806,0.02500000037252903,0.02500000037252903,0.02500000037252903,0.05000000074505806,0.0005000000237487257,0.01533980667591095,-0.6931463479995728,1.3609707355499268,-1.453766942024231,1.0284143686294556,0.0,-0.03466019406914711,-0.6681463718414307,1.3859707117080688,-1.4287669658660889,1.0784143209457397,0.003,0.0,0.0,0.0,0.0,0.0,0.0,-3.1,3.1,-1.571,1.571,-1.571,1.571,-1.745,1.745,-2.617,2.617,0.003,0.03,-0.05000000074505806,-0.02500000037252903,-0.02500000037252903,-0.02500000037252903,-0.05000000074505806,-0.0005000000237487257,0.05000000074505806,0.02500000037252903,0.02500000037252903,0.02500000037252903,0.05000000074505806,0.0005000000237487257,-9.481183042225894e-06,-0.11990074212644686,0.003079152908330444,0.14,0.0,0.26,0.002129107480868697,0.13878534734249115,0.25813648104667664,0.0,0.0
0.0,80.0,-0.05000000074505806,0.02500000037252903,0.02500000037252903,0.02500000037252903,0.05000000074505806,0.0005000000237487257,0.01533980667591095,-0.6931463479995728,1.3609707355499268,-1.453766942024231,1.0284143686294556,0.0,-0.03466019406914711,-0.6681463718414307,1.3859707117080688,-1.4287669658660889,1.0784143209457397,0.003,0.0,0.0,0.0,0.0,0.0,0.0,-3.1,3.1,-1.571,1.571,-1.571,1.571,-1.745,1.745,-2.617,2.617,0.003,0.03,-0.05000000074505806,-0.02500000037252903,-0.02500000037252903,-0.02500000037252903,-0.05000000074505806,-0.0005000000237487257,0.05000000074505806,0.02500000037252903,0.02500000037252903,0.02500000037252903,0.05000000074505806,0.0005000000237487257,-9.481183042225894e-06,-0.11991022330948908,0.003079152908330444,0.14,0.0,0.26,0.002129107480868697,0.13878534734249115,0.25813648104667664,0.0,0.0
0.0,81.0,-0.05000000074505806,0.02500000037252903,0.02500000037252903,0.02500000037252903,0.05000000074505806,-0.0005000000237487257,0.01533980667591095,-0.6931463479995728,1.3609707355499268,-1.453766942024231,1.0284143686294556,0.0,-0.03466019406914711,-0.6681463718414307,1.3859707117080688,-1.4287669658660889,1.0784143209457397,0.003,0.0,0.0,0.0,0.0,0.0,0.0,-3.1,3.1,-1.571,1.571,-1.571,1.571,-1.745,1.745,-2.617,2.617,0.003,0.03,-0.05000000074505806,-0.02500000037252903,-0.02500000037252903,-0.02500000037252903,-0.05000000074505806,-0.0005000000237487257,0.05000000074505806,0.02500000037252903,0.02500000037252903,0.02500000037252903,0.05000000074505806,0.0005000000237487257,-9.481183042225894e-06,-0.11991970449253131,0.003079152908330444,0.14,0.0,0.26,0.002129107480868697,0.13878534734249115,0.25813648104667664,0.0,0.0
0.0,82.0,-0.05000000074505806,0.02500000037252903,0.02500000037252903,-0.02500000037252903,0.05000000074505806,0.0005000000237487257,0.01533980667591095,-0.6931463479995728,1.3609707355499268,-1.453766942024231,1.0284143686294556,0.0,-0.03466019406914711,-0.6681463718414307,1.3859707117080688,-1.478766918182373,1.0784143209457397,0.003,0.0,0.0,0.0,0.0,0.0,0.0,-3.1,3.1,-1.571,1.571,-1.571,1.571,-1.745,1.745,-2.617,2.617,0.003,0.03,-0.05000000074505806,-0.02500000037252903,-0.02500000037252903,-0.02500000037252903,-0.05000000074505806,-0.0005000000237487257,0.05000000074505806,0.02500000037252903,0.02500000037252903,0.02500000037252903,0.05000000074505806,0.0005000000237487257,-8.881211397238076e-05,-0.12000851660650369,0.009424017840377793,0.14,0.0,0.26,-0.004843989387154579,0.13970059156417847,0.25192174315452576,0.0,1.522767583691364
0.0,83.0,0.05000000074505806,-0.02500000037252903,-0.02500000037252903,-0.02500000037252903,0.05000000074505806,-0.0005000000237487257,-0.03466019406914711,-0.6681463718414307,1.3859707117080688,-1.478766918182373,1.0784143209457397,0.0,0.01533980667591095,-0.6931463479995728,1.3609707355499268,-1.5037668943405151,1.128414273262024,0.003,0.0,0.0,0.0,0.0,0.0,0.0,-3.1,3.1,-1.571,1.571,-1.571,1.571,-1.745,1.745,-2.617,2.617,0.003,0.03,-0.05000000074505806,-0.02500000037252903,-0.02500000037252903,-0.02500000037252903,-0.05000000074505806,-0.0005000000237487257,0.05000000074505806,0.02500000037252903,0.02500000037252903,0.02500000037252903,0.05000000074505806,0.0005000000237487257,-3.7363064620876685e-05,-0.12004587967112457,0.006112533440853138,0.14,0.0,0.26,0.00206545228138566,0.13463599979877472,0.26207953691482544,0.0,-0.7947562558859174
0.0,84.0,-0.05000000074505806,0.02500000037252903,0.02500000037252903,0.02500000037252903,0.05000000074505806,-0.0005000000237487257,0.01533980667591095,-0.6931463479995728,1.3609707355499268,-1.5037668943405151,1.128414273262024,0.0,-0.03466019406914711,-0.6681463718414307,1.3859707117080688,-1.478766918182373,1.178414225578308,0.003,0.0,0.0,0.0,0.0,0.0,0.0,-3.1,3.1,-1.571,1.571,-1.571,1.571,-1.745,1.745,-2.617,2.617,0.003,0.03,-0.05000000074505806,-0.02500000037252903,-0.02500000037252903,-0.02500000037252903,-0.05000000074505806,-0.0005000000237487257,0.05000000074505806,0.02500000037252903,0.02500000037252903,0.02500000037252903,0.05000000074505806,0.0005000000237487257,-8.881211397238076e-05,-0.12013469178509695,0.009424017840377793,0.14,0.0,0.26,-0.004843989387154579,0.13970059156417847,0.25192174315452576,0.0,0.7947562558859174
0.0,85.0,0.05000000074505806,-0.02500000037252903,-0.02500000037252903,-0.02500000037252903,0.05000000074505806,-0.0005000000237487257,-0.03466019406914711,-0.6681463718414307,1.3859707117080688,-1.478766918182373,1.178414225578308,0.0,0.01533980667591095,-0.6931463479995728,1.3609707355499268,-1.5037668943405151,1.2284141778945923,0.003,0.0,0.0,0.0,0.0,0.0,0.0,-3.1,3.1,-1.571,1.571,-1.571,1.571,-1.745,1.745,-2.617,2.617,0.003,0.03,-0.05000000074505806,-0.02500000037252903,-0.02500000037252903,-0.02500000037252903,-0.05000000074505806,-0.0005000000237487257,0.05000000074505806,0.02500000037252903,0.02500000037252903,0.02500000037252903,0.05000000074505806,0.0005000000237487257,-3.7363064620876685e-05,-0.12017205484971782,0.006112533440853138,0.14,0.0,0.26,0.00206545228138566,0.13463599979877472,0.26207953691482544,0.0,-0.7947562558859174
0.0,86.0,-0.05000000074505806,0.02500000037252903,0.02500000037252903,0.02500000037252903,0.05000000074505806,0.0005000000237487257,0.01533980667591095,-0.6931463479995728,1.3609707355499268,-1.5037668943405151,1.2284141778945923,0.0,-0.03466019406914711,-0.6681463718414307,1.3859707117080688,-1.478766918182373,1.2784141302108765,0.003,0.0,0.0,0.0,0.0,0.0,0.0,-3.1,3.1,-1.571,1.571,-1.571,1.571,-1.745,1.745,-2.617,2.617,0.003,0.03,-0.05000000074505806,-0.02500000037252903,-0.02500000037252903,-0.02500000037252903,-0.05000000074505806,-0.0005000000237487257,0.05000000074505806,0.02500000037252903,0.02500000037252903,0.02500000037252903,0.05000000074505806,0.0005000000237487257,-8.881211397238076e-05,-0.1202608669636902,0.009424017840377793,0.14,0.0,0.26,-0.004843989387154579,0.13970059156417847,0.25192174315452576,0.0,0.7947562558859174
0.0,87.0,0.05000000074505806,-0.02500000037252903,-0.02500000037252903,0.011066555976867676,0.05000000074505806,-0.0005000000237487257,-0.03466019406914711,-0.6681463718414307,1.3859707117080688,-1.478766918182373,1.2784141302108765,0.0,0.01533980667591095,-0.6931463479995728,1.3609707355499268,-1.4677003622055054,1.3284140825271606,0.003,0.0,0.0,0.0,0.0,0.0,0.0,-3.1,3.1,-1.571,1.571,-1.571,1.571,-1.745,1.745,-2.617,2.617,0.003,0.03,-0.05000000074505806,-0.02500000037252903,-0.02500000037252903,-0.02500000037252903,-0.05000000074505806,-0.0005000000237487257,0.05000000074505806,0.02500000037252903,0.02500000037252903,0.02500000037252903,0.05000000074505806,0.0005000000237487257,-1.0540088624111377e-05,-0.12027140705231432,0.003246550244181034,0.14,0.0,0.26,0.0021116738207638264,0.13764894008636475,0.2592560648918152,0.0,-1.4825922230872222
0.0,88.0,-0.05000000074505806,0.02500000037252903,0.02500000037252903,-0.02500000037252903,0.05000000074505806,0.0005000000237487257,0.01533980667591095,-0.6931463479995728,1.3609707355499268,-1.4677003622055054,1.3284140825271606,0.0,-0.03466019406914711,-0.6681463718414307,1.3859707117080688,-1.4927003383636475,1.3784140348434448,0.003,0.0,0.0,0.0,0.0,0.0,0.0,-3.1,3.1,-1.571,1.571,-1.571,1.571,-1.745,1.745,-2.617,2.617,0.003,0.03,-0.05000000074505806,-0.02500000037252903,-0.02500000037252903,-0.02500000037252903,-0.05000000074505806,-0.0005000000237487257,0.05000000074505806,0.02500000037252903,0.02500000037252903,0.02500000037252903,0.05000000074505806,0.0005000000237487257,-7.310675573535264e-05,-0.12034451380804967,0.008550248833495758,0.14,0.0,0.26,-0.004805586766451597,0.13859306275844574,0.25306937098503113,0.0,1.2728876614355338
0.0,89.0,0.05000000074505806,0.02500000037252903,-0.02500000037252903,-0.02500000037252903,0.05000000074505806,-0.0005000000237487257,-0.03466019406914711,-0.6681463718414307,1.3859707117080688,-1.4927003383636475,1.3784140348434448,0.0,0.01533980667591095,-0.6431463956832886,1.3609707355499268,-1.5177003145217896,1.428413987159729,0.003,0.0,0.0,0.0,0.0,0.0,0.0,-3.1,3.1,-1.571,1.571,-1.571,1.571,-1.745,1.745,-2.617,2.617,0.003,0.03,-0.05000000074505806,-0.02500000037252903,-0.02500000037252903,-0.02500000037252903,-0.05000000074505806,-0.0005000000237487257,0.05000000074505806,0.02500000037252903,0.02500000037252903,0.02500000037252903,0.05000000074505806,0.0005000000237487257,-7.310675573535264e-05,-0.12041762056378502,0.008550248833495758,0.14,0.0,0.26,-0.004805586766451597,0.13859306275844574,0.25306937098503113,0.0,0.0
0.0,90.0,0.05000000074505806,-0.02500000037252903,-0.02500000037252903,-0.02500000037252903,0.05000000074505806,-0.0005000000237487257,-0.03466019406914711,-0.6681463718414307,1.3859707117080688,-1.4927003383636475,1.3784140348434448,0.0,0.01533980667591095,-0.6931463479995728,1.3609707355499268,-1.5177003145217896,1.428413987159729,0.003,0.0,0.0,0.0,0.0,0.0,0.0,-3.1,3.1,-1.571,1.571,-1.571,1.571,-1.745,1.745,-2.617,2.617,0.003,0.03,-0.05000000074505806,-0.02500000037252903,-0.02500000037252903,-0.02500000037252903,-0.05000000074505806,-0.0005000000237487257,0.05000000074505806,0.02500000037252903,0.02500000037252903,0.02500000037252903,0.05000000074505806,0.0005000000237487257,-5.7023236877284944e-05,-0.1204746438006623,0.007551373144157202,0.14,0.0,0.26,0.0020471822936087847,0.13344508409500122,0.2631409168243408,0.0,-0.23973016544125356
0.0,91.0,-0.05000000074505806,0.02500000037252903,0.02500000037252903,-0.02500000037252903,0.05000000074505806,-0.0005000000237487257,0.01533980667591095,-0.6931463479995728,1.3609707355499268,-1.5177003145217896,1.428413987159729,0.0,-0.03466019406914711,-0.6681463718414307,1.3859707117080688,-1.5427002906799316,1.4784139394760132,0.003,0.0,0.0,0.0,0.0,0.0,0.0,-3.1,3.1,-1.571,1.571,-1.571,1.571,-1.745,1.745,-2.617,2.617,0.003,0.03,-0.05000000074505806,-0.02500000037252903,-0.02500000037252903,-0.02500000037252903,-0.05000000074505806,-0.0005000000237487257,0.05000000074505806,0.02500000037252903,0.02500000037252903,0.02500000037252903,0.05000000074505806,0.0005000000237487257,-6.0765643866034225e-05,-0.12053540944452834,0.007795232063784605,0.14,0.0,0.26,-0.004663303028792143,0.13448959589004517,0.25705811381340027,0.0,0.058526140710576796
0.0,92.0,0.05000000074505806,0.02500000037252903,-0.02500000037252903,-0.02500000037252903,0.05000000074505806,0.0005000000237487257,-0.03466019406914711,-0.6681463718414307,1.3859707117080688,-1.5427002906799316,1.4784139394760132,0.0,0.01533980667591095,-0.6431463956832886,1.3609707355499268,-1.5677002668380737,1.5284138917922974,0.003,0.0,0.0,0.0,0.0,0.0,0.0,-3.1,3.1,-1.571,1.571,-1.571,1.571,-1.745,1.745,-2.617,2.617,0.003,0.03,-0.05000000074505806,-0.02500000037252903,-0.02500000037252903,-0.02500000037252903,-0.05000000074505806,-0.0005000000237487257,0.05000000074505806,0.02500000037252903,0.02500000037252903,0.02500000037252903,0.05000000074505806,0.0005000000237487257,-2.0563171347021125e-05,-0.12055597261587536,0.004534663351178852,0.14,0.0,0.26,0.002086036605760455,0.13597778975963593,0.2601828873157501,0.0,-0.7825364910253808
0.0,93.0,-0.05000000074505806,0.02500000037252903,0.02500000037252903,0.02500000037252903,0.05000000074505806,0.0005000000237487257,0.01533980667591095,-0.6431463956832886,1.3609707355499268,-1.5677002668380737,1.5284138917922974,0.0,-0.03466019406914711,-0.6181464195251465,1.3859707117080688,-1.5427002906799316,1.5784138441085815,0.003,0.0,0.0,0.0,0.0,0.0,0.0,-3.1,3.1,-1.571,1.571,-1.571,1.571,-1.745,1.745,-2.617,2.617,0.003,0.03,-0.05000000074505806,-0.02500000037252903,-0.02500000037252903,-0.02500000037252903,-0.05000000074505806,-0.0005000000237487257,0.05000000074505806,0.02500000037252903,0.02500000037252903,0.02500000037252903,0.05000000074505806,0.0005000000237487257,-2.0563171347021125e-05,-0.12057653578722238,0.004534663351178852,0.14,0.0,0.26,0.002086036605760455,0.13597778975963593,0.2601828873157501,0.0,0.0
0.0,94.0,-0.05000000074505806,0.02500000037252903,0.02500000037252903,0.02500000037252903,0.05000000074505806,-0.0005000000237487257,0.01533980667591095,-0.6431463956832886,1.3609707355499268,-1.5677002668380737,1.5284138917922974,0.0,-0.03466019406914711,-0.6181464195251465,1.3859707117080688,-1.5427002906799316,1.5784138441085815,0.003,0.0,0.0,0.0,0.0,0.0,0.0,-3.1,3.1,-1.571,1.571,-1.571,1.571,-1.745,1.745,-2.617,2.617,0.003,0.03,-0.05000000074505806,-0.02500000037252903,-0.02500000037252903,-0.02500000037252903,-0.05000000074505806,-0.0005000000237487257,0.05000000074505806,0.02500000037252903,0.02500000037252903,0.02500000037252903,0.05000000074505806,0.0005000000237487257,-2.0563171347021125e-05,-0.1205970989585694,0.004534663351178852,0.14,0.0,0.26,0.002086036605760455,0.13597778975963593,0.2601828873157501,0.0,0.0
0.0,95.0,-0.05000000074505806,0.02500000037252903,0.02500000037252903,0.02500000037252903,0.05000000074505806,0.0005000000237487257,0.01533980667591095,-0.6431463956832886,1.3609707355499268,-1.5677002668380737,1.5284138917922974,0.0,-0.03466019406914711,-0.6181464195251465,1.3859707117080688,-1.5427002906799316,1.5784138441085815,0.003,0.0,0.0,0.0,0.0,0.0,0.0,-3.1,3.1,-1.571,1.571,-1.571,1.571,-1.745,1.745,-2.617,2.617,0.003,0.03,-0.05000000074505806,-0.02500000037252903,-0.02500000037252903,-0.02500000037252903,-0.05000000074505806,-0.0005000000237487257,0.05000000074505806,0.02500000037252903,0.02500000037252903,0.02500000037252903,0.05000000074505806,0.0005000000237487257,-2.0563171347021125e-05,-0.12061766212991643,0.004534663351178852,0.14,0.0,0.26,0.002086036605760455,0.13597778975963593,0.2601828873157501,0.0,0.0
0.0,96.0,-0.05000000074505806,0.02500000037252903,0.02500000037252903,0.02500000037252903,0.05000000074505806,0.0005000000237487257,0.01533980667591095,-0.6431463956832886,1.3609707355499268,-1.5677002668380737,1.5284138917922974,0.0,-0.03466019406914711,-0.6181464195251465,1.3859707117080688,-1.5427002906799316,1.5784138441085815,0.003,0.0,0.0,0.0,0.0,0.0,0.0,-3.1,3.1,-1.571,1.571,-1.571,1.571,-1.745,1.745,-2.617,2.617,0.003,0.03,-0.05000000074505806,-0.02500000037252903,-0.02500000037252903,-0.02500000037252903,-0.05000000074505806,-0.0005000000237487257,0.05000000074505806,0.02500000037252903,0.02500000037252903,0.02500000037252903,0.05000000074505806,0.0005000000237487257,-2.0563171347021125e-05,-0.12063822530126345,0.004534663351178852,0.14,0.0,0.26,0.002086036605760455,0.13597778975963593,0.2601828873157501,0.0,0.0
0.0,97.0,-0.05000000074505806,0.02500000037252903,0.02500000037252903,0.02500000037252903,0.05000000074505806,0.0005000000237487257,0.01533980667591095,-0.6431463956832886,1.3609707355499268,-1.5677002668380737,1.5284138917922974,0.0,-0.03466019406914711,-0.6181464195251465,1.3859707117080688,-1.5427002906799316,1.5784138441085815,0.003,0.0,0.0,0.0,0.0,0.0,0.0,-3.1,3.1,-1.571,1.571,-1.571,1.571,-1.745,1.745,-2.617,2.617,0.003,0.03,-0.05000000074505806,-0.02500000037252903,-0.02500000037252903,-0.02500000037252903,-0.05000000074505806,-0.0005000000237487257,0.05000000074505806,0.02500000037252903,0.02500000037252903,0.02500000037252903,0.05000000074505806,0.0005000000237487257,-2.0563171347021125e-05,-0.12065878847261047,0.004534663351178852,0.14,0.0,0.26,0.002086036605760455,0.13597778975963593,0.2601828873157501,0.0,0.0
0.0,98.0,-0.05000000074505806,0.02500000037252903,0.02500000037252903,0.02500000037252903,0.05000000074505806,-0.0005000000237487257,0.01533980667591095,-0.6431463956832886,1.3609707355499268,-1.5677002668380737,1.5284138917922974,0.0,-0.03466019406914711,-0.6181464195251465,1.3859707117080688,-1.5427002906799316,1.5784138441085815,0.003,0.0,0.0,0.0,0.0,0.0,0.0,-3.1,3.1,-1.571,1.571,-1.571,1.571,-1.745,1.745,-2.617,2.617,0.003,0.03,-0.05000000074505806,-0.02500000037252903,-0.02500000037252903,-0.02500000037252903,-0.05000000074505806,-0.0005000000237487257,0.05000000074505806,0.02500000037252903,0.02500000037252903,0.02500000037252903,0.05000000074505806,0.0005000000237487257,-2.0563171347021125e-05,-0.12067935164395749,0.004534663351178852,0.14,0.0,0.26,0.002086036605760455,0.13597778975963593,0.2601828873157501,0.0,0.0
0.0,99.0,-0.05000000074505806,0.02500000037252903,0.02500000037252903,0.02500000037252903,0.05000000074505806,0.0005000000237487257,0.01533980667591095,-0.6431463956832886,1.3609707355499268,-1.5677002668380737,1.5284138917922974,0.0,-0.03466019406914711,-0.6181464195251465,1.3859707117080688,-1.5427002906799316,1.5784138441085815,0.003,0.0,0.0,0.0,0.0,0.0,0.0,-3.1,3.1,-1.571,1.571,-1.571,1.571,-1.745,1.745,-2.617,2.617,0.003,0.03,-0.05000000074505806,-0.02500000037252903,-0.02500000037252903,-0.02500000037252903,-0.05000000074505806,-0.0005000000237487257,0.05000000074505806,0.02500000037252903,0.02500000037252903,0.02500000037252903,0.05000000074505806,0.0005000000237487257,-2.0563171347021125e-05,-0.12069991481530451,0.004534663351178852,0.14,0.0,0.26,0.002086036605760455,0.13597778975963593,0.2601828873157501,1.0,0.0
