PierreExeter/WidowX-reacher/tests/Check_env_consistency/logs/5_action1_+0.05.csv
episode,timestep,action_1,action_2,action_3,action_4,action_5,action_6,current_joint_pos_1,current_joint_pos_2,current_joint_pos_3,current_joint_pos_4,current_joint_pos_5,current_joint_pos_6,new_joint_pos_1,new_joint_pos_2,new_joint_pos_3,new_joint_pos_4,new_joint_pos_5,new_joint_pos_6,joint_vel_1,joint_vel_2,joint_vel_3,joint_vel_4,joint_vel_5,joint_vel_6,joint1_min,joint1_max,joint2_min,joint2_max,joint3_min,joint3_max,joint4_min,joint4_max,joint5_min,joint5_max,joint6_min,joint6_max,action_low1,action_low2,action_low3,action_low4,action_low5,action_low6,action_high1,action_high2,action_high3,action_high4,action_high5,action_high6,reward,return,dist,target_x,target_y,target_z,tip_x,tip_y,tip_z,done,est_vel,est_acc
0.0,0.0,0.05,0.0,0.0,0.0,0.0,0.0,0.015339807607233524,-1.293145775794983,1.0109710693359375,-1.3537670373916626,-0.0715857669711113,0.0,0.06533981114625931,-1.293145775794983,1.0109710693359375,-1.3537670373916626,-0.0715857669711113,0.003,0.0,0.0,0.0,0.0,0.0,0.0,-3.1,3.1,-1.571,1.571,-1.571,1.571,-1.745,1.745,-2.617,2.617,0.003,0.03,-0.05000000074505806,-0.02500000037252903,-0.02500000037252903,-0.02500000037252903,-0.05000000074505806,-0.0005000000237487257,0.05000000074505806,0.02500000037252903,0.02500000037252903,0.02500000037252903,0.05000000074505806,0.0005000000237487257,-0.028912844446213407,-0.028912844446213407,0.1700377735863811,0.14,0.0,0.26,0.005581842735409737,0.00036523648304864764,0.36413678526878357,0.0,0.0,0.0
0.0,1.0,0.05,0.0,0.0,0.0,0.0,0.0,0.06533981114625931,-1.293145775794983,1.0109710693359375,-1.3537670373916626,-0.0715857669711113,0.0,0.11533981561660767,-1.293145775794983,1.0109710693359375,-1.3537670373916626,-0.0715857669711113,0.003,0.0,0.0,0.0,0.0,0.0,0.0,-3.1,3.1,-1.571,1.571,-1.571,1.571,-1.745,1.745,-2.617,2.617,0.003,0.03,-0.05000000074505806,-0.02500000037252903,-0.02500000037252903,-0.02500000037252903,-0.05000000074505806,-0.0005000000237487257,0.05000000074505806,0.02500000037252903,0.02500000037252903,0.02500000037252903,0.05000000074505806,0.0005000000237487257,-0.028919908845383504,-0.057832753291596914,0.17005854534654677,0.14,0.0,0.26,0.005556612741202116,0.0006437558913603425,0.36413678526878357,0.0,0.0049852224397572975,1.1964533855417514
0.0,2.0,0.05,0.0,0.0,0.0,0.0,0.0,0.11533981561660767,-1.293145775794983,1.0109710693359375,-1.3537670373916626,-0.0715857669711113,0.0,0.16533981263637543,-1.293145775794983,1.0109710693359375,-1.3537670373916626,-0.0715857669711113,0.003,0.0,0.0,0.0,0.0,0.0,0.0,-3.1,3.1,-1.571,1.571,-1.571,1.571,-1.745,1.745,-2.617,2.617,0.003,0.03,-0.05000000074505806,-0.02500000037252903,-0.02500000037252903,-0.02500000037252903,-0.05000000074505806,-0.0005000000237487257,0.05000000074505806,0.02500000037252903,0.02500000037252903,0.02500000037252903,0.05000000074505806,0.0005000000237487257,-0.028930862110431353,-0.08676361540202826,0.1700907466925563,0.14,0.0,0.26,0.005517493933439255,0.0009206662653014064,0.36413678526878357,0.0,0.007728323042288654,0.6583441446075255
0.0,3.0,0.05,0.0,0.0,0.0,0.0,0.0,0.16533981263637543,-1.293145775794983,1.0109710693359375,-1.3537670373916626,-0.0715857669711113,0.0,0.2153398096561432,-1.293145775794983,1.0109710693359375,-1.3537670373916626,-0.0715857669711113,0.003,0.0,0.0,0.0,0.0,0.0,0.0,-3.1,3.1,-1.571,1.571,-1.571,1.571,-1.745,1.745,-2.617,2.617,0.003,0.03,-0.05000000074505806,-0.02500000037252903,-0.02500000037252903,-0.02500000037252903,-0.05000000074505806,-0.0005000000237487257,0.05000000074505806,0.02500000037252903,0.02500000037252903,0.02500000037252903,0.05000000074505806,0.0005000000237487257,-0.028945676735359548,-0.11570929213738781,0.17013429029845673,0.14,0.0,0.26,0.005464584566652775,0.0011952754575759172,0.36413678526878357,0.0,0.01045046541610084,0.6533141697149247
0.0,4.0,0.05,0.0,0.0,0.0,0.0,0.0,0.2153398096561432,-1.293145775794983,1.0109710693359375,-1.3537670373916626,-0.0715857669711113,0.0,0.26533982157707214,-1.293145775794983,1.0109710693359375,-1.3537670373916626,-0.0715857669711113,0.003,0.0,0.0,0.0,0.0,0.0,0.0,-3.1,3.1,-1.571,1.571,-1.571,1.571,-1.745,1.745,-2.617,2.617,0.003,0.03,-0.05000000074505806,-0.02500000037252903,-0.02500000037252903,-0.02500000037252903,-0.05000000074505806,-0.0005000000237487257,0.05000000074505806,0.02500000037252903,0.02500000037252903,0.02500000037252903,0.05000000074505806,0.0005000000237487257,-0.028964315816036652,-0.14467360795342446,0.17018905903740303,0.14,0.0,0.26,0.005398016422986984,0.0014668970834463835,0.36413678526878357,0.0,0.013144497347112871,0.6465676634428874
0.0,5.0,0.05,0.0,0.0,0.0,0.0,0.0,0.26533982157707214,-1.293145775794983,1.0109710693359375,-1.3537670373916626,-0.0715857669711113,0.0,0.3153398334980011,-1.293145775794983,1.0109710693359375,-1.3537670373916626,-0.0715857669711113,0.003,0.0,0.0,0.0,0.0,0.0,0.0,-3.1,3.1,-1.571,1.571,-1.571,1.571,-1.745,1.745,-2.617,2.617,0.003,0.03,-0.05000000074505806,-0.02500000037252903,-0.02500000037252903,-0.02500000037252903,-0.05000000074505806,-0.0005000000237487257,0.05000000074505806,0.02500000037252903,0.02500000037252903,0.02500000037252903,0.05000000074505806,0.0005000000237487257,-0.028986732803810943,-0.1736603407572354,0.17025490537371,0.14,0.0,0.26,0.005317955743521452,0.0017348523251712322,0.36413678526878357,0.0,0.01580312071367107,0.6380696079739678
0.0,6.0,0.05,0.0,0.0,0.0,0.0,0.0,0.3153398334980011,-1.293145775794983,1.0109710693359375,-1.3537670373916626,-0.0715857669711113,0.0,0.36533984541893005,-1.293145775794983,1.0109710693359375,-1.3537670373916626,-0.0715857669711113,0.003,0.0,0.0,0.0,0.0,0.0,0.0,-3.1,3.1,-1.571,1.571,-1.571,1.571,-1.745,1.745,-2.617,2.617,0.003,0.03,-0.05000000074505806,-0.02500000037252903,-0.02500000037252903,-0.02500000037252903,-0.05000000074505806,-0.0005000000237487257,0.05000000074505806,0.02500000037252903,0.02500000037252903,0.02500000037252903,0.05000000074505806,0.0005000000237487257,-0.02901287150874651,-0.20267321226598192,0.170331651517698,0.14,0.0,0.26,0.0052246032282710075,0.0019984713289886713,0.36413678526878357,0.0,0.018419074557121107,0.6278289224280087
0.0,7.0,0.05,0.0,0.0,0.0,0.0,0.0,0.36533984541893005,-1.293145775794983,1.0109710693359375,-1.3537670373916626,-0.0715857669711113,0.0,0.415339857339859,-1.293145775794983,1.0109710693359375,-1.3537670373916626,-0.0715857669711113,0.003,0.0,0.0,0.0,0.0,0.0,0.0,-3.1,3.1,-1.571,1.571,-1.571,1.571,-1.745,1.745,-2.617,2.617,0.003,0.03,-0.05000000074505806,-0.02500000037252903,-0.02500000037252903,-0.02500000037252903,-0.05000000074505806,-0.0005000000237487257,0.05000000074505806,0.02500000037252903,0.02500000037252903,0.02500000037252903,0.05000000074505806,0.0005000000237487257,-0.029042666731888534,-0.23171587899787047,0.17041909145365297,0.14,0.0,0.26,0.005118191707879305,0.0022570949513465166,0.36413678526878357,0.0,0.020985584629193976,0.6159624172974887
0.0,8.0,0.05,0.0,0.0,0.0,0.0,0.0,0.415339857339859,-1.293145775794983,1.0109710693359375,-1.3537670373916626,-0.0715857669711113,0.0,0.46533986926078796,-1.293145775794983,1.0109710693359375,-1.3537670373916626,-0.0715857669711113,0.003,0.0,0.0,0.0,0.0,0.0,0.0,-3.1,3.1,-1.571,1.571,-1.571,1.571,-1.745,1.745,-2.617,2.617,0.003,0.03,-0.05000000074505806,-0.02500000037252903,-0.02500000037252903,-0.02500000037252903,-0.05000000074505806,-0.0005000000237487257,0.05000000074505806,0.02500000037252903,0.02500000037252903,0.02500000037252903,0.05000000074505806,0.0005000000237487257,-0.029076043899331664,-0.26079192289720216,0.17051699006061438,0.14,0.0,0.26,0.004998987540602684,0.0025100773200392723,0.36413678526878357,0.0,0.023495665670738575,0.6024194499707036
0.0,9.0,0.05,0.0,0.0,0.0,0.0,0.0,0.46533986926078796,-1.293145775794983,1.0109710693359375,-1.3537670373916626,-0.0715857669711113,0.0,0.5153398513793945,-1.293145775794983,1.0109710693359375,-1.3537670373916626,-0.0715857669711113,0.003,0.0,0.0,0.0,0.0,0.0,0.0,-3.1,3.1,-1.571,1.571,-1.571,1.571,-1.745,1.745,-2.617,2.617,0.003,0.03,-0.05000000074505806,-0.02500000037252903,-0.02500000037252903,-0.02500000037252903,-0.05000000074505806,-0.0005000000237487257,0.05000000074505806,0.02500000037252903,0.02500000037252903,0.02500000037252903,0.05000000074505806,0.0005000000237487257,-0.02911291956283511,-0.2899048424600373,0.17062508479949573,0.14,0.0,0.26,0.004867288749665022,0.002756785601377487,0.36413678526878357,0.0,0.025942737331523524,0.5872971985883879
0.0,10.0,0.05,0.0,0.0,0.0,0.0,0.0,0.5153398513793945,-1.293145775794983,1.0109710693359375,-1.3537670373916626,-0.0715857669711113,0.0,0.5653398633003235,-1.293145775794983,1.0109710693359375,-1.3537670373916626,-0.0715857669711113,0.003,0.0,0.0,0.0,0.0,0.0,0.0,-3.1,3.1,-1.571,1.571,-1.571,1.571,-1.745,1.745,-2.617,2.617,0.003,0.03,-0.05000000074505806,-0.02500000037252903,-0.02500000037252903,-0.02500000037252903,-0.05000000074505806,-0.0005000000237487257,0.05000000074505806,0.02500000037252903,0.02500000037252903,0.02500000037252903,0.05000000074505806,0.0005000000237487257,-0.02915320166801932,-0.3190580441280566,0.17074308673565475,0.14,0.0,0.26,0.004723424091935158,0.0029966034926474094,0.36413678526878357,0.0,0.028320464678164292,0.5706545631937843
0.0,11.0,0.05,0.0,0.0,0.0,0.0,0.0,0.5653398633003235,-1.293145775794983,1.0109710693359375,-1.3537670373916626,-0.0715857669711113,0.0,0.6153398752212524,-1.293145775794983,1.0109710693359375,-1.3537670373916626,-0.0715857669711113,0.003,0.0,0.0,0.0,0.0,0.0,0.0,-3.1,3.1,-1.571,1.571,-1.571,1.571,-1.745,1.745,-2.617,2.617,0.003,0.03,-0.05000000074505806,-0.02500000037252903,-0.02500000037252903,-0.02500000037252903,-0.05000000074505806,-0.0005000000237487257,0.05000000074505806,0.02500000037252903,0.02500000037252903,0.02500000037252903,0.05000000074505806,0.0005000000237487257,-0.02919678955473253,-0.34825483368278914,0.17087068079320258,0.14,0.0,0.26,0.004567753057926893,0.0032289312221109867,0.36413678526878357,0.0,0.030622573811480702,0.5525061919959384
0.0,12.0,0.05,0.0,0.0,0.0,0.0,0.0,0.6153398752212524,-1.293145775794983,1.0109710693359375,-1.3537670373916626,-0.0715857669711113,0.0,0.6653398871421814,-1.293145775794983,1.0109710693359375,-1.3537670373916626,-0.0715857669711113,0.003,0.0,0.0,0.0,0.0,0.0,0.0,-3.1,3.1,-1.571,1.571,-1.571,1.571,-1.745,1.745,-2.617,2.617,0.003,0.03,-0.05000000074505806,-0.02500000037252903,-0.02500000037252903,-0.02500000037252903,-0.05000000074505806,-0.0005000000237487257,0.05000000074505806,0.02500000037252903,0.02500000037252903,0.02500000037252903,0.05000000074505806,0.0005000000237487257,-0.02924357409975502,-0.3774984077825442,0.17100752644183537,0.14,0.0,0.26,0.004400665406137705,0.0034531885758042336,0.36413678526878357,0.0,0.0328429556718679,0.5328916464929279
0.0,13.0,0.05,0.0,0.0,0.0,0.0,0.0,0.6653398871421814,-1.293145775794983,1.0109710693359375,-1.3537670373916626,-0.0715857669711113,0.0,0.7153398990631104,-1.293145775794983,1.0109710693359375,-1.3537670373916626,-0.0715857669711113,0.003,0.0,0.0,0.0,0.0,0.0,0.0,-3.1,3.1,-1.571,1.571,-1.571,1.571,-1.745,1.745,-2.617,2.617,0.003,0.03,-0.05000000074505806,-0.02500000037252903,-0.02500000037252903,-0.02500000037252903,-0.05000000074505806,-0.0005000000237487257,0.05000000074505806,0.02500000037252903,0.02500000037252903,0.02500000037252903,0.05000000074505806,0.0005000000237487257,-0.02929343847190105,-0.4067918462544452,0.17115326018484442,0.14,0.0,0.26,0.00422257836908102,0.003668814664706588,0.36413678526878357,0.0,0.03497609832217252,0.5119542360731089
0.0,14.0,0.05,0.0,0.0,0.0,0.0,0.0,0.7153398990631104,-1.293145775794983,1.0109710693359375,-1.3537670373916626,-0.0715857669711113,0.0,0.7653399109840393,-1.293145775794983,1.0109710693359375,-1.3537670373916626,-0.0715857669711113,0.003,0.0,0.0,0.0,0.0,0.0,0.0,-3.1,3.1,-1.571,1.571,-1.571,1.571,-1.745,1.745,-2.617,2.617,0.003,0.03,-0.05000000074505806,-0.02500000037252903,-0.02500000037252903,-0.02500000037252903,-0.05000000074505806,-0.0005000000237487257,0.05000000074505806,0.02500000037252903,0.02500000037252903,0.02500000037252903,0.05000000074505806,0.0005000000237487257,-0.029346258149458047,-0.43613810440390327,0.17130749589395686,0.14,0.0,0.26,0.004033936653286219,0.0038752704858779907,0.36413678526878357,0.0,0.03701657018698512,0.48971324755502366
0.0,15.0,0.05,0.0,0.0,0.0,0.0,0.0,0.7653399109840393,-1.293145775794983,1.0109710693359375,-1.3537670373916626,-0.0715857669711113,0.0,0.8153399229049683,-1.293145775794983,1.0109710693359375,-1.3537670373916626,-0.0715857669711113,0.003,0.0,0.0,0.0,0.0,0.0,0.0,-3.1,3.1,-1.571,1.571,-1.571,1.571,-1.745,1.745,-2.617,2.617,0.003,0.03,-0.05000000074505806,-0.02500000037252903,-0.02500000037252903,-0.02500000037252903,-0.05000000074505806,-0.0005000000237487257,0.05000000074505806,0.02500000037252903,0.02500000037252903,0.02500000037252903,0.05000000074505806,0.0005000000237487257,-0.029401900929930846,-0.4655400053338341,0.17146982512946948,0.14,0.0,0.26,0.0038352124392986298,0.004072040319442749,0.36413678526878357,0.0,0.03895901652303024,0.46618712065082946
0.0,16.0,0.05,0.0,0.0,0.0,0.0,0.0,0.8153399229049683,-1.293145775794983,1.0109710693359375,-1.3537670373916626,-0.0715857669711113,0.0,0.8653399348258972,-1.293145775794983,1.0109710693359375,-1.3537670373916626,-0.0715857669711113,0.003,0.0,0.0,0.0,0.0,0.0,0.0,-3.1,3.1,-1.571,1.571,-1.571,1.571,-1.745,1.745,-2.617,2.617,0.003,0.03,-0.05000000074505806,-0.02500000037252903,-0.02500000037252903,-0.02500000037252903,-0.05000000074505806,-0.0005000000237487257,0.05000000074505806,0.02500000037252903,0.02500000037252903,0.02500000037252903,0.05000000074505806,0.0005000000237487257,-0.029460227819111437,-0.49500023315294556,0.17163982002761316,0.14,0.0,0.26,0.0036269021220505238,0.004258632194250822,0.36413678526878357,0.0,0.040798775554482525,0.4415421675485476
0.0,17.0,0.05,0.0,0.0,0.0,0.0,0.0,0.8653399348258972,-1.293145775794983,1.0109710693359375,-1.3537670373916626,-0.0715857669711113,0.0,0.9153399467468262,-1.293145775794983,1.0109710693359375,-1.3537670373916626,-0.0715857669711113,0.003,0.0,0.0,0.0,0.0,0.0,0.0,-3.1,3.1,-1.571,1.571,-1.571,1.571,-1.745,1.745,-2.617,2.617,0.003,0.03,-0.05000000074505806,-0.02500000037252903,-0.02500000037252903,-0.02500000037252903,-0.05000000074505806,-0.0005000000237487257,0.05000000074505806,0.02500000037252903,0.02500000037252903,0.02500000037252903,0.05000000074505806,0.0005000000237487257,-0.029521092980633927,-0.5245213261335795,0.17181703344148952,0.14,0.0,0.26,0.0034095265436917543,0.0044345795176923275,0.36413678526878357,0.0,0.04253121933032622,0.4157865062024868
0.0,18.0,0.05,0.0,0.0,0.0,0.0,0.0,0.9153399467468262,-1.293145775794983,1.0109710693359375,-1.3537670373916626,-0.0715857669711113,0.0,0.9653399586677551,-1.293145775794983,1.0109710693359375,-1.3537670373916626,-0.0715857669711113,0.003,0.0,0.0,0.0,0.0,0.0,0.0,-3.1,3.1,-1.571,1.571,-1.571,1.571,-1.745,1.745,-2.617,2.617,0.003,0.03,-0.05000000074505806,-0.02500000037252903,-0.02500000037252903,-0.02500000037252903,-0.05000000074505806,-0.0005000000237487257,0.05000000074505806,0.02500000037252903,0.02500000037252903,0.02500000037252903,0.05000000074505806,0.0005000000237487257,-0.029584344320807022,-0.5541056704543865,0.17200100092966616,0.14,0.0,0.26,0.003183628898113966,0.004599442705512047,0.36413678526878357,0.0,0.044152197162394824,0.389034679696465
0.0,19.0,0.05,0.0,0.0,0.0,0.0,0.0,0.9653399586677551,-1.293145775794983,1.0109710693359375,-1.3537670373916626,-0.0715857669711113,0.0,1.015339970588684,-1.293145775794983,1.0109710693359375,-1.3537670373916626,-0.0715857669711113,0.003,0.0,0.0,0.0,0.0,0.0,0.0,-3.1,3.1,-1.571,1.571,-1.571,1.571,-1.745,1.745,-2.617,2.617,0.003,0.03,-0.05000000074505806,-0.02500000037252903,-0.02500000037252903,-0.02500000037252903,-0.05000000074505806,-0.0005000000237487257,0.05000000074505806,0.02500000037252903,0.02500000037252903,0.02500000037252903,0.05000000074505806,0.0005000000237487257,-0.02964982374723496,-0.5837554942016214,0.17219124178434558,0.14,0.0,0.26,0.0029497737996280193,0.004752809647470713,0.36413678526878357,0.0,0.0456578051230605,0.36134591055976273
0.0,20.0,0.05,0.0,0.0,0.0,0.0,0.0,1.015339970588684,-1.293145775794983,1.0109710693359375,-1.3537670373916626,-0.0715857669711113,0.0,1.0653399229049683,-1.293145775794983,1.0109710693359375,-1.3537670373916626,-0.0715857669711113,0.003,0.0,0.0,0.0,0.0,0.0,0.0,-3.1,3.1,-1.571,1.571,-1.571,1.571,-1.745,1.745,-2.617,2.617,0.003,0.03,-0.05000000074505806,-0.02500000037252903,-0.02500000037252903,-0.02500000037252903,-0.05000000074505806,-0.0005000000237487257,0.05000000074505806,0.02500000037252903,0.02500000037252903,0.02500000037252903,0.05000000074505806,0.0005000000237487257,-0.02971736749907289,-0.6134728617006944,0.17238726025745896,0.14,0.0,0.26,0.002708546118810773,0.004894297104328871,0.36413678526878357,0.0,0.047044433547209774,0.3327908217958253
0.0,21.0,0.05,0.0,0.0,0.0,0.0,0.0,1.0653399229049683,-1.293145775794983,1.0109710693359375,-1.3537670373916626,-0.0715857669711113,0.0,1.1153398752212524,-1.293145775794983,1.0109710693359375,-1.3537670373916626,-0.0715857669711113,0.003,0.0,0.0,0.0,0.0,0.0,0.0,-3.1,3.1,-1.571,1.571,-1.571,1.571,-1.745,1.745,-2.617,2.617,0.003,0.03,-0.05000000074505806,-0.02500000037252903,-0.02500000037252903,-0.02500000037252903,-0.05000000074505806,-0.0005000000237487257,0.05000000074505806,0.02500000037252903,0.02500000037252903,0.02500000037252903,0.05000000074505806,0.0005000000237487257,-0.029786806853060455,-0.6432596685537548,0.17258854786184527,0.14,0.0,0.26,0.002460548421368003,0.005023551173508167,0.36413678526878357,0.0,0.04830902505271517,0.30350196132129525
0.0,22.0,0.05,0.0,0.0,0.0,0.0,0.0,1.1153398752212524,-1.293145775794983,1.0109710693359375,-1.3537670373916626,-0.0715857669711113,0.0,1.1653398275375366,-1.293145775794983,1.0109710693359375,-1.3537670373916626,-0.0715857669711113,0.003,0.0,0.0,0.0,0.0,0.0,0.0,-3.1,3.1,-1.571,1.571,-1.571,1.571,-1.745,1.745,-2.617,2.617,0.003,0.03,-0.05000000074505806,-0.02500000037252903,-0.02500000037252903,-0.02500000037252903,-0.05000000074505806,-0.0005000000237487257,0.05000000074505806,0.02500000037252903,0.02500000037252903,0.02500000037252903,0.05000000074505806,0.0005000000237487257,-0.02985796820577837,-0.6731176367595332,0.17279458384387622,0.14,0.0,0.26,0.0022064007353037596,0.005140249151736498,0.36413678526878357,0.0,0.049448635687427966,0.2735065523310709
0.0,23.0,0.05,0.0,0.0,0.0,0.0,0.0,1.1653398275375366,-1.293145775794983,1.0109710693359375,-1.3537670373916626,-0.0715857669711113,0.0,1.2153397798538208,-1.293145775794983,1.0109710693359375,-1.3537670373916626,-0.0715857669711113,0.003,0.0,0.0,0.0,0.0,0.0,0.0,-3.1,3.1,-1.571,1.571,-1.571,1.571,-1.745,1.745,-2.617,2.617,0.003,0.03,-0.05000000074505806,-0.02500000037252903,-0.02500000037252903,-0.02500000037252903,-0.05000000074505806,-0.0005000000237487257,0.05000000074505806,0.02500000037252903,0.02500000037252903,0.02500000037252903,0.05000000074505806,0.0005000000237487257,-0.0299306737406848,-0.703048310500218,0.17300483733319366,0.14,0.0,0.26,0.0019467381061986089,0.005244099069386721,0.36413678526878357,0.0,0.0504608374361859,0.24292841970190437
0.0,24.0,0.05,0.0,0.0,0.0,0.0,0.0,1.2153397798538208,-1.293145775794983,1.0109710693359375,-1.3537670373916626,-0.0715857669711113,0.0,1.265339732170105,-1.293145775794983,1.0109710693359375,-1.3537670373916626,-0.0715857669711113,0.003,0.0,0.0,0.0,0.0,0.0,0.0,-3.1,3.1,-1.571,1.571,-1.571,1.571,-1.745,1.745,-2.617,2.617,0.003,0.03,-0.05000000074505806,-0.02500000037252903,-0.02500000037252903,-0.02500000037252903,-0.05000000074505806,-0.0005000000237487257,0.05000000074505806,0.02500000037252903,0.02500000037252903,0.02500000037252903,0.05000000074505806,0.0005000000237487257,-0.03000474167618912,-0.7330530521764071,0.17321876825618268,0.14,0.0,0.26,0.0016822097823023796,0.0053348420187830925,0.36413678526878357,0.0,0.05134342151736471,0.21182017948291332
0.0,25.0,0.05,0.0,0.0,0.0,0.0,0.0,1.265339732170105,-1.293145775794983,1.0109710693359375,-1.3537670373916626,-0.0715857669711113,0.0,1.3153396844863892,-1.293145775794983,1.0109710693359375,-1.3537670373916626,-0.0715857669711113,0.003,0.0,0.0,0.0,0.0,0.0,0.0,-3.1,3.1,-1.571,1.571,-1.571,1.571,-1.745,1.745,-2.617,2.617,0.003,0.03,-0.05000000074505806,-0.02500000037252903,-0.02500000037252903,-0.02500000037252903,-0.05000000074505806,-0.0005000000237487257,0.05000000074505806,0.02500000037252903,0.02500000037252903,0.02500000037252903,0.05000000074505806,0.0005000000237487257,-0.03007998691532596,-0.7631330390917331,0.17343582938748833,0.14,0.0,0.26,0.0014134767698124051,0.005412249825894833,0.36413678526878357,0.0,0.05209467151335634,0.18029999903799165
0.0,26.0,0.05,0.0,0.0,0.0,0.0,0.0,1.3153396844863892,-1.293145775794983,1.0109710693359375,-1.3537670373916626,-0.0715857669711113,0.0,1.3653396368026733,-1.293145775794983,1.0109710693359375,-1.3537670373916626,-0.0715857669711113,0.003,0.0,0.0,0.0,0.0,0.0,0.0,-3.1,3.1,-1.571,1.571,-1.571,1.571,-1.745,1.745,-2.617,2.617,0.003,0.03,-0.05000000074505806,-0.02500000037252903,-0.02500000037252903,-0.02500000037252903,-0.05000000074505806,-0.0005000000237487257,0.05000000074505806,0.02500000037252903,0.02500000037252903,0.02500000037252903,0.05000000074505806,0.0005000000237487257,-0.030156221395102295,-0.7932892604868355,0.17365546750707936,0.14,0.0,0.26,0.0011412107851356268,0.00547613063827157,0.36413678526878357,0.0,0.05271314870184618,0.14843452523756184
0.0,27.0,0.05,0.0,0.0,0.0,0.0,0.0,1.3653396368026733,-1.293145775794983,1.0109710693359375,-1.3537670373916626,-0.0715857669711113,0.0,1.4153395891189575,-1.293145775794983,1.0109710693359375,-1.3537670373916626,-0.0715857669711113,0.003,0.0,0.0,0.0,0.0,0.0,0.0,-3.1,3.1,-1.571,1.571,-1.571,1.571,-1.745,1.745,-2.617,2.617,0.003,0.03,-0.05000000074505806,-0.02500000037252903,-0.02500000037252903,-0.02500000037252903,-0.05000000074505806,-0.0005000000237487257,0.05000000074505806,0.02500000037252903,0.02500000037252903,0.02500000037252903,0.05000000074505806,0.0005000000237487257,-0.030233254541946742,-0.8235225150287822,0.17387712483804976,0.14,0.0,0.26,0.0008660923922434449,0.005526323337107897,0.36413678526878357,0.0,0.05319775943289695,0.11630657545218526
0.0,28.0,0.05,0.0,0.0,0.0,0.0,0.0,1.4153395891189575,-1.293145775794983,1.0109710693359375,-1.3537670373916626,-0.0715857669711113,0.0,1.4653395414352417,-1.293145775794983,1.0109710693359375,-1.3537670373916626,-0.0715857669711113,0.003,0.0,0.0,0.0,0.0,0.0,0.0,-3.1,3.1,-1.571,1.571,-1.571,1.571,-1.745,1.745,-2.617,2.617,0.003,0.03,-0.05000000074505806,-0.02500000037252903,-0.02500000037252903,-0.02500000037252903,-0.05000000074505806,-0.0005000000237487257,0.05000000074505806,0.02500000037252903,0.02500000037252903,0.02500000037252903,0.05000000074505806,0.0005000000237487257,-0.030310893838122625,-0.8538334088669047,0.1741002407756021,0.14,0.0,0.26,0.0005888091982342303,0.005562703590840101,0.36413678526878357,0.0,0.053547825012560946,0.08401573911935856
0.0,29.0,0.05,0.0,0.0,0.0,0.0,0.0,1.4653395414352417,-1.293145775794983,1.0109710693359375,-1.3537670373916626,-0.0715857669711113,0.0,1.5153394937515259,-1.293145775794983,1.0109710693359375,-1.3537670373916626,-0.0715857669711113,0.003,0.0,0.0,0.0,0.0,0.0,0.0,-3.1,3.1,-1.571,1.571,-1.571,1.571,-1.745,1.745,-2.617,2.617,0.003,0.03,-0.05000000074505806,-0.02500000037252903,-0.02500000037252903,-0.02500000037252903,-0.05000000074505806,-0.0005000000237487257,0.05000000074505806,0.02500000037252903,0.02500000037252903,0.02500000037252903,0.05000000074505806,0.0005000000237487257,-0.030388945204641252,-0.884222354071546,0.17432425305918064,0.14,0.0,0.26,0.00031005431083031,0.005585179664194584,0.36413678526878357,0.0,0.053762948058850846,0.05162953110957602
0.0,30.0,0.05,0.0,0.0,0.0,0.0,0.0,1.5153394937515259,-1.293145775794983,1.0109710693359375,-1.3537670373916626,-0.0715857669711113,0.0,1.56533944606781,-1.293145775794983,1.0109710693359375,-1.3537670373916626,-0.0715857669711113,0.003,0.0,0.0,0.0,0.0,0.0,0.0,-3.1,3.1,-1.571,1.571,-1.571,1.571,-1.745,1.745,-2.617,2.617,0.003,0.03,-0.05000000074505806,-0.02500000037252903,-0.02500000037252903,-0.02500000037252903,-0.05000000074505806,-0.0005000000237487257,0.05000000074505806,0.02500000037252903,0.02500000037252903,0.02500000037252903,0.05000000074505806,0.0005000000237487257,-0.03046721357240327,-0.9146895676439493,0.17454859945700874,0.14,0.0,0.26,3.052443571505137e-05,0.005593696143478155,0.36413678526878357,0.0,0.053843135478741644,0.019244980773791553
0.0,31.0,0.05,0.0,0.0,0.0,0.0,0.0,1.56533944606781,-1.293145775794983,1.0109710693359375,-1.3537670373916626,-0.0715857669711113,0.0,1.6153393983840942,-1.293145775794983,1.0109710693359375,-1.3537670373916626,-0.0715857669711113,0.003,0.0,0.0,0.0,0.0,0.0,0.0,-3.1,3.1,-1.571,1.571,-1.571,1.571,-1.745,1.745,-2.617,2.617,0.003,0.03,-0.05000000074505806,-0.02500000037252903,-0.02500000037252903,-0.02500000037252903,-0.05000000074505806,-0.0005000000237487257,0.05000000074505806,0.02500000037252903,0.02500000037252903,0.02500000037252903,0.05000000074505806,0.0005000000237487257,-0.030545503298915533,-0.9452350709428647,0.1747727189778643,0.14,0.0,0.26,-0.00024908172781579196,0.0055882311426103115,0.36413678526878357,0.0,0.05378868500533818,-0.013068113616832022
0.0,32.0,0.05,0.0,0.0,0.0,0.0,0.0,1.6153393983840942,-1.293145775794983,1.0109710693359375,-1.3537670373916626,-0.0715857669711113,0.0,1.6653393507003784,-1.293145775794983,1.0109710693359375,-1.3537670373916626,-0.0715857669711113,0.003,0.0,0.0,0.0,0.0,0.0,0.0,-3.1,3.1,-1.571,1.571,-1.571,1.571,-1.745,1.745,-2.617,2.617,0.003,0.03,-0.05000000074505806,-0.02500000037252903,-0.02500000037252903,-0.02500000037252903,-0.05000000074505806,-0.0005000000237487257,0.05000000074505806,0.02500000037252903,0.02500000037252903,0.02500000037252903,0.05000000074505806,0.0005000000237487257,-0.030623618699776173,-0.9758586896426409,0.1749960533834297,0.14,0.0,0.26,-0.0005280653131194413,0.005568798165768385,0.36413678526878357,0.0,0.05360025733569085,-0.045222640715358864
0.0,33.0,0.05,0.0,0.0,0.0,0.0,0.0,1.6653393507003784,-1.293145775794983,1.0109710693359375,-1.3537670373916626,-0.0715857669711113,0.0,1.7153393030166626,-1.293145775794983,1.0109710693359375,-1.3537670373916626,-0.0715857669711113,0.003,0.0,0.0,0.0,0.0,0.0,0.0,-3.1,3.1,-1.571,1.571,-1.571,1.571,-1.745,1.745,-2.617,2.617,0.003,0.03,-0.05000000074505806,-0.02500000037252903,-0.02500000037252903,-0.02500000037252903,-0.05000000074505806,-0.0005000000237487257,0.05000000074505806,0.02500000037252903,0.02500000037252903,0.02500000037252903,0.05000000074505806,0.0005000000237487257,-0.030701364537088608,-1.0065600541797295,0.1752180485483405,0.14,0.0,0.26,-0.0008057290106080472,0.00553544657304883,0.36413678526878357,0.0,0.05327883957859436,-0.07714026170315691
0.0,34.0,0.05,0.0,0.0,0.0,0.0,0.0,1.7153393030166626,-1.293145775794983,1.0109710693359375,-1.3537670373916626,-0.0715857669711113,0.0,1.7653392553329468,-1.293145775794983,1.0109710693359375,-1.3537670373916626,-0.0715857669711113,0.003,0.0,0.0,0.0,0.0,0.0,0.0,-3.1,3.1,-1.571,1.571,-1.571,1.571,-1.745,1.745,-2.617,2.617,0.003,0.03,-0.05000000074505806,-0.02500000037252903,-0.02500000037252903,-0.02500000037252903,-0.05000000074505806,-0.0005000000237487257,0.05000000074505806,0.02500000037252903,0.02500000037252903,0.02500000037252903,0.05000000074505806,0.0005000000237487257,-0.030778546469439116,-1.0373386006491687,0.17543815568296173,0.14,0.0,0.26,-0.0010813787812367082,0.0054882587864995,0.36413678526878357,0.0,0.05282571230909472,-0.10875054467991419
0.0,35.0,0.05,0.0,0.0,0.0,0.0,0.0,1.7653392553329468,-1.293145775794983,1.0109710693359375,-1.3537670373916626,-0.0715857669711113,0.0,1.815339207649231,-1.293145775794983,1.0109710693359375,-1.3537670373916626,-0.0715857669711113,0.003,0.0,0.0,0.0,0.0,0.0,0.0,-3.1,3.1,-1.571,1.571,-1.571,1.571,-1.745,1.745,-2.617,2.617,0.003,0.03,-0.05000000074505806,-0.02500000037252903,-0.02500000037252903,-0.02500000037252903,-0.05000000074505806,-0.0005000000237487257,0.05000000074505806,0.02500000037252903,0.02500000037252903,0.02500000037252903,0.05000000074505806,0.0005000000237487257,-0.03085497163378412,-1.0681935722829528,0.17565583290566847,0.14,0.0,0.26,-0.001354325795546174,0.005427353549748659,0.36413678526878357,0.0,0.052242533449617934,-0.1399629262744284
0.0,36.0,0.05,0.0,0.0,0.0,0.0,0.0,1.815339207649231,-1.293145775794983,1.0109710693359375,-1.3537670373916626,-0.0715857669711113,0.0,1.8653391599655151,-1.293145775794983,1.0109710693359375,-1.3537670373916626,-0.0715857669711113,0.003,0.0,0.0,0.0,0.0,0.0,0.0,-3.1,3.1,-1.571,1.571,-1.571,1.571,-1.745,1.745,-2.617,2.617,0.003,0.03,-0.05000000074505806,-0.02500000037252903,-0.02500000037252903,-0.02500000037252903,-0.05000000074505806,-0.0005000000237487257,0.05000000074505806,0.02500000037252903,0.02500000037252903,0.02500000037252903,0.05000000074505806,0.0005000000237487257,-0.030930448934038648,-1.0991240212169915,0.1758705459536606,0.14,0.0,0.26,-0.0016238875687122345,0.005352883134037256,0.36413678526878357,0.0,0.05153113151811439,-0.17073646356084993
0.0,37.0,0.05,0.0,0.0,0.0,0.0,0.0,1.8653391599655151,-1.293145775794983,1.0109710693359375,-1.3537670373916626,-0.0715857669711113,0.0,1.9153391122817993,-1.293145775794983,1.0109710693359375,-1.3537670373916626,-0.0715857669711113,0.003,0.0,0.0,0.0,0.0,0.0,0.0,-3.1,3.1,-1.571,1.571,-1.571,1.571,-1.745,1.745,-2.617,2.617,0.003,0.03,-0.05000000074505806,-0.02500000037252903,-0.02500000037252903,-0.02500000037252903,-0.05000000074505806,-0.0005000000237487257,0.05000000074505806,0.02500000037252903,0.02500000037252903,0.02500000037252903,0.05000000074505806,0.0005000000237487257,-0.031004789759880465,-1.130128810976872,0.17608177009526133,0.14,0.0,0.26,-0.0018893905216827989,0.00526503287255764,0.36413678526878357,0.0,0.050693793984171176,-0.20096100814637197
0.0,38.0,0.05,0.0,0.0,0.0,0.0,0.0,1.9153391122817993,-1.293145775794983,1.0109710693359375,-1.3537670373916626,-0.0715857669711113,0.0,1.9653390645980835,-1.293145775794983,1.0109710693359375,-1.3537670373916626,-0.0715857669711113,0.003,0.0,0.0,0.0,0.0,0.0,0.0,-3.1,3.1,-1.571,1.571,-1.571,1.571,-1.745,1.745,-2.617,2.617,0.003,0.03,-0.05000000074505806,-0.02500000037252903,-0.02500000037252903,-0.02500000037252903,-0.05000000074505806,-0.0005000000237487257,0.05000000074505806,0.02500000037252903,0.02500000037252903,0.02500000037252903,0.05000000074505806,0.0005000000237487257,-0.03107780828209202,-1.1612066192589638,0.17628899081364105,0.14,0.0,0.26,-0.002150170970708132,0.00516402255743742,0.36413678526878357,0.0,0.04973297241113395,-0.23059717752893505
0.0,39.0,0.05,0.0,0.0,0.0,0.0,0.0,1.9653390645980835,-1.293145775794983,1.0109710693359375,-1.3537670373916626,-0.0715857669711113,0.0,2.0153391361236572,-1.293145775794983,1.0109710693359375,-1.3537670373916626,-0.0715857669711113,0.003,0.0,0.0,0.0,0.0,0.0,0.0,-3.1,3.1,-1.571,1.571,-1.571,1.571,-1.745,1.745,-2.617,2.617,0.003,0.03,-0.05000000074505806,-0.02500000037252903,-0.02500000037252903,-0.02500000037252903,-0.05000000074505806,-0.0005000000237487257,0.05000000074505806,0.02500000037252903,0.02500000037252903,0.02500000037252903,0.05000000074505806,0.0005000000237487257,-0.031149322197005114,-1.192355941455969,0.1764917057456387,0.14,0.0,0.26,-0.0024055778048932552,0.005050105042755604,0.36413678526878357,0.0,0.04865158367943323,-0.25953329560817195
0.0,40.0,0.05,0.0,0.0,0.0,0.0,0.0,2.0153391361236572,-1.293145775794983,1.0109710693359375,-1.3537670373916626,-0.0715857669711113,0.0,2.0653390884399414,-1.293145775794983,1.0109710693359375,-1.3537670373916626,-0.0715857669711113,0.003,0.0,0.0,0.0,0.0,0.0,0.0,-3.1,3.1,-1.571,1.571,-1.571,1.571,-1.745,1.745,-2.617,2.617,0.003,0.03,-0.05000000074505806,-0.02500000037252903,-0.02500000037252903,-0.02500000037252903,-0.05000000074505806,-0.0005000000237487257,0.05000000074505806,0.02500000037252903,0.02500000037252903,0.02500000037252903,0.05000000074505806,0.0005000000237487257,-0.03121915238440369,-1.2235750938403727,0.17668942352162365,0.14,0.0,0.26,-0.00265497132204473,0.004923565313220024,0.36413678526878357,0.0,0.04745226623638965,-0.28783618633045904
0.0,41.0,0.05,0.0,0.0,0.0,0.0,0.0,2.0653390884399414,-1.293145775794983,1.0109710693359375,-1.3537670373916626,-0.0715857669711113,0.0,2.1153390407562256,-1.293145775794983,1.0109710693359375,-1.3537670373916626,-0.0715857669711113,0.003,0.0,0.0,0.0,0.0,0.0,0.0,-3.1,3.1,-1.571,1.571,-1.571,1.571,-1.745,1.745,-2.617,2.617,0.003,0.03,-0.05000000074505806,-0.02500000037252903,-0.02500000037252903,-0.02500000037252903,-0.05000000074505806,-0.0005000000237487257,0.05000000074505806,0.02500000037252903,0.02500000037252903,0.02500000037252903,0.05000000074505806,0.0005000000237487257,-0.031287124450533325,-1.254862218290906,0.17688166793235902,0.14,0.0,0.26,-0.0028977287001907825,0.0047847190871834755,0.36413678526878357,0.0,0.04613865857648891,-0.3152658383761775
0.0,42.0,0.05,0.0,0.0,0.0,0.0,0.0,2.1153390407562256,-1.293145775794983,1.0109710693359375,-1.3537670373916626,-0.0715857669711113,0.0,2.1653389930725098,-1.293145775794983,1.0109710693359375,-1.3537670373916626,-0.0715857669711113,0.003,0.0,0.0,0.0,0.0,0.0,0.0,-3.1,3.1,-1.571,1.571,-1.571,1.571,-1.745,1.745,-2.617,2.617,0.003,0.03,-0.05000000074505806,-0.02500000037252903,-0.02500000037252903,-0.02500000037252903,-0.05000000074505806,-0.0005000000237487257,0.05000000074505806,0.02500000037252903,0.02500000037252903,0.02500000037252903,0.05000000074505806,0.0005000000237487257,-0.03135306856906679,-1.2862152868599728,0.17706797725468823,0.14,0.0,0.26,-0.003133243415504694,0.004633913282305002,0.36413678526878357,0.0,0.04471423735901148,-0.34186109219458416
0.0,43.0,0.05,0.0,0.0,0.0,0.0,0.0,2.1653389930725098,-1.293145775794983,1.0109710693359375,-1.3537670373916626,-0.0715857669711113,0.0,2.215338945388794,-1.293145775794983,1.0109710693359375,-1.3537670373916626,-0.0715857669711113,0.003,0.0,0.0,0.0,0.0,0.0,0.0,-3.1,3.1,-1.571,1.571,-1.571,1.571,-1.745,1.745,-2.617,2.617,0.003,0.03,-0.05000000074505806,-0.02500000037252903,-0.02500000037252903,-0.02500000037252903,-0.05000000074505806,-0.0005000000237487257,0.05000000074505806,0.02500000037252903,0.02500000037252903,0.02500000037252903,0.05000000074505806,0.0005000000237487257,-0.031416819873735555,-1.3176321067337082,0.17724790513214975,0.14,0.0,0.26,-0.003360926639288664,0.004471525549888611,0.36413678526878357,0.0,0.04318269059076396,-0.3675712243794038
0.0,44.0,0.05,0.0,0.0,0.0,0.0,0.0,2.215338945388794,-1.293145775794983,1.0109710693359375,-1.3537670373916626,-0.0715857669711113,0.0,2.265338897705078,-1.293145775794983,1.0109710693359375,-1.3537670373916626,-0.0715857669711113,0.003,0.0,0.0,0.0,0.0,0.0,0.0,-3.1,3.1,-1.571,1.571,-1.571,1.571,-1.745,1.745,-2.617,2.617,0.003,0.03,-0.05000000074505806,-0.02500000037252903,-0.02500000037252903,-0.02500000037252903,-0.05000000074505806,-0.0005000000237487257,0.05000000074505806,0.02500000037252903,0.02500000037252903,0.02500000037252903,0.05000000074505806,0.0005000000237487257,-0.031478218960382845,-1.349110325694091,0.17742102175442132,0.14,0.0,0.26,-0.0035802091006189585,0.004297961015254259,0.36413678526878357,0.0,0.04154798934517645,-0.39232829894100263
0.0,45.0,0.05,0.0,0.0,0.0,0.0,0.0,2.265338897705078,-1.293145775794983,1.0109710693359375,-1.3537670373916626,-0.0715857669711113,0.0,2.3153388500213623,-1.293145775794983,1.0109710693359375,-1.3537670373916626,-0.0715857669711113,0.003,0.0,0.0,0.0,0.0,0.0,0.0,-3.1,3.1,-1.571,1.571,-1.571,1.571,-1.745,1.745,-2.617,2.617,0.003,0.03,-0.05000000074505806,-0.02500000037252903,-0.02500000037252903,-0.02500000037252903,-0.05000000074505806,-0.0005000000237487257,0.05000000074505806,0.02500000037252903,0.02500000037252903,0.02500000037252903,0.05000000074505806,0.0005000000237487257,-0.03153711250502676,-1.3806474381991178,0.1775869153542196,0.14,0.0,0.26,-0.003790543181821704,0.004113654140383005,0.36413678526878357,0.0,0.03981446395159072,-0.41604609446057594
0.0,46.0,0.05,0.0,0.0,0.0,0.0,0.0,2.3153388500213623,-1.293145775794983,1.0109710693359375,-1.3537670373916626,-0.0715857669711113,0.0,2.3653388023376465,-1.293145775794983,1.0109710693359375,-1.3537670373916626,-0.0715857669711113,0.003,0.0,0.0,0.0,0.0,0.0,0.0,-3.1,3.1,-1.571,1.571,-1.571,1.571,-1.745,1.745,-2.617,2.617,0.003,0.03,-0.05000000074505806,-0.02500000037252903,-0.02500000037252903,-0.02500000037252903,-0.05000000074505806,-0.0005000000237487257,0.05000000074505806,0.02500000037252903,0.02500000037252903,0.02500000037252903,0.05000000074505806,0.0005000000237487257,-0.03159335316395899,-1.4122407913630768,0.1777451916760591,0.14,0.0,0.26,-0.003991402685642242,0.003919064998626709,0.36413678526878357,0.0,0.037986317241476275,-0.4387552104274661
0.0,47.0,0.05,0.0,0.0,0.0,0.0,0.0,2.3653388023376465,-1.293145775794983,1.0109710693359375,-1.3537670373916626,-0.0715857669711113,0.0,2.4153387546539307,-1.293145775794983,1.0109710693359375,-1.3537670373916626,-0.0715857669711113,0.003,0.0,0.0,0.0,0.0,0.0,0.0,-3.1,3.1,-1.571,1.571,-1.571,1.571,-1.745,1.745,-2.617,2.617,0.003,0.03,-0.05000000074505806,-0.02500000037252903,-0.02500000037252903,-0.02500000037252903,-0.05000000074505806,-0.0005000000237487257,0.05000000074505806,0.02500000037252903,0.02500000037252903,0.02500000037252903,0.05000000074505806,0.0005000000237487257,-0.03164680052042374,-1.4438875918835006,0.17789547639112058,0.14,0.0,0.26,-0.004182286094874144,0.003714680438861251,0.36413678526878357,0.0,0.036068331614755866,-0.4603165504128981
0.0,48.0,0.05,0.0,0.0,0.0,0.0,0.0,2.4153387546539307,-1.293145775794983,1.0109710693359375,-1.3537670373916626,-0.0715857669711113,0.0,2.465338706970215,-1.293145775794983,1.0109710693359375,-1.3537670373916626,-0.0715857669711113,0.003,0.0,0.0,0.0,0.0,0.0,0.0,-3.1,3.1,-1.571,1.571,-1.571,1.571,-1.745,1.745,-2.617,2.617,0.003,0.03,-0.05000000074505806,-0.02500000037252903,-0.02500000037252903,-0.02500000037252903,-0.05000000074505806,-0.0005000000237487257,0.05000000074505806,0.02500000037252903,0.02500000037252903,0.02500000037252903,0.05000000074505806,0.0005000000237487257,-0.031697320859028724,-1.4755849127425293,0.17803741421125147,0.14,0.0,0.26,-0.004362715873867273,0.0035010110586881638,0.36413678526878357,0.0,0.034065076831413243,-0.4807811480022295
0.0,49.0,0.05,0.0,0.0,0.0,0.0,0.0,2.465338706970215,-1.293145775794983,1.0109710693359375,-1.3537670373916626,-0.0715857669711113,0.0,2.515338659286499,-1.293145775794983,1.0109710693359375,-1.3537670373916626,-0.0715857669711113,0.003,0.0,0.0,0.0,0.0,0.0,0.0,-3.1,3.1,-1.571,1.571,-1.571,1.571,-1.745,1.745,-2.617,2.617,0.003,0.03,-0.05000000074505806,-0.02500000037252903,-0.02500000037252903,-0.02500000037252903,-0.05000000074505806,-0.0005000000237487257,0.05000000074505806,0.02500000037252903,0.02500000037252903,0.02500000037252903,0.05000000074505806,0.0005000000237487257,-0.031744787834629896,-1.5073297005771593,0.17817067052304061,0.14,0.0,0.26,-0.00453224079683423,0.0032785909716039896,0.36413678526878357,0.0,0.031981514829395596,-0.5000548804842353
0.0,50.0,0.05,0.0,0.0,0.0,0.0,0.0,2.515338659286499,-1.293145775794983,1.0109710693359375,-1.3537670373916626,-0.0715857669711113,0.0,2.565338611602783,-1.293145775794983,1.0109710693359375,-1.3537670373916626,-0.0715857669711113,0.003,0.0,0.0,0.0,0.0,0.0,0.0,-3.1,3.1,-1.571,1.571,-1.571,1.571,-1.745,1.745,-2.617,2.617,0.003,0.03,-0.05000000074505806,-0.02500000037252903,-0.02500000037252903,-0.02500000037252903,-0.05000000074505806,-0.0005000000237487257,0.05000000074505806,0.02500000037252903,0.02500000037252903,0.02500000037252903,0.05000000074505806,0.0005000000237487257,-0.03178908306606303,-1.5391187836432223,0.1782949328109552,0.14,0.0,0.26,-0.0046904380433261395,0.003047976177185774,0.36413678526878357,0.0,0.029822949099502782,-0.5180557751742754
0.0,51.0,0.05,0.0,0.0,0.0,0.0,0.0,2.565338611602783,-1.293145775794983,1.0109710693359375,-1.3537670373916626,-0.0715857669711113,0.0,2.6153385639190674,-1.293145775794983,1.0109710693359375,-1.3537670373916626,-0.0715857669711113,0.003,0.0,0.0,0.0,0.0,0.0,0.0,-3.1,3.1,-1.571,1.571,-1.571,1.571,-1.745,1.745,-2.617,2.617,0.003,0.03,-0.05000000074505806,-0.02500000037252903,-0.02500000037252903,-0.02500000037252903,-0.05000000074505806,-0.0005000000237487257,0.05000000074505806,0.02500000037252903,0.02500000037252903,0.02500000037252903,0.05000000074505806,0.0005000000237487257,-0.03183009558799782,-1.57094887923122,0.1784099088840018,0.14,0.0,0.26,-0.0048369113355875015,0.0028097431641072035,0.36413678526878357,0.0,0.0275942575311805,-0.5348859763973479
0.0,52.0,0.05,0.0,0.0,0.0,0.0,0.0,2.6153385639190674,-1.293145775794983,1.0109710693359375,-1.3537670373916626,-0.0715857669711113,0.0,2.6653385162353516,-1.293145775794983,1.0109710693359375,-1.3537670373916626,-0.0715857669711113,0.003,0.0,0.0,0.0,0.0,0.0,0.0,-3.1,3.1,-1.571,1.571,-1.571,1.571,-1.745,1.745,-2.617,2.617,0.003,0.03,-0.05000000074505806,-0.02500000037252903,-0.02500000037252903,-0.02500000037252903,-0.05000000074505806,-0.0005000000237487257,0.05000000074505806,0.02500000037252903,0.02500000037252903,0.02500000037252903,0.05000000074505806,0.0005000000237487257,-0.03186772291644531,-1.6028166021476653,0.17851532963990882,0.14,0.0,0.26,-0.004971294663846493,0.002564487047493458,0.36413678526878357,0.0,0.02530098141768633,-0.5503862672386006
0.0,53.0,0.05,0.0,0.0,0.0,0.0,0.0,2.6653385162353516,-1.293145775794983,1.0109710693359375,-1.3537670373916626,-0.0715857669711113,0.0,2.7153384685516357,-1.293145775794983,1.0109710693359375,-1.3537670373916626,-0.0715857669711113,0.003,0.0,0.0,0.0,0.0,0.0,0.0,-3.1,3.1,-1.571,1.571,-1.571,1.571,-1.745,1.745,-2.617,2.617,0.003,0.03,-0.05000000074505806,-0.02500000037252903,-0.02500000037252903,-0.02500000037252903,-0.05000000074505806,-0.0005000000237487257,0.05000000074505806,0.02500000037252903,0.02500000037252903,0.02500000037252903,0.05000000074505806,0.0005000000237487257,-0.031901871181721296,-1.6347184733293867,0.17861094922126497,0.14,0.0,0.26,-0.005093252751976252,0.002312821103259921,0.36413678526878357,0.0,0.022948699525475735,-0.5645476541305428
0.0,54.0,0.05,0.0,0.0,0.0,0.0,0.0,2.7153384685516357,-1.293145775794983,1.0109710693359375,-1.3537670373916626,-0.0715857669711113,0.0,2.76533842086792,-1.293145775794983,1.0109710693359375,-1.3537670373916626,-0.0715857669711113,0.003,0.0,0.0,0.0,0.0,0.0,0.0,-3.1,3.1,-1.571,1.571,-1.571,1.571,-1.745,1.745,-2.617,2.617,0.003,0.03,-0.05000000074505806,-0.02500000037252903,-0.02500000037252903,-0.02500000037252903,-0.05000000074505806,-0.0005000000237487257,0.05000000074505806,0.02500000037252903,0.02500000037252903,0.02500000037252903,0.05000000074505806,0.0005000000237487257,-0.03193245498022635,-1.6666509283096131,0.17869654439923105,0.14,0.0,0.26,-0.0052024805918335915,0.002055374439805746,0.36413678526878357,0.0,0.020542842711859244,-0.577405635267958
0.0,55.0,0.05,0.0,0.0,0.0,0.0,0.0,2.76533842086792,-1.293145775794983,1.0109710693359375,-1.3537670373916626,-0.0715857669711113,0.0,2.815338373184204,-1.293145775794983,1.0109710693359375,-1.3537670373916626,-0.0715857669711113,0.003,0.0,0.0,0.0,0.0,0.0,0.0,-3.1,3.1,-1.571,1.571,-1.571,1.571,-1.745,1.745,-2.617,2.617,0.003,0.03,-0.05000000074505806,-0.02500000037252903,-0.02500000037252903,-0.02500000037252903,-0.05000000074505806,-0.0005000000237487257,0.05000000074505806,0.02500000037252903,0.02500000037252903,0.02500000037252903,0.05000000074505806,0.0005000000237487257,-0.031959397636353096,-1.6986103259459662,0.17877191512190357,0.14,0.0,0.26,-0.005298704374581575,0.0017927903681993484,0.36413678526878357,0.0,0.01808897344140581,-0.5889286249088244
0.0,56.0,0.05,0.0,0.0,0.0,0.0,0.0,2.815338373184204,-1.293145775794983,1.0109710693359375,-1.3537670373916626,-0.0715857669711113,0.0,2.8653383255004883,-1.293145775794983,1.0109710693359375,-1.3537670373916626,-0.0715857669711113,0.003,0.0,0.0,0.0,0.0,0.0,0.0,-3.1,3.1,-1.571,1.571,-1.571,1.571,-1.745,1.745,-2.617,2.617,0.003,0.03,-0.05000000074505806,-0.02500000037252903,-0.02500000037252903,-0.02500000037252903,-0.05000000074505806,-0.0005000000237487257,0.05000000074505806,0.02500000037252903,0.02500000037252903,0.02500000037252903,0.05000000074505806,0.0005000000237487257,-0.03198263214445968,-1.7305929580904258,0.17883688697933567,0.14,0.0,0.26,-0.005381684750318527,0.0015257252380251884,0.36413678526878357,0.0,0.015593245783702692,-0.5989746378487482
0.0,57.0,0.05,0.0,0.0,0.0,0.0,0.0,2.8653383255004883,-1.293145775794983,1.0109710693359375,-1.3537670373916626,-0.0715857669711113,0.0,2.9153382778167725,-1.293145775794983,1.0109710693359375,-1.3537670373916626,-0.0715857669711113,0.003,0.0,0.0,0.0,0.0,0.0,0.0,-3.1,3.1,-1.571,1.571,-1.571,1.571,-1.745,1.745,-2.617,2.617,0.003,0.03,-0.05000000074505806,-0.02500000037252903,-0.02500000037252903,-0.02500000037252903,-0.05000000074505806,-0.0005000000237487257,0.05000000074505806,0.02500000037252903,0.02500000037252903,0.02500000037252903,0.05000000074505806,0.0005000000237487257,-0.03200210007911544,-1.7625950581695413,0.17889130800325498,0.14,0.0,0.26,-0.005451213102787733,0.0012548465747386217,0.36413678526878357,0.0,0.01306104574063438,-0.6077280103363947
0.0,58.0,0.05,0.0,0.0,0.0,0.0,0.0,2.9153382778167725,-1.293145775794983,1.0109710693359375,-1.3537670373916626,-0.0715857669711113,0.0,2.9653382301330566,-1.293145775794983,1.0109710693359375,-1.3537670373916626,-0.0715857669711113,0.003,0.0,0.0,0.0,0.0,0.0,0.0,-3.1,3.1,-1.571,1.571,-1.571,1.571,-1.745,1.745,-2.617,2.617,0.003,0.03,-0.05000000074505806,-0.02500000037252903,-0.02500000037252903,-0.02500000037252903,-0.05000000074505806,-0.0005000000237487257,0.05000000074505806,0.02500000037252903,0.02500000037252903,0.02500000037252903,0.05000000074505806,0.0005000000237487257,-0.03201775307877576,-1.794612811248317,0.17893505268330115,0.14,0.0,0.26,-0.005507116671651602,0.0009808315662667155,0.36413678526878357,0.0,0.010498723211080918,-0.614957407092831
0.0,59.0,0.05,0.0,0.0,0.0,0.0,0.0,2.9653382301330566,-1.293145775794983,1.0109710693359375,-1.3537670373916626,-0.0715857669711113,0.0,3.015338182449341,-1.293145775794983,1.0109710693359375,-1.3537670373916626,-0.0715857669711113,0.003,0.0,0.0,0.0,0.0,0.0,0.0,-3.1,3.1,-1.571,1.571,-1.571,1.571,-1.745,1.745,-2.617,2.617,0.003,0.03,-0.05000000074505806,-0.02500000037252903,-0.02500000037252903,-0.02500000037252903,-0.05000000074505806,-0.0005000000237487257,0.05000000074505806,0.02500000037252903,0.02500000037252903,0.02500000037252903,0.05000000074505806,0.0005000000237487257,-0.03202955189226714,-1.8266423631405841,0.17896801918853306,0.14,0.0,0.26,-0.005549255292862654,0.0007043648511171341,0.36413678526878357,0.0,0.00791196125565774,-0.6208228693015627
0.0,60.0,0.05,0.0,0.0,0.0,0.0,0.0,3.015338182449341,-1.293145775794983,1.0109710693359375,-1.3537670373916626,-0.0715857669711113,0.0,3.065338134765625,-1.293145775794983,1.0109710693359375,-1.3537670373916626,-0.0715857669711113,0.003,0.0,0.0,0.0,0.0,0.0,0.0,-3.1,3.1,-1.571,1.571,-1.571,1.571,-1.745,1.745,-2.617,2.617,0.003,0.03,-0.05000000074505806,-0.02500000037252903,-0.02500000037252903,-0.02500000037252903,-0.05000000074505806,-0.0005000000237487257,0.05000000074505806,0.02500000037252903,0.02500000037252903,0.02500000037252903,0.05000000074505806,0.0005000000237487257,-0.03203746705391075,-1.858679830194495,0.1789901311634548,0.14,0.0,0.26,-0.005577523726969957,0.0004261376743670553,0.36413678526878357,0.0,0.005306873981218985,-0.6252209458653013
0.0,61.0,0.05,0.0,0.0,0.0,0.0,0.0,3.065338134765625,-1.293145775794983,1.0109710693359375,-1.3537670373916626,-0.0715857669711113,0.0,3.1,-1.293145775794983,1.0109710693359375,-1.3537670373916626,-0.0715857669711113,0.003,0.0,0.0,0.0,0.0,0.0,0.0,-3.1,3.1,-1.571,1.571,-1.571,1.571,-1.745,1.745,-2.617,2.617,0.003,0.03,-0.05000000074505806,-0.02500000037252903,-0.02500000037252903,-0.02500000037252903,-0.05000000074505806,-0.0005000000237487257,0.05000000074505806,0.02500000037252903,0.02500000037252903,0.02500000037252903,0.05000000074505806,0.0005000000237487257,-0.032040663967533724,-1.8907204941620286,0.17899906135936502,0.14,0.0,0.26,-0.005588941276073456,0.00023259305453393608,0.36413678526878357,0.0,0.0021432470184534758,-0.7592704710637221
0.0,62.0,0.05,0.0,0.0,0.0,0.0,0.0,3.0999999046325684,-1.293145775794983,1.0109710693359375,-1.3537670373916626,-0.0715857669711113,0.0,3.1,-1.293145775794983,1.0109710693359375,-1.3537670373916626,-0.0715857669711113,0.003,0.0,0.0,0.0,0.0,0.0,0.0,-3.1,3.1,-1.571,1.571,-1.571,1.571,-1.745,1.745,-2.617,2.617,0.003,0.03,-0.05000000074505806,-0.02500000037252903,-0.02500000037252903,-0.02500000037252903,-0.05000000074505806,-0.0005000000237487257,0.05000000074505806,0.02500000037252903,0.02500000037252903,0.02500000037252903,0.05000000074505806,0.0005000000237487257,-0.032040663967533724,-1.9227611581295623,0.17899906135936502,0.14,0.0,0.26,-0.005588941276073456,0.00023259305453393608,0.36413678526878357,0.0,0.0,-0.5143792844288342
0.0,63.0,0.05,0.0,0.0,0.0,0.0,0.0,3.0999999046325684,-1.293145775794983,1.0109710693359375,-1.3537670373916626,-0.0715857669711113,0.0,3.1,-1.293145775794983,1.0109710693359375,-1.3537670373916626,-0.0715857669711113,0.003,0.0,0.0,0.0,0.0,0.0,0.0,-3.1,3.1,-1.571,1.571,-1.571,1.571,-1.745,1.745,-2.617,2.617,0.003,0.03,-0.05000000074505806,-0.02500000037252903,-0.02500000037252903,-0.02500000037252903,-0.05000000074505806,-0.0005000000237487257,0.05000000074505806,0.02500000037252903,0.02500000037252903,0.02500000037252903,0.05000000074505806,0.0005000000237487257,-0.032040663967533724,-1.954801822097096,0.17899906135936502,0.14,0.0,0.26,-0.005588941276073456,0.00023259305453393608,0.36413678526878357,0.0,0.0,0.0
0.0,64.0,0.05,0.0,0.0,0.0,0.0,0.0,3.0999999046325684,-1.293145775794983,1.0109710693359375,-1.3537670373916626,-0.0715857669711113,0.0,3.1,-1.293145775794983,1.0109710693359375,-1.3537670373916626,-0.0715857669711113,0.003,0.0,0.0,0.0,0.0,0.0,0.0,-3.1,3.1,-1.571,1.571,-1.571,1.571,-1.745,1.745,-2.617,2.617,0.003,0.03,-0.05000000074505806,-0.02500000037252903,-0.02500000037252903,-0.02500000037252903,-0.05000000074505806,-0.0005000000237487257,0.05000000074505806,0.02500000037252903,0.02500000037252903,0.02500000037252903,0.05000000074505806,0.0005000000237487257,-0.032040663967533724,-1.9868424860646297,0.17899906135936502,0.14,0.0,0.26,-0.005588941276073456,0.00023259305453393608,0.36413678526878357,0.0,0.0,0.0
0.0,65.0,0.05,0.0,0.0,0.0,0.0,0.0,3.0999999046325684,-1.293145775794983,1.0109710693359375,-1.3537670373916626,-0.0715857669711113,0.0,3.1,-1.293145775794983,1.0109710693359375,-1.3537670373916626,-0.0715857669711113,0.003,0.0,0.0,0.0,0.0,0.0,0.0,-3.1,3.1,-1.571,1.571,-1.571,1.571,-1.745,1.745,-2.617,2.617,0.003,0.03,-0.05000000074505806,-0.02500000037252903,-0.02500000037252903,-0.02500000037252903,-0.05000000074505806,-0.0005000000237487257,0.05000000074505806,0.02500000037252903,0.02500000037252903,0.02500000037252903,0.05000000074505806,0.0005000000237487257,-0.032040663967533724,-2.0188831500321633,0.17899906135936502,0.14,0.0,0.26,-0.005588941276073456,0.00023259305453393608,0.36413678526878357,0.0,0.0,0.0
0.0,66.0,0.05,0.0,0.0,0.0,0.0,0.0,3.0999999046325684,-1.293145775794983,1.0109710693359375,-1.3537670373916626,-0.0715857669711113,0.0,3.1,-1.293145775794983,1.0109710693359375,-1.3537670373916626,-0.0715857669711113,0.003,0.0,0.0,0.0,0.0,0.0,0.0,-3.1,3.1,-1.571,1.571,-1.571,1.571,-1.745,1.745,-2.617,2.617,0.003,0.03,-0.05000000074505806,-0.02500000037252903,-0.02500000037252903,-0.02500000037252903,-0.05000000074505806,-0.0005000000237487257,0.05000000074505806,0.02500000037252903,0.02500000037252903,0.02500000037252903,0.05000000074505806,0.0005000000237487257,-0.032040663967533724,-2.050923813999697,0.17899906135936502,0.14,0.0,0.26,-0.005588941276073456,0.00023259305453393608,0.36413678526878357,0.0,0.0,0.0
0.0,67.0,0.05,0.0,0.0,0.0,0.0,0.0,3.0999999046325684,-1.293145775794983,1.0109710693359375,-1.3537670373916626,-0.0715857669711113,0.0,3.1,-1.293145775794983,1.0109710693359375,-1.3537670373916626,-0.0715857669711113,0.003,0.0,0.0,0.0,0.0,0.0,0.0,-3.1,3.1,-1.571,1.571,-1.571,1.571,-1.745,1.745,-2.617,2.617,0.003,0.03,-0.05000000074505806,-0.02500000037252903,-0.02500000037252903,-0.02500000037252903,-0.05000000074505806,-0.0005000000237487257,0.05000000074505806,0.02500000037252903,0.02500000037252903,0.02500000037252903,0.05000000074505806,0.0005000000237487257,-0.032040663967533724,-2.0829644779672307,0.17899906135936502,0.14,0.0,0.26,-0.005588941276073456,0.00023259305453393608,0.36413678526878357,0.0,0.0,0.0
0.0,68.0,0.05,0.0,0.0,0.0,0.0,0.0,3.0999999046325684,-1.293145775794983,1.0109710693359375,-1.3537670373916626,-0.0715857669711113,0.0,3.1,-1.293145775794983,1.0109710693359375,-1.3537670373916626,-0.0715857669711113,0.003,0.0,0.0,0.0,0.0,0.0,0.0,-3.1,3.1,-1.571,1.571,-1.571,1.571,-1.745,1.745,-2.617,2.617,0.003,0.03,-0.05000000074505806,-0.02500000037252903,-0.02500000037252903,-0.02500000037252903,-0.05000000074505806,-0.0005000000237487257,0.05000000074505806,0.02500000037252903,0.02500000037252903,0.02500000037252903,0.05000000074505806,0.0005000000237487257,-0.032040663967533724,-2.1150051419347644,0.17899906135936502,0.14,0.0,0.26,-0.005588941276073456,0.00023259305453393608,0.36413678526878357,0.0,0.0,0.0
0.0,69.0,0.05,0.0,0.0,0.0,0.0,0.0,3.0999999046325684,-1.293145775794983,1.0109710693359375,-1.3537670373916626,-0.0715857669711113,0.0,3.1,-1.293145775794983,1.0109710693359375,-1.3537670373916626,-0.0715857669711113,0.003,0.0,0.0,0.0,0.0,0.0,0.0,-3.1,3.1,-1.571,1.571,-1.571,1.571,-1.745,1.745,-2.617,2.617,0.003,0.03,-0.05000000074505806,-0.02500000037252903,-0.02500000037252903,-0.02500000037252903,-0.05000000074505806,-0.0005000000237487257,0.05000000074505806,0.02500000037252903,0.02500000037252903,0.02500000037252903,0.05000000074505806,0.0005000000237487257,-0.032040663967533724,-2.147045805902298,0.17899906135936502,0.14,0.0,0.26,-0.005588941276073456,0.00023259305453393608,0.36413678526878357,0.0,0.0,0.0
0.0,70.0,0.05,0.0,0.0,0.0,0.0,0.0,3.0999999046325684,-1.293145775794983,1.0109710693359375,-1.3537670373916626,-0.0715857669711113,0.0,3.1,-1.293145775794983,1.0109710693359375,-1.3537670373916626,-0.0715857669711113,0.003,0.0,0.0,0.0,0.0,0.0,0.0,-3.1,3.1,-1.571,1.571,-1.571,1.571,-1.745,1.745,-2.617,2.617,0.003,0.03,-0.05000000074505806,-0.02500000037252903,-0.02500000037252903,-0.02500000037252903,-0.05000000074505806,-0.0005000000237487257,0.05000000074505806,0.02500000037252903,0.02500000037252903,0.02500000037252903,0.05000000074505806,0.0005000000237487257,-0.032040663967533724,-2.179086469869832,0.17899906135936502,0.14,0.0,0.26,-0.005588941276073456,0.00023259305453393608,0.36413678526878357,0.0,0.0,0.0
0.0,71.0,0.05,0.0,0.0,0.0,0.0,0.0,3.0999999046325684,-1.293145775794983,1.0109710693359375,-1.3537670373916626,-0.0715857669711113,0.0,3.1,-1.293145775794983,1.0109710693359375,-1.3537670373916626,-0.0715857669711113,0.003,0.0,0.0,0.0,0.0,0.0,0.0,-3.1,3.1,-1.571,1.571,-1.571,1.571,-1.745,1.745,-2.617,2.617,0.003,0.03,-0.05000000074505806,-0.02500000037252903,-0.02500000037252903,-0.02500000037252903,-0.05000000074505806,-0.0005000000237487257,0.05000000074505806,0.02500000037252903,0.02500000037252903,0.02500000037252903,0.05000000074505806,0.0005000000237487257,-0.032040663967533724,-2.2111271338373655,0.17899906135936502,0.14,0.0,0.26,-0.005588941276073456,0.00023259305453393608,0.36413678526878357,0.0,0.0,0.0
0.0,72.0,0.05,0.0,0.0,0.0,0.0,0.0,3.0999999046325684,-1.293145775794983,1.0109710693359375,-1.3537670373916626,-0.0715857669711113,0.0,3.1,-1.293145775794983,1.0109710693359375,-1.3537670373916626,-0.0715857669711113,0.003,0.0,0.0,0.0,0.0,0.0,0.0,-3.1,3.1,-1.571,1.571,-1.571,1.571,-1.745,1.745,-2.617,2.617,0.003,0.03,-0.05000000074505806,-0.02500000037252903,-0.02500000037252903,-0.02500000037252903,-0.05000000074505806,-0.0005000000237487257,0.05000000074505806,0.02500000037252903,0.02500000037252903,0.02500000037252903,0.05000000074505806,0.0005000000237487257,-0.032040663967533724,-2.243167797804899,0.17899906135936502,0.14,0.0,0.26,-0.005588941276073456,0.00023259305453393608,0.36413678526878357,0.0,0.0,0.0
0.0,73.0,0.05,0.0,0.0,0.0,0.0,0.0,3.0999999046325684,-1.293145775794983,1.0109710693359375,-1.3537670373916626,-0.0715857669711113,0.0,3.1,-1.293145775794983,1.0109710693359375,-1.3537670373916626,-0.0715857669711113,0.003,0.0,0.0,0.0,0.0,0.0,0.0,-3.1,3.1,-1.571,1.571,-1.571,1.571,-1.745,1.745,-2.617,2.617,0.003,0.03,-0.05000000074505806,-0.02500000037252903,-0.02500000037252903,-0.02500000037252903,-0.05000000074505806,-0.0005000000237487257,0.05000000074505806,0.02500000037252903,0.02500000037252903,0.02500000037252903,0.05000000074505806,0.0005000000237487257,-0.032040663967533724,-2.275208461772433,0.17899906135936502,0.14,0.0,0.26,-0.005588941276073456,0.00023259305453393608,0.36413678526878357,0.0,0.0,0.0
0.0,74.0,0.05,0.0,0.0,0.0,0.0,0.0,3.0999999046325684,-1.293145775794983,1.0109710693359375,-1.3537670373916626,-0.0715857669711113,0.0,3.1,-1.293145775794983,1.0109710693359375,-1.3537670373916626,-0.0715857669711113,0.003,0.0,0.0,0.0,0.0,0.0,0.0,-3.1,3.1,-1.571,1.571,-1.571,1.571,-1.745,1.745,-2.617,2.617,0.003,0.03,-0.05000000074505806,-0.02500000037252903,-0.02500000037252903,-0.02500000037252903,-0.05000000074505806,-0.0005000000237487257,0.05000000074505806,0.02500000037252903,0.02500000037252903,0.02500000037252903,0.05000000074505806,0.0005000000237487257,-0.032040663967533724,-2.3072491257399665,0.17899906135936502,0.14,0.0,0.26,-0.005588941276073456,0.00023259305453393608,0.36413678526878357,0.0,0.0,0.0
0.0,75.0,0.05,0.0,0.0,0.0,0.0,0.0,3.0999999046325684,-1.293145775794983,1.0109710693359375,-1.3537670373916626,-0.0715857669711113,0.0,3.1,-1.293145775794983,1.0109710693359375,-1.3537670373916626,-0.0715857669711113,0.003,0.0,0.0,0.0,0.0,0.0,0.0,-3.1,3.1,-1.571,1.571,-1.571,1.571,-1.745,1.745,-2.617,2.617,0.003,0.03,-0.05000000074505806,-0.02500000037252903,-0.02500000037252903,-0.02500000037252903,-0.05000000074505806,-0.0005000000237487257,0.05000000074505806,0.02500000037252903,0.02500000037252903,0.02500000037252903,0.05000000074505806,0.0005000000237487257,-0.032040663967533724,-2.3392897897075002,0.17899906135936502,0.14,0.0,0.26,-0.005588941276073456,0.00023259305453393608,0.36413678526878357,0.0,0.0,0.0
0.0,76.0,0.05,0.0,0.0,0.0,0.0,0.0,3.0999999046325684,-1.293145775794983,1.0109710693359375,-1.3537670373916626,-0.0715857669711113,0.0,3.1,-1.293145775794983,1.0109710693359375,-1.3537670373916626,-0.0715857669711113,0.003,0.0,0.0,0.0,0.0,0.0,0.0,-3.1,3.1,-1.571,1.571,-1.571,1.571,-1.745,1.745,-2.617,2.617,0.003,0.03,-0.05000000074505806,-0.02500000037252903,-0.02500000037252903,-0.02500000037252903,-0.05000000074505806,-0.0005000000237487257,0.05000000074505806,0.02500000037252903,0.02500000037252903,0.02500000037252903,0.05000000074505806,0.0005000000237487257,-0.032040663967533724,-2.371330453675034,0.17899906135936502,0.14,0.0,0.26,-0.005588941276073456,0.00023259305453393608,0.36413678526878357,0.0,0.0,0.0
0.0,77.0,0.05,0.0,0.0,0.0,0.0,0.0,3.0999999046325684,-1.293145775794983,1.0109710693359375,-1.3537670373916626,-0.0715857669711113,0.0,3.1,-1.293145775794983,1.0109710693359375,-1.3537670373916626,-0.0715857669711113,0.003,0.0,0.0,0.0,0.0,0.0,0.0,-3.1,3.1,-1.571,1.571,-1.571,1.571,-1.745,1.745,-2.617,2.617,0.003,0.03,-0.05000000074505806,-0.02500000037252903,-0.02500000037252903,-0.02500000037252903,-0.05000000074505806,-0.0005000000237487257,0.05000000074505806,0.02500000037252903,0.02500000037252903,0.02500000037252903,0.05000000074505806,0.0005000000237487257,-0.032040663967533724,-2.4033711176425676,0.17899906135936502,0.14,0.0,0.26,-0.005588941276073456,0.00023259305453393608,0.36413678526878357,0.0,0.0,0.0
0.0,78.0,0.05,0.0,0.0,0.0,0.0,0.0,3.0999999046325684,-1.293145775794983,1.0109710693359375,-1.3537670373916626,-0.0715857669711113,0.0,3.1,-1.293145775794983,1.0109710693359375,-1.3537670373916626,-0.0715857669711113,0.003,0.0,0.0,0.0,0.0,0.0,0.0,-3.1,3.1,-1.571,1.571,-1.571,1.571,-1.745,1.745,-2.617,2.617,0.003,0.03,-0.05000000074505806,-0.02500000037252903,-0.02500000037252903,-0.02500000037252903,-0.05000000074505806,-0.0005000000237487257,0.05000000074505806,0.02500000037252903,0.02500000037252903,0.02500000037252903,0.05000000074505806,0.0005000000237487257,-0.032040663967533724,-2.4354117816101013,0.17899906135936502,0.14,0.0,0.26,-0.005588941276073456,0.00023259305453393608,0.36413678526878357,0.0,0.0,0.0
0.0,79.0,0.05,0.0,0.0,0.0,0.0,0.0,3.0999999046325684,-1.293145775794983,1.0109710693359375,-1.3537670373916626,-0.0715857669711113,0.0,3.1,-1.293145775794983,1.0109710693359375,-1.3537670373916626,-0.0715857669711113,0.003,0.0,0.0,0.0,0.0,0.0,0.0,-3.1,3.1,-1.571,1.571,-1.571,1.571,-1.745,1.745,-2.617,2.617,0.003,0.03,-0.05000000074505806,-0.02500000037252903,-0.02500000037252903,-0.02500000037252903,-0.05000000074505806,-0.0005000000237487257,0.05000000074505806,0.02500000037252903,0.02500000037252903,0.02500000037252903,0.05000000074505806,0.0005000000237487257,-0.032040663967533724,-2.467452445577635,0.17899906135936502,0.14,0.0,0.26,-0.005588941276073456,0.00023259305453393608,0.36413678526878357,0.0,0.0,0.0
0.0,80.0,0.05,0.0,0.0,0.0,0.0,0.0,3.0999999046325684,-1.293145775794983,1.0109710693359375,-1.3537670373916626,-0.0715857669711113,0.0,3.1,-1.293145775794983,1.0109710693359375,-1.3537670373916626,-0.0715857669711113,0.003,0.0,0.0,0.0,0.0,0.0,0.0,-3.1,3.1,-1.571,1.571,-1.571,1.571,-1.745,1.745,-2.617,2.617,0.003,0.03,-0.05000000074505806,-0.02500000037252903,-0.02500000037252903,-0.02500000037252903,-0.05000000074505806,-0.0005000000237487257,0.05000000074505806,0.02500000037252903,0.02500000037252903,0.02500000037252903,0.05000000074505806,0.0005000000237487257,-0.032040663967533724,-2.4994931095451687,0.17899906135936502,0.14,0.0,0.26,-0.005588941276073456,0.00023259305453393608,0.36413678526878357,0.0,0.0,0.0
0.0,81.0,0.05,0.0,0.0,0.0,0.0,0.0,3.0999999046325684,-1.293145775794983,1.0109710693359375,-1.3537670373916626,-0.0715857669711113,0.0,3.1,-1.293145775794983,1.0109710693359375,-1.3537670373916626,-0.0715857669711113,0.003,0.0,0.0,0.0,0.0,0.0,0.0,-3.1,3.1,-1.571,1.571,-1.571,1.571,-1.745,1.745,-2.617,2.617,0.003,0.03,-0.05000000074505806,-0.02500000037252903,-0.02500000037252903,-0.02500000037252903,-0.05000000074505806,-0.0005000000237487257,0.05000000074505806,0.02500000037252903,0.02500000037252903,0.02500000037252903,0.05000000074505806,0.0005000000237487257,-0.032040663967533724,-2.5315337735127024,0.17899906135936502,0.14,0.0,0.26,-0.005588941276073456,0.00023259305453393608,0.36413678526878357,0.0,0.0,0.0
0.0,82.0,0.05,0.0,0.0,0.0,0.0,0.0,3.0999999046325684,-1.293145775794983,1.0109710693359375,-1.3537670373916626,-0.0715857669711113,0.0,3.1,-1.293145775794983,1.0109710693359375,-1.3537670373916626,-0.0715857669711113,0.003,0.0,0.0,0.0,0.0,0.0,0.0,-3.1,3.1,-1.571,1.571,-1.571,1.571,-1.745,1.745,-2.617,2.617,0.003,0.03,-0.05000000074505806,-0.02500000037252903,-0.02500000037252903,-0.02500000037252903,-0.05000000074505806,-0.0005000000237487257,0.05000000074505806,0.02500000037252903,0.02500000037252903,0.02500000037252903,0.05000000074505806,0.0005000000237487257,-0.032040663967533724,-2.563574437480236,0.17899906135936502,0.14,0.0,0.26,-0.005588941276073456,0.00023259305453393608,0.36413678526878357,0.0,0.0,0.0
0.0,83.0,0.05,0.0,0.0,0.0,0.0,0.0,3.0999999046325684,-1.293145775794983,1.0109710693359375,-1.3537670373916626,-0.0715857669711113,0.0,3.1,-1.293145775794983,1.0109710693359375,-1.3537670373916626,-0.0715857669711113,0.003,0.0,0.0,0.0,0.0,0.0,0.0,-3.1,3.1,-1.571,1.571,-1.571,1.571,-1.745,1.745,-2.617,2.617,0.003,0.03,-0.05000000074505806,-0.02500000037252903,-0.02500000037252903,-0.02500000037252903,-0.05000000074505806,-0.0005000000237487257,0.05000000074505806,0.02500000037252903,0.02500000037252903,0.02500000037252903,0.05000000074505806,0.0005000000237487257,-0.032040663967533724,-2.5956151014477697,0.17899906135936502,0.14,0.0,0.26,-0.005588941276073456,0.00023259305453393608,0.36413678526878357,0.0,0.0,0.0
0.0,84.0,0.05,0.0,0.0,0.0,0.0,0.0,3.0999999046325684,-1.293145775794983,1.0109710693359375,-1.3537670373916626,-0.0715857669711113,0.0,3.1,-1.293145775794983,1.0109710693359375,-1.3537670373916626,-0.0715857669711113,0.003,0.0,0.0,0.0,0.0,0.0,0.0,-3.1,3.1,-1.571,1.571,-1.571,1.571,-1.745,1.745,-2.617,2.617,0.003,0.03,-0.05000000074505806,-0.02500000037252903,-0.02500000037252903,-0.02500000037252903,-0.05000000074505806,-0.0005000000237487257,0.05000000074505806,0.02500000037252903,0.02500000037252903,0.02500000037252903,0.05000000074505806,0.0005000000237487257,-0.032040663967533724,-2.6276557654153034,0.17899906135936502,0.14,0.0,0.26,-0.005588941276073456,0.00023259305453393608,0.36413678526878357,0.0,0.0,0.0
0.0,85.0,0.05,0.0,0.0,0.0,0.0,0.0,3.0999999046325684,-1.293145775794983,1.0109710693359375,-1.3537670373916626,-0.0715857669711113,0.0,3.1,-1.293145775794983,1.0109710693359375,-1.3537670373916626,-0.0715857669711113,0.003,0.0,0.0,0.0,0.0,0.0,0.0,-3.1,3.1,-1.571,1.571,-1.571,1.571,-1.745,1.745,-2.617,2.617,0.003,0.03,-0.05000000074505806,-0.02500000037252903,-0.02500000037252903,-0.02500000037252903,-0.05000000074505806,-0.0005000000237487257,0.05000000074505806,0.02500000037252903,0.02500000037252903,0.02500000037252903,0.05000000074505806,0.0005000000237487257,-0.032040663967533724,-2.659696429382837,0.17899906135936502,0.14,0.0,0.26,-0.005588941276073456,0.00023259305453393608,0.36413678526878357,0.0,0.0,0.0
0.0,86.0,0.05,0.0,0.0,0.0,0.0,0.0,3.0999999046325684,-1.293145775794983,1.0109710693359375,-1.3537670373916626,-0.0715857669711113,0.0,3.1,-1.293145775794983,1.0109710693359375,-1.3537670373916626,-0.0715857669711113,0.003,0.0,0.0,0.0,0.0,0.0,0.0,-3.1,3.1,-1.571,1.571,-1.571,1.571,-1.745,1.745,-2.617,2.617,0.003,0.03,-0.05000000074505806,-0.02500000037252903,-0.02500000037252903,-0.02500000037252903,-0.05000000074505806,-0.0005000000237487257,0.05000000074505806,0.02500000037252903,0.02500000037252903,0.02500000037252903,0.05000000074505806,0.0005000000237487257,-0.032040663967533724,-2.691737093350371,0.17899906135936502,0.14,0.0,0.26,-0.005588941276073456,0.00023259305453393608,0.36413678526878357,0.0,0.0,0.0
0.0,87.0,0.05,0.0,0.0,0.0,0.0,0.0,3.0999999046325684,-1.293145775794983,1.0109710693359375,-1.3537670373916626,-0.0715857669711113,0.0,3.1,-1.293145775794983,1.0109710693359375,-1.3537670373916626,-0.0715857669711113,0.003,0.0,0.0,0.0,0.0,0.0,0.0,-3.1,3.1,-1.571,1.571,-1.571,1.571,-1.745,1.745,-2.617,2.617,0.003,0.03,-0.05000000074505806,-0.02500000037252903,-0.02500000037252903,-0.02500000037252903,-0.05000000074505806,-0.0005000000237487257,0.05000000074505806,0.02500000037252903,0.02500000037252903,0.02500000037252903,0.05000000074505806,0.0005000000237487257,-0.032040663967533724,-2.7237777573179045,0.17899906135936502,0.14,0.0,0.26,-0.005588941276073456,0.00023259305453393608,0.36413678526878357,0.0,0.0,0.0
0.0,88.0,0.05,0.0,0.0,0.0,0.0,0.0,3.0999999046325684,-1.293145775794983,1.0109710693359375,-1.3537670373916626,-0.0715857669711113,0.0,3.1,-1.293145775794983,1.0109710693359375,-1.3537670373916626,-0.0715857669711113,0.003,0.0,0.0,0.0,0.0,0.0,0.0,-3.1,3.1,-1.571,1.571,-1.571,1.571,-1.745,1.745,-2.617,2.617,0.003,0.03,-0.05000000074505806,-0.02500000037252903,-0.02500000037252903,-0.02500000037252903,-0.05000000074505806,-0.0005000000237487257,0.05000000074505806,0.02500000037252903,0.02500000037252903,0.02500000037252903,0.05000000074505806,0.0005000000237487257,-0.032040663967533724,-2.755818421285438,0.17899906135936502,0.14,0.0,0.26,-0.005588941276073456,0.00023259305453393608,0.36413678526878357,0.0,0.0,0.0
0.0,89.0,0.05,0.0,0.0,0.0,0.0,0.0,3.0999999046325684,-1.293145775794983,1.0109710693359375,-1.3537670373916626,-0.0715857669711113,0.0,3.1,-1.293145775794983,1.0109710693359375,-1.3537670373916626,-0.0715857669711113,0.003,0.0,0.0,0.0,0.0,0.0,0.0,-3.1,3.1,-1.571,1.571,-1.571,1.571,-1.745,1.745,-2.617,2.617,0.003,0.03,-0.05000000074505806,-0.02500000037252903,-0.02500000037252903,-0.02500000037252903,-0.05000000074505806,-0.0005000000237487257,0.05000000074505806,0.02500000037252903,0.02500000037252903,0.02500000037252903,0.05000000074505806,0.0005000000237487257,-0.032040663967533724,-2.787859085252972,0.17899906135936502,0.14,0.0,0.26,-0.005588941276073456,0.00023259305453393608,0.36413678526878357,0.0,0.0,0.0
0.0,90.0,0.05,0.0,0.0,0.0,0.0,0.0,3.0999999046325684,-1.293145775794983,1.0109710693359375,-1.3537670373916626,-0.0715857669711113,0.0,3.1,-1.293145775794983,1.0109710693359375,-1.3537670373916626,-0.0715857669711113,0.003,0.0,0.0,0.0,0.0,0.0,0.0,-3.1,3.1,-1.571,1.571,-1.571,1.571,-1.745,1.745,-2.617,2.617,0.003,0.03,-0.05000000074505806,-0.02500000037252903,-0.02500000037252903,-0.02500000037252903,-0.05000000074505806,-0.0005000000237487257,0.05000000074505806,0.02500000037252903,0.02500000037252903,0.02500000037252903,0.05000000074505806,0.0005000000237487257,-0.032040663967533724,-2.8198997492205056,0.17899906135936502,0.14,0.0,0.26,-0.005588941276073456,0.00023259305453393608,0.36413678526878357,0.0,0.0,0.0
0.0,91.0,0.05,0.0,0.0,0.0,0.0,0.0,3.0999999046325684,-1.293145775794983,1.0109710693359375,-1.3537670373916626,-0.0715857669711113,0.0,3.1,-1.293145775794983,1.0109710693359375,-1.3537670373916626,-0.0715857669711113,0.003,0.0,0.0,0.0,0.0,0.0,0.0,-3.1,3.1,-1.571,1.571,-1.571,1.571,-1.745,1.745,-2.617,2.617,0.003,0.03,-0.05000000074505806,-0.02500000037252903,-0.02500000037252903,-0.02500000037252903,-0.05000000074505806,-0.0005000000237487257,0.05000000074505806,0.02500000037252903,0.02500000037252903,0.02500000037252903,0.05000000074505806,0.0005000000237487257,-0.032040663967533724,-2.8519404131880393,0.17899906135936502,0.14,0.0,0.26,-0.005588941276073456,0.00023259305453393608,0.36413678526878357,0.0,0.0,0.0
0.0,92.0,0.05,0.0,0.0,0.0,0.0,0.0,3.0999999046325684,-1.293145775794983,1.0109710693359375,-1.3537670373916626,-0.0715857669711113,0.0,3.1,-1.293145775794983,1.0109710693359375,-1.3537670373916626,-0.0715857669711113,0.003,0.0,0.0,0.0,0.0,0.0,0.0,-3.1,3.1,-1.571,1.571,-1.571,1.571,-1.745,1.745,-2.617,2.617,0.003,0.03,-0.05000000074505806,-0.02500000037252903,-0.02500000037252903,-0.02500000037252903,-0.05000000074505806,-0.0005000000237487257,0.05000000074505806,0.02500000037252903,0.02500000037252903,0.02500000037252903,0.05000000074505806,0.0005000000237487257,-0.032040663967533724,-2.883981077155573,0.17899906135936502,0.14,0.0,0.26,-0.005588941276073456,0.00023259305453393608,0.36413678526878357,0.0,0.0,0.0
0.0,93.0,0.05,0.0,0.0,0.0,0.0,0.0,3.0999999046325684,-1.293145775794983,1.0109710693359375,-1.3537670373916626,-0.0715857669711113,0.0,3.1,-1.293145775794983,1.0109710693359375,-1.3537670373916626,-0.0715857669711113,0.003,0.0,0.0,0.0,0.0,0.0,0.0,-3.1,3.1,-1.571,1.571,-1.571,1.571,-1.745,1.745,-2.617,2.617,0.003,0.03,-0.05000000074505806,-0.02500000037252903,-0.02500000037252903,-0.02500000037252903,-0.05000000074505806,-0.0005000000237487257,0.05000000074505806,0.02500000037252903,0.02500000037252903,0.02500000037252903,0.05000000074505806,0.0005000000237487257,-0.032040663967533724,-2.9160217411231066,0.17899906135936502,0.14,0.0,0.26,-0.005588941276073456,0.00023259305453393608,0.36413678526878357,0.0,0.0,0.0
0.0,94.0,0.05,0.0,0.0,0.0,0.0,0.0,3.0999999046325684,-1.293145775794983,1.0109710693359375,-1.3537670373916626,-0.0715857669711113,0.0,3.1,-1.293145775794983,1.0109710693359375,-1.3537670373916626,-0.0715857669711113,0.003,0.0,0.0,0.0,0.0,0.0,0.0,-3.1,3.1,-1.571,1.571,-1.571,1.571,-1.745,1.745,-2.617,2.617,0.003,0.03,-0.05000000074505806,-0.02500000037252903,-0.02500000037252903,-0.02500000037252903,-0.05000000074505806,-0.0005000000237487257,0.05000000074505806,0.02500000037252903,0.02500000037252903,0.02500000037252903,0.05000000074505806,0.0005000000237487257,-0.032040663967533724,-2.9480624050906403,0.17899906135936502,0.14,0.0,0.26,-0.005588941276073456,0.00023259305453393608,0.36413678526878357,0.0,0.0,0.0
0.0,95.0,0.05,0.0,0.0,0.0,0.0,0.0,3.0999999046325684,-1.293145775794983,1.0109710693359375,-1.3537670373916626,-0.0715857669711113,0.0,3.1,-1.293145775794983,1.0109710693359375,-1.3537670373916626,-0.0715857669711113,0.003,0.0,0.0,0.0,0.0,0.0,0.0,-3.1,3.1,-1.571,1.571,-1.571,1.571,-1.745,1.745,-2.617,2.617,0.003,0.03,-0.05000000074505806,-0.02500000037252903,-0.02500000037252903,-0.02500000037252903,-0.05000000074505806,-0.0005000000237487257,0.05000000074505806,0.02500000037252903,0.02500000037252903,0.02500000037252903,0.05000000074505806,0.0005000000237487257,-0.032040663967533724,-2.980103069058174,0.17899906135936502,0.14,0.0,0.26,-0.005588941276073456,0.00023259305453393608,0.36413678526878357,0.0,0.0,0.0
0.0,96.0,0.05,0.0,0.0,0.0,0.0,0.0,3.0999999046325684,-1.293145775794983,1.0109710693359375,-1.3537670373916626,-0.0715857669711113,0.0,3.1,-1.293145775794983,1.0109710693359375,-1.3537670373916626,-0.0715857669711113,0.003,0.0,0.0,0.0,0.0,0.0,0.0,-3.1,3.1,-1.571,1.571,-1.571,1.571,-1.745,1.745,-2.617,2.617,0.003,0.03,-0.05000000074505806,-0.02500000037252903,-0.02500000037252903,-0.02500000037252903,-0.05000000074505806,-0.0005000000237487257,0.05000000074505806,0.02500000037252903,0.02500000037252903,0.02500000037252903,0.05000000074505806,0.0005000000237487257,-0.032040663967533724,-3.0121437330257077,0.17899906135936502,0.14,0.0,0.26,-0.005588941276073456,0.00023259305453393608,0.36413678526878357,0.0,0.0,0.0
0.0,97.0,0.05,0.0,0.0,0.0,0.0,0.0,3.0999999046325684,-1.293145775794983,1.0109710693359375,-1.3537670373916626,-0.0715857669711113,0.0,3.1,-1.293145775794983,1.0109710693359375,-1.3537670373916626,-0.0715857669711113,0.003,0.0,0.0,0.0,0.0,0.0,0.0,-3.1,3.1,-1.571,1.571,-1.571,1.571,-1.745,1.745,-2.617,2.617,0.003,0.03,-0.05000000074505806,-0.02500000037252903,-0.02500000037252903,-0.02500000037252903,-0.05000000074505806,-0.0005000000237487257,0.05000000074505806,0.02500000037252903,0.02500000037252903,0.02500000037252903,0.05000000074505806,0.0005000000237487257,-0.032040663967533724,-3.0441843969932414,0.17899906135936502,0.14,0.0,0.26,-0.005588941276073456,0.00023259305453393608,0.36413678526878357,0.0,0.0,0.0
0.0,98.0,0.05,0.0,0.0,0.0,0.0,0.0,3.0999999046325684,-1.293145775794983,1.0109710693359375,-1.3537670373916626,-0.0715857669711113,0.0,3.1,-1.293145775794983,1.0109710693359375,-1.3537670373916626,-0.0715857669711113,0.003,0.0,0.0,0.0,0.0,0.0,0.0,-3.1,3.1,-1.571,1.571,-1.571,1.571,-1.745,1.745,-2.617,2.617,0.003,0.03,-0.05000000074505806,-0.02500000037252903,-0.02500000037252903,-0.02500000037252903,-0.05000000074505806,-0.0005000000237487257,0.05000000074505806,0.02500000037252903,0.02500000037252903,0.02500000037252903,0.05000000074505806,0.0005000000237487257,-0.032040663967533724,-3.076225060960775,0.17899906135936502,0.14,0.0,0.26,-0.005588941276073456,0.00023259305453393608,0.36413678526878357,0.0,0.0,0.0
0.0,99.0,0.05,0.0,0.0,0.0,0.0,0.0,3.0999999046325684,-1.293145775794983,1.0109710693359375,-1.3537670373916626,-0.0715857669711113,0.0,3.1,-1.293145775794983,1.0109710693359375,-1.3537670373916626,-0.0715857669711113,0.003,0.0,0.0,0.0,0.0,0.0,0.0,-3.1,3.1,-1.571,1.571,-1.571,1.571,-1.745,1.745,-2.617,2.617,0.003,0.03,-0.05000000074505806,-0.02500000037252903,-0.02500000037252903,-0.02500000037252903,-0.05000000074505806,-0.0005000000237487257,0.05000000074505806,0.02500000037252903,0.02500000037252903,0.02500000037252903,0.05000000074505806,0.0005000000237487257,-0.032040663967533724,-3.1082657249283088,0.17899906135936502,0.14,0.0,0.26,-0.005588941276073456,0.00023259305453393608,0.36413678526878357,1.0,0.0,0.0
