PierreExeter/WidowX-reacher/tests/Check_env_consistency/logs/6_action1_-0.05.csv
episode,timestep,action_1,action_2,action_3,action_4,action_5,action_6,current_joint_pos_1,current_joint_pos_2,current_joint_pos_3,current_joint_pos_4,current_joint_pos_5,current_joint_pos_6,new_joint_pos_1,new_joint_pos_2,new_joint_pos_3,new_joint_pos_4,new_joint_pos_5,new_joint_pos_6,joint_vel_1,joint_vel_2,joint_vel_3,joint_vel_4,joint_vel_5,joint_vel_6,joint1_min,joint1_max,joint2_min,joint2_max,joint3_min,joint3_max,joint4_min,joint4_max,joint5_min,joint5_max,joint6_min,joint6_max,action_low1,action_low2,action_low3,action_low4,action_low5,action_low6,action_high1,action_high2,action_high3,action_high4,action_high5,action_high6,reward,return,dist,target_x,target_y,target_z,tip_x,tip_y,tip_z,done,est_vel
0.0,0.0,-0.05,0.0,0.0,0.0,0.0,0.0,0.015339807607233524,-1.293145775794983,1.0109710693359375,-1.3537670373916626,-0.0715857669711113,0.0,-0.03466019406914711,-1.293145775794983,1.0109710693359375,-1.3537670373916626,-0.0715857669711113,0.003,0.0,0.0,0.0,0.0,0.0,0.0,-3.1,3.1,-1.571,1.571,-1.571,1.571,-1.745,1.745,-2.617,2.617,0.003,0.03,-0.05000000074505806,-0.02500000037252903,-0.02500000037252903,-0.02500000037252903,-0.05000000074505806,-0.0005000000237487257,0.05000000074505806,0.02500000037252903,0.02500000037252903,0.02500000037252903,0.05000000074505806,0.0005000000237487257,-0.02891044288389624,-0.02891044288389624,0.17003071159027783,0.14,0.0,0.26,0.005590419750660658,-0.0001938426576089114,0.36413678526878357,0.0,
0.0,1.0,-0.05,0.0,0.0,0.0,0.0,0.0,-0.03466019406914711,-1.293145775794983,1.0109710693359375,-1.3537670373916626,-0.0715857669711113,0.0,-0.08466019481420517,-1.293145775794983,1.0109710693359375,-1.3537670373916626,-0.0715857669711113,0.003,0.0,0.0,0.0,0.0,0.0,0.0,-3.1,3.1,-1.571,1.571,-1.571,1.571,-1.745,1.745,-2.617,2.617,0.003,0.03,-0.05000000074505806,-0.02500000037252903,-0.02500000037252903,-0.02500000037252903,-0.05000000074505806,-0.0005000000237487257,0.05000000074505806,0.02500000037252903,0.02500000037252903,0.02500000037252903,0.05000000074505806,0.0005000000237487257,-0.028915111843865856,-0.057825554727762095,0.1700444407908293,0.14,0.0,0.26,0.005573744885623455,-0.00047300494043156505,0.36413678526878357,0.0,0.0032950081323557256
0.0,2.0,-0.05,0.0,0.0,0.0,0.0,0.0,-0.08466019481420517,-1.293145775794983,1.0109710693359375,-1.3537670373916626,-0.0715857669711113,0.0,-0.13466019928455353,-1.293145775794983,1.0109710693359375,-1.3537670373916626,-0.0715857669711113,0.003,0.0,0.0,0.0,0.0,0.0,0.0,-3.1,3.1,-1.571,1.571,-1.571,1.571,-1.745,1.745,-2.617,2.617,0.003,0.03,-0.05000000074505806,-0.02500000037252903,-0.02500000037252903,-0.02500000037252903,-0.05000000074505806,-0.0005000000237487257,0.05000000074505806,0.02500000037252903,0.02500000037252903,0.02500000037252903,0.05000000074505806,0.0005000000237487257,-0.028923681539771914,-0.086749236267534,0.17006963732474975,0.14,0.0,0.26,0.005543138831853867,-0.0007509849965572357,0.36413678526878357,0.0,0.006047168140905779
0.0,3.0,-0.05,0.0,0.0,0.0,0.0,0.0,-0.13466019928455353,-1.293145775794983,1.0109710693359375,-1.3537670373916626,-0.0715857669711113,0.0,-0.1846601963043213,-1.293145775794983,1.0109710693359375,-1.3537670373916626,-0.0715857669711113,0.003,0.0,0.0,0.0,0.0,0.0,0.0,-3.1,3.1,-1.571,1.571,-1.571,1.571,-1.745,1.745,-2.617,2.617,0.003,0.03,-0.05000000074505806,-0.02500000037252903,-0.02500000037252903,-0.02500000037252903,-0.05000000074505806,-0.0005000000237487257,0.05000000074505806,0.02500000037252903,0.02500000037252903,0.02500000037252903,0.05000000074505806,0.0005000000237487257,-0.028936130586798257,-0.11568536685433226,0.1701062332391093,0.14,0.0,0.26,0.005498677957803011,-0.001027087913826108,0.36413678526878357,0.0,0.00878301944629456
0.0,4.0,-0.05,0.0,0.0,0.0,0.0,0.0,-0.1846601963043213,-1.293145775794983,1.0109710693359375,-1.3537670373916626,-0.0715857669711113,0.0,-0.23466019332408905,-1.293145775794983,1.0109710693359375,-1.3537670373916626,-0.0715857669711113,0.003,0.0,0.0,0.0,0.0,0.0,0.0,-3.1,3.1,-1.571,1.571,-1.571,1.571,-1.745,1.745,-2.617,2.617,0.003,0.03,-0.05000000074505806,-0.02500000037252903,-0.02500000037252903,-0.02500000037252903,-0.05000000074505806,-0.0005000000237487257,0.05000000074505806,0.02500000037252903,0.02500000037252903,0.02500000037252903,0.05000000074505806,0.0005000000237487257,-0.028952428075301385,-0.14463779492963363,0.1701541303504014,0.14,0.0,0.26,0.00544047262519598,-0.0013006236404180527,0.36413678526878357,0.0,0.011495306710098685
0.0,5.0,-0.05,0.0,0.0,0.0,0.0,0.0,-0.23466019332408905,-1.293145775794983,1.0109710693359375,-1.3537670373916626,-0.0715857669711113,0.0,-0.2846601903438568,-1.293145775794983,1.0109710693359375,-1.3537670373916626,-0.0715857669711113,0.003,0.0,0.0,0.0,0.0,0.0,0.0,-3.1,3.1,-1.571,1.571,-1.571,1.571,-1.745,1.745,-2.617,2.617,0.003,0.03,-0.05000000074505806,-0.02500000037252903,-0.02500000037252903,-0.02500000037252903,-0.05000000074505806,-0.0005000000237487257,0.05000000074505806,0.02500000037252903,0.02500000037252903,0.02500000037252903,0.05000000074505806,0.0005000000237487257,-0.028972532947066858,-0.1736103278767005,0.17021319851018268,0.14,0.0,0.26,0.005368669517338276,-0.0015709084691479802,0.36413678526878357,0.0,0.014176358347510742
0.0,6.0,-0.05,0.0,0.0,0.0,0.0,0.0,-0.2846601903438568,-1.293145775794983,1.0109710693359375,-1.3537670373916626,-0.0715857669711113,0.0,-0.33466020226478577,-1.293145775794983,1.0109710693359375,-1.3537670373916626,-0.0715857669711113,0.003,0.0,0.0,0.0,0.0,0.0,0.0,-3.1,3.1,-1.571,1.571,-1.571,1.571,-1.745,1.745,-2.617,2.617,0.003,0.03,-0.05000000074505806,-0.02500000037252903,-0.02500000037252903,-0.02500000037252903,-0.05000000074505806,-0.0005000000237487257,0.05000000074505806,0.02500000037252903,0.02500000037252903,0.02500000037252903,0.05000000074505806,0.0005000000237487257,-0.028996395127444403,-0.2026067230041449,0.17028327906005453,0.14,0.0,0.26,0.005283447448164225,-0.0018372669583186507,0.36413678526878357,0.0,0.016819331969242235
0.0,7.0,-0.05,0.0,0.0,0.0,0.0,0.0,-0.33466020226478577,-1.293145775794983,1.0109710693359375,-1.3537670373916626,-0.0715857669711113,0.0,-0.3846602141857147,-1.293145775794983,1.0109710693359375,-1.3537670373916626,-0.0715857669711113,0.003,0.0,0.0,0.0,0.0,0.0,0.0,-3.1,3.1,-1.571,1.571,-1.571,1.571,-1.745,1.745,-2.617,2.617,0.003,0.03,-0.05000000074505806,-0.02500000037252903,-0.02500000037252903,-0.02500000037252903,-0.05000000074505806,-0.0005000000237487257,0.05000000074505806,0.02500000037252903,0.02500000037252903,0.02500000037252903,0.05000000074505806,0.0005000000237487257,-0.029023955027938433,-0.23163067803208331,0.17036418352440877,0.14,0.0,0.26,0.005185019224882126,-0.002099033212289214,0.36413678526878357,0.0,0.01941707144501814
0.0,8.0,-0.05,0.0,0.0,0.0,0.0,0.0,-0.3846602141857147,-1.293145775794983,1.0109710693359375,-1.3537670373916626,-0.0715857669711113,0.0,-0.4346602261066437,-1.293145775794983,1.0109710693359375,-1.3537670373916626,-0.0715857669711113,0.003,0.0,0.0,0.0,0.0,0.0,0.0,-3.1,3.1,-1.571,1.571,-1.571,1.571,-1.745,1.745,-2.617,2.617,0.003,0.03,-0.05000000074505806,-0.02500000037252903,-0.02500000037252903,-0.02500000037252903,-0.05000000074505806,-0.0005000000237487257,0.05000000074505806,0.02500000037252903,0.02500000037252903,0.02500000037252903,0.05000000074505806,0.0005000000237487257,-0.029055143552610498,-0.26068582158469383,0.17045569381106193,0.14,0.0,0.26,0.005073631647974253,-0.002355552976951003,0.36413678526878357,0.0,0.021962468796759005
0.0,9.0,-0.05,0.0,0.0,0.0,0.0,0.0,-0.4346602261066437,-1.293145775794983,1.0109710693359375,-1.3537670373916626,-0.0715857669711113,0.0,-0.48466023802757263,-1.293145775794983,1.0109710693359375,-1.3537670373916626,-0.0715857669711113,0.003,0.0,0.0,0.0,0.0,0.0,0.0,-3.1,3.1,-1.571,1.571,-1.571,1.571,-1.745,1.745,-2.617,2.617,0.003,0.03,-0.05000000074505806,-0.02500000037252903,-0.02500000037252903,-0.02500000037252903,-0.05000000074505806,-0.0005000000237487257,0.05000000074505806,0.02500000037252903,0.02500000037252903,0.02500000037252903,0.05000000074505806,0.0005000000237487257,-0.029089882983212266,-0.2897757045679061,0.17055756501314231,0.14,0.0,0.26,0.004949562251567841,-0.0026061851531267166,0.36413678526878357,0.0,0.02444908849929206
0.0,10.0,-0.05,0.0,0.0,0.0,0.0,0.0,-0.48466023802757263,-1.293145775794983,1.0109710693359375,-1.3537670373916626,-0.0715857669711113,0.0,-0.5346602201461792,-1.293145775794983,1.0109710693359375,-1.3537670373916626,-0.0715857669711113,0.003,0.0,0.0,0.0,0.0,0.0,0.0,-3.1,3.1,-1.571,1.571,-1.571,1.571,-1.745,1.745,-2.617,2.617,0.003,0.03,-0.05000000074505806,-0.02500000037252903,-0.02500000037252903,-0.02500000037252903,-0.05000000074505806,-0.0005000000237487257,0.05000000074505806,0.02500000037252903,0.02500000037252903,0.02500000037252903,0.05000000074505806,0.0005000000237487257,-0.02912808635603896,-0.31890379092394505,0.17066952380562547,0.14,0.0,0.26,0.004813121631741524,-0.0028503029607236385,0.36413678526878357,0.0,0.026870110195957864
0.0,11.0,-0.05,0.0,0.0,0.0,0.0,0.0,-0.5346602201461792,-1.293145775794983,1.0109710693359375,-1.3537670373916626,-0.0715857669711113,0.0,-0.5846602320671082,-1.293145775794983,1.0109710693359375,-1.3537670373916626,-0.0715857669711113,0.003,0.0,0.0,0.0,0.0,0.0,0.0,-3.1,3.1,-1.571,1.571,-1.571,1.571,-1.745,1.745,-2.617,2.617,0.003,0.03,-0.05000000074505806,-0.02500000037252903,-0.02500000037252903,-0.02500000037252903,-0.05000000074505806,-0.0005000000237487257,0.05000000074505806,0.02500000037252903,0.02500000037252903,0.02500000037252903,0.05000000074505806,0.0005000000237487257,-0.029169658230945587,-0.34807344915489064,0.1707912709448161,0.14,0.0,0.26,0.0046646506525576115,-0.003087296849116683,0.36413678526878357,0.0,0.02921931340575279
0.0,12.0,-0.05,0.0,0.0,0.0,0.0,0.0,-0.5846602320671082,-1.293145775794983,1.0109710693359375,-1.3537670373916626,-0.0715857669711113,0.0,-0.6346602439880371,-1.293145775794983,1.0109710693359375,-1.3537670373916626,-0.0715857669711113,0.003,0.0,0.0,0.0,0.0,0.0,0.0,-3.1,3.1,-1.571,1.571,-1.571,1.571,-1.745,1.745,-2.617,2.617,0.003,0.03,-0.05000000074505806,-0.02500000037252903,-0.02500000037252903,-0.02500000037252903,-0.05000000074505806,-0.0005000000237487257,0.05000000074505806,0.02500000037252903,0.02500000037252903,0.02500000037252903,0.05000000074505806,0.0005000000237487257,-0.02921449468743028,-0.3772879438423209,0.1709224815155405,0.14,0.0,0.26,0.004504520446062088,-0.0033165737986564636,0.36413678526878357,0.0,0.031490536973850514
0.0,13.0,-0.05,0.0,0.0,0.0,0.0,0.0,-0.6346602439880371,-1.293145775794983,1.0109710693359375,-1.3537670373916626,-0.0715857669711113,0.0,-0.6846602559089661,-1.293145775794983,1.0109710693359375,-1.3537670373916626,-0.0715857669711113,0.003,0.0,0.0,0.0,0.0,0.0,0.0,-3.1,3.1,-1.571,1.571,-1.571,1.571,-1.745,1.745,-2.617,2.617,0.003,0.03,-0.05000000074505806,-0.02500000037252903,-0.02500000037252903,-0.02500000037252903,-0.05000000074505806,-0.0005000000237487257,0.05000000074505806,0.02500000037252903,0.02500000037252903,0.02500000037252903,0.05000000074505806,0.0005000000237487257,-0.02926248359967987,-0.40655042744200076,0.17106280600902077,0.14,0.0,0.26,0.004333131480962038,-0.0035375612787902355,0.36413678526878357,0.0,0.033677878435267594
0.0,14.0,-0.05,0.0,0.0,0.0,0.0,0.0,-0.6846602559089661,-1.293145775794983,1.0109710693359375,-1.3537670373916626,-0.0715857669711113,0.0,-0.734660267829895,-1.293145775794983,1.0109710693359375,-1.3537670373916626,-0.0715857669711113,0.003,0.0,0.0,0.0,0.0,0.0,0.0,-3.1,3.1,-1.571,1.571,-1.571,1.571,-1.745,1.745,-2.617,2.617,0.003,0.03,-0.05000000074505806,-0.02500000037252903,-0.02500000037252903,-0.02500000037252903,-0.05000000074505806,-0.0005000000237487257,0.05000000074505806,0.02500000037252903,0.02500000037252903,0.02500000037252903,0.05000000074505806,0.0005000000237487257,-0.02931350513727112,-0.43586393257927186,0.1712118720687065,0.14,0.0,0.26,0.004150911699980497,-0.0037497065495699644,0.36413678526878357,0.0,0.03577585432457564
0.0,15.0,-0.05,0.0,0.0,0.0,0.0,0.0,-0.734660267829895,-1.293145775794983,1.0109710693359375,-1.3537670373916626,-0.0715857669711113,0.0,-0.784660279750824,-1.293145775794983,1.0109710693359375,-1.3537670373916626,-0.0715857669711113,0.003,0.0,0.0,0.0,0.0,0.0,0.0,-3.1,3.1,-1.571,1.571,-1.571,1.571,-1.745,1.745,-2.617,2.617,0.003,0.03,-0.05000000074505806,-0.02500000037252903,-0.02500000037252903,-0.02500000037252903,-0.05000000074505806,-0.0005000000237487257,0.05000000074505806,0.02500000037252903,0.02500000037252903,0.02500000037252903,0.05000000074505806,0.0005000000237487257,-0.02936743165737671,-0.46523136423664857,0.17136928446304697,0.14,0.0,0.26,0.00395831698551774,-0.00395247945562005,0.36413678526878357,0.0,0.037778974641713425
0.0,16.0,-0.05,0.0,0.0,0.0,0.0,0.0,-0.784660279750824,-1.293145775794983,1.0109710693359375,-1.3537670373916626,-0.0715857669711113,0.0,-0.8346602916717529,-1.293145775794983,1.0109710693359375,-1.3537670373916626,-0.0715857669711113,0.003,0.0,0.0,0.0,0.0,0.0,0.0,-3.1,3.1,-1.571,1.571,-1.571,1.571,-1.745,1.745,-2.617,2.617,0.003,0.03,-0.05000000074505806,-0.02500000037252903,-0.02500000037252903,-0.02500000037252903,-0.05000000074505806,-0.0005000000237487257,0.05000000074505806,0.02500000037252903,0.02500000037252903,0.02500000037252903,0.05000000074505806,0.0005000000237487257,-0.02942412853608453,-0.49465549277273313,0.17153462780466378,0.14,0.0,0.26,0.003755828132852912,-0.004145373590290546,0.36413678526878357,0.0,0.039682401988032634
0.0,17.0,-0.05,0.0,0.0,0.0,0.0,0.0,-0.8346602916717529,-1.293145775794983,1.0109710693359375,-1.3537670373916626,-0.0715857669711113,0.0,-0.8846603035926819,-1.293145775794983,1.0109710693359375,-1.3537670373916626,-0.0715857669711113,0.003,0.0,0.0,0.0,0.0,0.0,0.0,-3.1,3.1,-1.571,1.571,-1.571,1.571,-1.745,1.745,-2.617,2.617,0.003,0.03,-0.05000000074505806,-0.02500000037252903,-0.02500000037252903,-0.02500000037252903,-0.05000000074505806,-0.0005000000237487257,0.05000000074505806,0.02500000037252903,0.02500000037252903,0.02500000037252903,0.05000000074505806,0.0005000000237487257,-0.029483453846866466,-0.5241389466195996,0.17170746590310645,0.14,0.0,0.26,0.003543952014297247,-0.004327905829995871,0.36413678526878357,0.0,0.041481143626243
0.0,18.0,-0.05,0.0,0.0,0.0,0.0,0.0,-0.8846603035926819,-1.293145775794983,1.0109710693359375,-1.3537670373916626,-0.0715857669711113,0.0,-0.9346603155136108,-1.293145775794983,1.0109710693359375,-1.3537670373916626,-0.0715857669711113,0.003,0.0,0.0,0.0,0.0,0.0,0.0,-3.1,3.1,-1.571,1.571,-1.571,1.571,-1.745,1.745,-2.617,2.617,0.003,0.03,-0.05000000074505806,-0.02500000037252903,-0.02500000037252903,-0.02500000037252903,-0.05000000074505806,-0.0005000000237487257,0.05000000074505806,0.02500000037252903,0.02500000037252903,0.02500000037252903,0.05000000074505806,0.0005000000237487257,-0.029545259415084582,-0.5536842060346842,0.17188734512780335,0.14,0.0,0.26,0.0033232178539037704,-0.004499621223658323,0.36413678526878357,0.0,0.04317101392725453
0.0,19.0,-0.05,0.0,0.0,0.0,0.0,0.0,-0.9346603155136108,-1.293145775794983,1.0109710693359375,-1.3537670373916626,-0.0715857669711113,0.0,-0.9846603274345398,-1.293145775794983,1.0109710693359375,-1.3537670373916626,-0.0715857669711113,0.003,0.0,0.0,0.0,0.0,0.0,0.0,-3.1,3.1,-1.571,1.571,-1.571,1.571,-1.745,1.745,-2.617,2.617,0.003,0.03,-0.05000000074505806,-0.02500000037252903,-0.02500000037252903,-0.02500000037252903,-0.05000000074505806,-0.0005000000237487257,0.05000000074505806,0.02500000037252903,0.02500000037252903,0.02500000037252903,0.05000000074505806,0.0005000000237487257,-0.029609390789291198,-0.5832935968239753,0.17207379460362696,0.14,0.0,0.26,0.0030941772274672985,-0.004660089500248432,0.36413678526878357,0.0,0.044747874197665904
0.0,20.0,-0.05,0.0,0.0,0.0,0.0,0.0,-0.9846603274345398,-1.293145775794983,1.0109710693359375,-1.3537670373916626,-0.0715857669711113,0.0,-1.0346603393554688,-1.293145775794983,1.0109710693359375,-1.3537670373916626,-0.0715857669711113,0.003,0.0,0.0,0.0,0.0,0.0,0.0,-3.1,3.1,-1.571,1.571,-1.571,1.571,-1.745,1.745,-2.617,2.617,0.003,0.03,-0.05000000074505806,-0.02500000037252903,-0.02500000037252903,-0.02500000037252903,-0.05000000074505806,-0.0005000000237487257,0.05000000074505806,0.02500000037252903,0.02500000037252903,0.02500000037252903,0.05000000074505806,0.0005000000237487257,-0.029675687603122097,-0.6129692844270974,0.17226632753710777,0.14,0.0,0.26,0.0028574028983712196,-0.0048089101910591125,0.36413678526878357,0.0,0.046207904035395764
0.0,21.0,-0.05,0.0,0.0,0.0,0.0,0.0,-1.0346603393554688,-1.293145775794983,1.0109710693359375,-1.3537670373916626,-0.0715857669711113,0.0,-1.084660291671753,-1.293145775794983,1.0109710693359375,-1.3537670373916626,-0.0715857669711113,0.003,0.0,0.0,0.0,0.0,0.0,0.0,-3.1,3.1,-1.571,1.571,-1.571,1.571,-1.745,1.745,-2.617,2.617,0.003,0.03,-0.05000000074505806,-0.02500000037252903,-0.02500000037252903,-0.02500000037252903,-0.05000000074505806,-0.0005000000237487257,0.05000000074505806,0.02500000037252903,0.02500000037252903,0.02500000037252903,0.05000000074505806,0.0005000000237487257,-0.029743984067787953,-0.6427132684948854,0.17246444290864119,0.14,0.0,0.26,0.0026134869549423456,-0.004945710767060518,0.36413678526878357,0.0,0.047547689168019325
0.0,22.0,-0.05,0.0,0.0,0.0,0.0,0.0,-1.084660291671753,-1.293145775794983,1.0109710693359375,-1.3537670373916626,-0.0715857669711113,0.0,-1.134660243988037,-1.293145775794983,1.0109710693359375,-1.3537670373916626,-0.0715857669711113,0.003,0.0,0.0,0.0,0.0,0.0,0.0,-3.1,3.1,-1.571,1.571,-1.571,1.571,-1.745,1.745,-2.617,2.617,0.003,0.03,-0.05000000074505806,-0.02500000037252903,-0.02500000037252903,-0.02500000037252903,-0.05000000074505806,-0.0005000000237487257,0.05000000074505806,0.02500000037252903,0.02500000037252903,0.02500000037252903,0.05000000074505806,0.0005000000237487257,-0.029814109637255996,-0.6725273781321414,0.17266762764703752,0.14,0.0,0.26,0.002363038482144475,-0.005070149432867765,0.36413678526878357,0.0,0.04876433721512141
0.0,23.0,-0.05,0.0,0.0,0.0,0.0,0.0,-1.134660243988037,-1.293145775794983,1.0109710693359375,-1.3537670373916626,-0.0715857669711113,0.0,-1.1846601963043213,-1.293145775794983,1.0109710693359375,-1.3537670373916626,-0.0715857669711113,0.003,0.0,0.0,0.0,0.0,0.0,0.0,-3.1,3.1,-1.571,1.571,-1.571,1.571,-1.745,1.745,-2.617,2.617,0.003,0.03,-0.05000000074505806,-0.02500000037252903,-0.02500000037252903,-0.02500000037252903,-0.05000000074505806,-0.0005000000237487257,0.05000000074505806,0.02500000037252903,0.02500000037252903,0.02500000037252903,0.05000000074505806,0.0005000000237487257,-0.029885889013710195,-0.7024132671458515,0.17287535687225694,0.14,0.0,0.26,0.002106683561578393,-0.00518191559240222,0.36413678526878357,0.0,0.04985501405265991
0.0,24.0,-0.05,0.0,0.0,0.0,0.0,0.0,-1.1846601963043213,-1.293145775794983,1.0109710693359375,-1.3537670373916626,-0.0715857669711113,0.0,-1.2346601486206055,-1.293145775794983,1.0109710693359375,-1.3537670373916626,-0.0715857669711113,0.003,0.0,0.0,0.0,0.0,0.0,0.0,-3.1,3.1,-1.571,1.571,-1.571,1.571,-1.745,1.745,-2.617,2.617,0.003,0.03,-0.05000000074505806,-0.02500000037252903,-0.02500000037252903,-0.02500000037252903,-0.05000000074505806,-0.0005000000237487257,0.05000000074505806,0.02500000037252903,0.02500000037252903,0.02500000037252903,0.05000000074505806,0.0005000000237487257,-0.029959142722695467,-0.732372409868547,0.17308709577173992,0.14,0.0,0.26,0.0018450631760060787,-0.005280729848891497,0.36413678526878357,0.0,0.05081733587591453
0.0,25.0,-0.05,0.0,0.0,0.0,0.0,0.0,-1.2346601486206055,-1.293145775794983,1.0109710693359375,-1.3537670373916626,-0.0715857669711113,0.0,-1.2846601009368896,-1.293145775794983,1.0109710693359375,-1.3537670373916626,-0.0715857669711113,0.003,0.0,0.0,0.0,0.0,0.0,0.0,-3.1,3.1,-1.571,1.571,-1.571,1.571,-1.745,1.745,-2.617,2.617,0.003,0.03,-0.05000000074505806,-0.02500000037252903,-0.02500000037252903,-0.02500000037252903,-0.05000000074505806,-0.0005000000237487257,0.05000000074505806,0.02500000037252903,0.02500000037252903,0.02500000037252903,0.05000000074505806,0.0005000000237487257,-0.0300336876998921,-0.7624060975684391,0.17330230148469494,0.14,0.0,0.26,0.0015788311138749123,-0.005366344936192036,0.36413678526878357,0.0,0.051649371109205866
0.0,26.0,-0.05,0.0,0.0,0.0,0.0,0.0,-1.2846601009368896,-1.293145775794983,1.0109710693359375,-1.3537670373916626,-0.0715857669711113,0.0,-1.3346600532531738,-1.293145775794983,1.0109710693359375,-1.3537670373916626,-0.0715857669711113,0.003,0.0,0.0,0.0,0.0,0.0,0.0,-3.1,3.1,-1.571,1.571,-1.571,1.571,-1.745,1.745,-2.617,2.617,0.003,0.03,-0.05000000074505806,-0.02500000037252903,-0.02500000037252903,-0.02500000037252903,-0.05000000074505806,-0.0005000000237487257,0.05000000074505806,0.02500000037252903,0.02500000037252903,0.02500000037252903,0.05000000074505806,0.0005000000237487257,-0.030109337627565638,-0.7925154351960048,0.17352042423751055,0.14,0.0,0.26,0.0013086528051644564,-0.005438547115772963,0.36413678526878357,0.0,0.05234946067574464
0.0,27.0,-0.05,0.0,0.0,0.0,0.0,0.0,-1.3346600532531738,-1.293145775794983,1.0109710693359375,-1.3537670373916626,-0.0715857669711113,0.0,-1.384660005569458,-1.293145775794983,1.0109710693359375,-1.3537670373916626,-0.0715857669711113,0.003,0.0,0.0,0.0,0.0,0.0,0.0,-3.1,3.1,-1.571,1.571,-1.571,1.571,-1.745,1.745,-2.617,2.617,0.003,0.03,-0.05000000074505806,-0.02500000037252903,-0.02500000037252903,-0.02500000037252903,-0.05000000074505806,-0.0005000000237487257,0.05000000074505806,0.02500000037252903,0.02500000037252903,0.02500000037252903,0.05000000074505806,0.0005000000237487257,-0.030185903444781746,-0.8227013386407865,0.1737409089557832,0.14,0.0,0.26,0.0010352034587413073,-0.005497155711054802,0.36413678526878357,0.0,0.05291633238543758
0.0,28.0,-0.05,0.0,0.0,0.0,0.0,0.0,-1.384660005569458,-1.293145775794983,1.0109710693359375,-1.3537670373916626,-0.0715857669711113,0.0,-1.4346599578857422,-1.293145775794983,1.0109710693359375,-1.3537670373916626,-0.0715857669711113,0.003,0.0,0.0,0.0,0.0,0.0,0.0,-3.1,3.1,-1.571,1.571,-1.571,1.571,-1.745,1.745,-2.617,2.617,0.003,0.03,-0.05000000074505806,-0.02500000037252903,-0.02500000037252903,-0.02500000037252903,-0.05000000074505806,-0.0005000000237487257,0.05000000074505806,0.02500000037252903,0.02500000037252903,0.02500000037252903,0.05000000074505806,0.0005000000237487257,-0.030263193711863843,-0.8529645323526504,0.17396319642919833,0.14,0.0,0.26,0.0007591667817905545,-0.005542024038732052,0.36413678526878357,0.0,0.05334899361963075
0.0,29.0,-0.05,0.0,0.0,0.0,0.0,0.0,-1.4346599578857422,-1.293145775794983,1.0109710693359375,-1.3537670373916626,-0.0715857669711113,0.0,-1.4846599102020264,-1.293145775794983,1.0109710693359375,-1.3537670373916626,-0.0715857669711113,0.003,0.0,0.0,0.0,0.0,0.0,0.0,-3.1,3.1,-1.571,1.571,-1.571,1.571,-1.745,1.745,-2.617,2.617,0.003,0.03,-0.05000000074505806,-0.02500000037252903,-0.02500000037252903,-0.02500000037252903,-0.05000000074505806,-0.0005000000237487257,0.05000000074505806,0.02500000037252903,0.02500000037252903,0.02500000037252903,0.05000000074505806,0.0005000000237487257,-0.03034101531298694,-0.8833055476656373,0.17418672542127583,0.14,0.0,0.26,0.0004812325059901923,-0.005573040805757046,0.36413678526878357,0.0,0.05364695809860098
0.0,30.0,-0.05,0.0,0.0,0.0,0.0,0.0,-1.4846599102020264,-1.293145775794983,1.0109710693359375,-1.3537670373916626,-0.0715857669711113,0.0,-1.5346598625183105,-1.293145775794983,1.0109710693359375,-1.3537670373916626,-0.0715857669711113,0.003,0.0,0.0,0.0,0.0,0.0,0.0,-3.1,3.1,-1.571,1.571,-1.571,1.571,-1.745,1.745,-2.617,2.617,0.003,0.03,-0.05000000074505806,-0.02500000037252903,-0.02500000037252903,-0.02500000037252903,-0.05000000074505806,-0.0005000000237487257,0.05000000074505806,0.02500000037252903,0.02500000037252903,0.02500000037252903,0.05000000074505806,0.0005000000237487257,-0.030419173696565396,-0.9137247213622027,0.1744109334203719,0.14,0.0,0.26,0.00020209541253279895,-0.005590127315372229,0.36413678526878357,0.0,0.05380991978305438
0.0,31.0,-0.05,0.0,0.0,0.0,0.0,0.0,-1.5346598625183105,-1.293145775794983,1.0109710693359375,-1.3537670373916626,-0.0715857669711113,0.0,-1.5846598148345947,-1.293145775794983,1.0109710693359375,-1.3537670373916626,-0.0715857669711113,0.003,0.0,0.0,0.0,0.0,0.0,0.0,-3.1,3.1,-1.571,1.571,-1.571,1.571,-1.745,1.745,-2.617,2.617,0.003,0.03,-0.05000000074505806,-0.02500000037252903,-0.02500000037252903,-0.02500000037252903,-0.05000000074505806,-0.0005000000237487257,0.05000000074505806,0.02500000037252903,0.02500000037252903,0.02500000037252903,0.05000000074505806,0.0005000000237487257,-0.03049747351783118,-0.9442221948800339,0.1746352585185225,0.14,0.0,0.26,-7.754680700600147e-05,-0.005593241658061743,0.36413678526878357,0.0,0.05383802355614309
0.0,32.0,-0.05,0.0,0.0,0.0,0.0,0.0,-1.5846598148345947,-1.293145775794983,1.0109710693359375,-1.3537670373916626,-0.0715857669711113,0.0,-1.634659767150879,-1.293145775794983,1.0109710693359375,-1.3537670373916626,-0.0715857669711113,0.003,0.0,0.0,0.0,0.0,0.0,0.0,-3.1,3.1,-1.571,1.571,-1.571,1.571,-1.745,1.745,-2.617,2.617,0.003,0.03,-0.05000000074505806,-0.02500000037252903,-0.02500000037252903,-0.02500000037252903,-0.05000000074505806,-0.0005000000237487257,0.05000000074505806,0.02500000037252903,0.02500000037252903,0.02500000037252903,0.05000000074505806,0.0005000000237487257,-0.030575719071265675,-0.9747979139512996,0.17485914065688896,0.14,0.0,0.26,-0.00035699520958587527,-0.005582375917583704,0.36413678526878357,0.0,0.05373171320795178
0.0,33.0,-0.05,0.0,0.0,0.0,0.0,0.0,-1.634659767150879,-1.293145775794983,1.0109710693359375,-1.3537670373916626,-0.0715857669711113,0.0,-1.684659719467163,-1.293145775794983,1.0109710693359375,-1.3537670373916626,-0.0715857669711113,0.003,0.0,0.0,0.0,0.0,0.0,0.0,-3.1,3.1,-1.571,1.571,-1.571,1.571,-1.745,1.745,-2.617,2.617,0.003,0.03,-0.05000000074505806,-0.02500000037252903,-0.02500000037252903,-0.02500000037252903,-0.05000000074505806,-0.0005000000237487257,0.05000000074505806,0.02500000037252903,0.02500000037252903,0.02500000037252903,0.05000000074505806,0.0005000000237487257,-0.03065371477334529,-1.0054516287246449,0.17508202298735667,0.14,0.0,0.26,-0.0006355512887239456,-0.005557557102292776,0.36413678526878357,0.0,0.05349175931225192
0.0,34.0,-0.05,0.0,0.0,0.0,0.0,0.0,-1.684659719467163,-1.293145775794983,1.0109710693359375,-1.3537670373916626,-0.0715857669711113,0.0,-1.7346596717834473,-1.293145775794983,1.0109710693359375,-1.3537670373916626,-0.0715857669711113,0.003,0.0,0.0,0.0,0.0,0.0,0.0,-3.1,3.1,-1.571,1.571,-1.571,1.571,-1.745,1.745,-2.617,2.617,0.003,0.03,-0.05000000074505806,-0.02500000037252903,-0.02500000037252903,-0.02500000037252903,-0.05000000074505806,-0.0005000000237487257,0.05000000074505806,0.02500000037252903,0.02500000037252903,0.02500000037252903,0.05000000074505806,0.0005000000237487257,-0.030731265680854384,-1.0361828944054994,0.1753033533075006,0.14,0.0,0.26,-0.0009125188225880265,-0.005518847145140171,0.36413678526878357,0.0,0.05311927683454343
0.0,35.0,-0.05,0.0,0.0,0.0,0.0,0.0,-1.7346596717834473,-1.293145775794983,1.0109710693359375,-1.3537670373916626,-0.0715857669711113,0.0,-1.7846596240997314,-1.293145775794983,1.0109710693359375,-1.3537670373916626,-0.0715857669711113,0.003,0.0,0.0,0.0,0.0,0.0,0.0,-3.1,3.1,-1.571,1.571,-1.571,1.571,-1.745,1.745,-2.617,2.617,0.003,0.03,-0.05000000074505806,-0.02500000037252903,-0.02500000037252903,-0.02500000037252903,-0.05000000074505806,-0.0005000000237487257,0.05000000074505806,0.02500000037252903,0.02500000037252903,0.02500000037252903,0.05000000074505806,0.0005000000237487257,-0.030808177966250874,-1.0669910723717502,0.1755225853451654,0.14,0.0,0.26,-0.0011872055474668741,-0.005466343369334936,0.36413678526878357,0.0,0.05261568903955238
0.0,36.0,-0.05,0.0,0.0,0.0,0.0,0.0,-1.7846596240997314,-1.293145775794983,1.0109710693359375,-1.3537670373916626,-0.0715857669711113,0.0,-1.8346595764160156,-1.293145775794983,1.0109710693359375,-1.3537670373916626,-0.0715857669711113,0.003,0.0,0.0,0.0,0.0,0.0,0.0,-3.1,3.1,-1.571,1.571,-1.571,1.571,-1.745,1.745,-2.617,2.617,0.003,0.03,-0.05000000074505806,-0.02500000037252903,-0.02500000037252903,-0.02500000037252903,-0.05000000074505806,-0.0005000000237487257,0.05000000074505806,0.02500000037252903,0.02500000037252903,0.02500000037252903,0.05000000074505806,0.0005000000237487257,-0.030884259400139683,-1.09787533177189,0.17573918003717806,0.14,0.0,0.26,-0.001458924962207675,-0.0054001761600375175,0.36413678526878357,0.0,0.051982726083037445
0.0,37.0,-0.05,0.0,0.0,0.0,0.0,0.0,-1.8346595764160156,-1.293145775794983,1.0109710693359375,-1.3537670373916626,-0.0715857669711113,0.0,-1.8846595287322998,-1.293145775794983,1.0109710693359375,-1.3537670373916626,-0.0715857669711113,0.003,0.0,0.0,0.0,0.0,0.0,0.0,-3.1,3.1,-1.571,1.571,-1.571,1.571,-1.745,1.745,-2.617,2.617,0.003,0.03,-0.05000000074505806,-0.02500000037252903,-0.02500000037252903,-0.02500000037252903,-0.05000000074505806,-0.0005000000237487257,0.05000000074505806,0.02500000037252903,0.02500000037252903,0.02500000037252903,0.05000000074505806,0.0005000000237487257,-0.030959319792185254,-1.1288346515640753,0.17595260666493479,0.14,0.0,0.26,-0.001726997783407569,-0.005320511758327484,0.36413678526878357,0.0,0.051222390661613826
0.0,38.0,-0.05,0.0,0.0,0.0,0.0,0.0,-1.8846595287322998,-1.293145775794983,1.0109710693359375,-1.3537670373916626,-0.0715857669711113,0.0,-1.934659481048584,-1.293145775794983,1.0109710693359375,-1.3537670373916626,-0.0715857669711113,0.003,0.0,0.0,0.0,0.0,0.0,0.0,-3.1,3.1,-1.571,1.571,-1.571,1.571,-1.745,1.745,-2.617,2.617,0.003,0.03,-0.05000000074505806,-0.02500000037252903,-0.02500000037252903,-0.02500000037252903,-0.05000000074505806,-0.0005000000237487257,0.05000000074505806,0.02500000037252903,0.02500000037252903,0.02500000037252903,0.05000000074505806,0.0005000000237487257,-0.031033171509852638,-1.1598678230739279,0.1761623441881171,0.14,0.0,0.26,-0.00199075392447412,-0.005227548535913229,0.36413678526878357,0.0,0.05033700556375642
0.0,39.0,-0.05,0.0,0.0,0.0,0.0,0.0,-1.934659481048584,-1.293145775794983,1.0109710693359375,-1.3537670373916626,-0.0715857669711113,0.0,-1.9846594333648682,-1.293145775794983,1.0109710693359375,-1.3537670373916626,-0.0715857669711113,0.003,0.0,0.0,0.0,0.0,0.0,0.0,-3.1,3.1,-1.571,1.571,-1.571,1.571,-1.745,1.745,-2.617,2.617,0.003,0.03,-0.05000000074505806,-0.02500000037252903,-0.02500000037252903,-0.02500000037252903,-0.05000000074505806,-0.0005000000237487257,0.05000000074505806,0.02500000037252903,0.02500000037252903,0.02500000037252903,0.05000000074505806,0.0005000000237487257,-0.031105629998321813,-1.1909734530722498,0.17636788255893365,0.14,0.0,0.26,-0.0022495342418551445,-0.005121519323438406,0.36413678526878357,0.0,0.04932920899597182
0.0,40.0,-0.05,0.0,0.0,0.0,0.0,0.0,-1.9846594333648682,-1.293145775794983,1.0109710693359375,-1.3537670373916626,-0.0715857669711113,0.0,-2.0346593856811523,-1.293145775794983,1.0109710693359375,-1.3537670373916626,-0.0715857669711113,0.003,0.0,0.0,0.0,0.0,0.0,0.0,-3.1,3.1,-1.571,1.571,-1.571,1.571,-1.745,1.745,-2.617,2.617,0.003,0.03,-0.05000000074505806,-0.02500000037252903,-0.02500000037252903,-0.02500000037252903,-0.05000000074505806,-0.0005000000237487257,0.05000000074505806,0.02500000037252903,0.02500000037252903,0.02500000037252903,0.05000000074505806,0.0005000000237487257,-0.031176514152042593,-1.2221499672242924,0.1765687235952126,0.14,0.0,0.26,-0.0025026919320225716,-0.005002689082175493,0.36413678526878357,0.0,0.04820184870695021
0.0,41.0,-0.05,0.0,0.0,0.0,0.0,0.0,-2.0346593856811523,-1.293145775794983,1.0109710693359375,-1.3537670373916626,-0.0715857669711113,0.0,-2.0846593379974365,-1.293145775794983,1.0109710693359375,-1.3537670373916626,-0.0715857669711113,0.003,0.0,0.0,0.0,0.0,0.0,0.0,-3.1,3.1,-1.571,1.571,-1.571,1.571,-1.745,1.745,-2.617,2.617,0.003,0.03,-0.05000000074505806,-0.02500000037252903,-0.02500000037252903,-0.02500000037252903,-0.05000000074505806,-0.0005000000237487257,0.05000000074505806,0.02500000037252903,0.02500000037252903,0.02500000037252903,0.05000000074505806,0.0005000000237487257,-0.031245646844402803,-1.2533956140686953,0.17676438228444893,0.14,0.0,0.26,-0.0027495943941175938,-0.004871354904025793,0.36413678526878357,0.0,0.04695808541671731
0.0,42.0,-0.05,0.0,0.0,0.0,0.0,0.0,-2.0846593379974365,-1.293145775794983,1.0109710693359375,-1.3537670373916626,-0.0715857669711113,0.0,-2.1346592903137207,-1.293145775794983,1.0109710693359375,-1.3537670373916626,-0.0715857669711113,0.003,0.0,0.0,0.0,0.0,0.0,0.0,-3.1,3.1,-1.571,1.571,-1.571,1.571,-1.745,1.745,-2.617,2.617,0.003,0.03,-0.05000000074505806,-0.02500000037252903,-0.02500000037252903,-0.02500000037252903,-0.05000000074505806,-0.0005000000237487257,0.05000000074505806,0.02500000037252903,0.02500000037252903,0.02500000037252903,0.05000000074505806,0.0005000000237487257,-0.0313128551785981,-1.2847084692472934,0.17695438728270657,0.14,0.0,0.26,-0.002989624161273241,-0.00472784461453557,0.36413678526878357,0.0,0.04560119958183284
0.0,43.0,-0.05,0.0,0.0,0.0,0.0,0.0,-2.1346592903137207,-1.293145775794983,1.0109710693359375,-1.3537670373916626,-0.0715857669711113,0.0,-2.184659242630005,-1.293145775794983,1.0109710693359375,-1.3537670373916626,-0.0715857669711113,0.003,0.0,0.0,0.0,0.0,0.0,0.0,-3.1,3.1,-1.571,1.571,-1.571,1.571,-1.745,1.745,-2.617,2.617,0.003,0.03,-0.05000000074505806,-0.02500000037252903,-0.02500000037252903,-0.02500000037252903,-0.05000000074505806,-0.0005000000237487257,0.05000000074505806,0.02500000037252903,0.02500000037252903,0.02500000037252903,0.05000000074505806,0.0005000000237487257,-0.03137797122267651,-1.31608644046997,0.17713828276992105,0.14,0.0,0.26,-0.003222181461751461,-0.004572517238557339,0.36413678526878357,0.0,0.04413491693147531
0.0,44.0,-0.05,0.0,0.0,0.0,0.0,0.0,-2.184659242630005,-1.293145775794983,1.0109710693359375,-1.3537670373916626,-0.0715857669711113,0.0,-2.234659194946289,-1.293145775794983,1.0109710693359375,-1.3537670373916626,-0.0715857669711113,0.003,0.0,0.0,0.0,0.0,0.0,0.0,-3.1,3.1,-1.571,1.571,-1.571,1.571,-1.745,1.745,-2.617,2.617,0.003,0.03,-0.05000000074505806,-0.02500000037252903,-0.02500000037252903,-0.02500000037252903,-0.05000000074505806,-0.0005000000237487257,0.05000000074505806,0.02500000037252903,0.02500000037252903,0.02500000037252903,0.05000000074505806,0.0005000000237487257,-0.03144083219112027,-1.3475272726610903,0.1773156287277584,0.14,0.0,0.26,-0.00344668491743505,-0.0044057611376047134,0.36413678526878357,0.0,0.042563029880966496
0.0,45.0,-0.05,0.0,0.0,0.0,0.0,0.0,-2.234659194946289,-1.293145775794983,1.0109710693359375,-1.3537670373916626,-0.0715857669711113,0.0,-2.2846591472625732,-1.293145775794983,1.0109710693359375,-1.3537670373916626,-0.0715857669711113,0.003,0.0,0.0,0.0,0.0,0.0,0.0,-3.1,3.1,-1.571,1.571,-1.571,1.571,-1.745,1.745,-2.617,2.617,0.003,0.03,-0.05000000074505806,-0.02500000037252903,-0.02500000037252903,-0.02500000037252903,-0.05000000074505806,-0.0005000000237487257,0.05000000074505806,0.02500000037252903,0.02500000037252903,0.02500000037252903,0.05000000074505806,0.0005000000237487257,-0.031501280965421395,-1.3790285536265117,0.17748600216755517,0.14,0.0,0.26,-0.003662573406472802,-0.0042279926128685474,0.36413678526878357,0.0,0.04088962555122144
0.0,46.0,-0.05,0.0,0.0,0.0,0.0,0.0,-2.2846591472625732,-1.293145775794983,1.0109710693359375,-1.3537670373916626,-0.0715857669711113,0.0,-2.3346590995788574,-1.293145775794983,1.0109710693359375,-1.3537670373916626,-0.0715857669711113,0.003,0.0,0.0,0.0,0.0,0.0,0.0,-3.1,3.1,-1.571,1.571,-1.571,1.571,-1.745,1.745,-2.617,2.617,0.003,0.03,-0.05000000074505806,-0.02500000037252903,-0.02500000037252903,-0.02500000037252903,-0.05000000074505806,-0.0005000000237487257,0.05000000074505806,0.02500000037252903,0.02500000037252903,0.02500000037252903,0.05000000074505806,0.0005000000237487257,-0.03155916656580168,-1.4105877201923134,0.1776489982122097,0.14,0.0,0.26,-0.003869307693094015,-0.00403965637087822,0.36413678526878357,0.0,0.03911905071708688
0.0,47.0,-0.05,0.0,0.0,0.0,0.0,0.0,-2.3346590995788574,-1.293145775794983,1.0109710693359375,-1.3537670373916626,-0.0715857669711113,0.0,-2.3846590518951416,-1.293145775794983,1.0109710693359375,-1.3537670373916626,-0.0715857669711113,0.003,0.0,0.0,0.0,0.0,0.0,0.0,-3.1,3.1,-1.571,1.571,-1.571,1.571,-1.745,1.745,-2.617,2.617,0.003,0.03,-0.05000000074505806,-0.02500000037252903,-0.02500000037252903,-0.02500000037252903,-0.05000000074505806,-0.0005000000237487257,0.05000000074505806,0.02500000037252903,0.02500000037252903,0.02500000037252903,0.05000000074505806,0.0005000000237487257,-0.03161434413172566,-1.442202064324039,0.17780422979143568,0.14,0.0,0.26,-0.00406637042760849,-0.0038412234280258417,0.36413678526878357,0.0,0.03725557901423482
0.0,48.0,-0.05,0.0,0.0,0.0,0.0,0.0,-2.3846590518951416,-1.293145775794983,1.0109710693359375,-1.3537670373916626,-0.0715857669711113,0.0,-2.434659004211426,-1.293145775794983,1.0109710693359375,-1.3537670373916626,-0.0715857669711113,0.003,0.0,0.0,0.0,0.0,0.0,0.0,-3.1,3.1,-1.571,1.571,-1.571,1.571,-1.745,1.745,-2.617,2.617,0.003,0.03,-0.05000000074505806,-0.02500000037252903,-0.02500000037252903,-0.02500000037252903,-0.05000000074505806,-0.0005000000237487257,0.05000000074505806,0.02500000037252903,0.02500000037252903,0.02500000037252903,0.05000000074505806,0.0005000000237487257,-0.0316666759117314,-1.4738687402357704,0.1779513301769093,0.14,0.0,0.26,-0.004253269638866186,-0.003633189247921109,0.36413678526878357,0.0,0.035304092513672725
0.0,49.0,-0.05,0.0,0.0,0.0,0.0,0.0,-2.434659004211426,-1.293145775794983,1.0109710693359375,-1.3537670373916626,-0.0715857669711113,0.0,-2.48465895652771,-1.293145775794983,1.0109710693359375,-1.3537670373916626,-0.0715857669711113,0.003,0.0,0.0,0.0,0.0,0.0,0.0,-3.1,3.1,-1.571,1.571,-1.571,1.571,-1.745,1.745,-2.617,2.617,0.003,0.03,-0.05000000074505806,-0.02500000037252903,-0.02500000037252903,-0.02500000037252903,-0.05000000074505806,-0.0005000000237487257,0.05000000074505806,0.02500000037252903,0.02500000037252903,0.02500000037252903,0.05000000074505806,0.0005000000237487257,-0.03171603099907416,-1.5055847712348447,0.17808995198796074,0.14,0.0,0.26,-0.004429537802934647,-0.0034160742070525885,0.36413678526878357,0.0,0.03326923465234222
0.0,50.0,-0.05,0.0,0.0,0.0,0.0,0.0,-2.48465895652771,-1.293145775794983,1.0109710693359375,-1.3537670373916626,-0.0715857669711113,0.0,-2.534658908843994,-1.293145775794983,1.0109710693359375,-1.3537670373916626,-0.0715857669711113,0.003,0.0,0.0,0.0,0.0,0.0,0.0,-3.1,3.1,-1.571,1.571,-1.571,1.571,-1.745,1.745,-2.617,2.617,0.003,0.03,-0.05000000074505806,-0.02500000037252903,-0.02500000037252903,-0.02500000037252903,-0.05000000074505806,-0.0005000000237487257,0.05000000074505806,0.02500000037252903,0.02500000037252903,0.02500000037252903,0.05000000074505806,0.0005000000237487257,-0.03176228604694896,-1.5373470572817935,0.17821976895661423,0.14,0.0,0.26,-0.004594734404236078,-0.0031904205679893494,0.36413678526878357,0.0,0.031156072476838936
0.0,51.0,-0.05,0.0,0.0,0.0,0.0,0.0,-2.534658908843994,-1.293145775794983,1.0109710693359375,-1.3537670373916626,-0.0715857669711113,0.0,-2.5846588611602783,-1.293145775794983,1.0109710693359375,-1.3537670373916626,-0.0715857669711113,0.003,0.0,0.0,0.0,0.0,0.0,0.0,-3.1,3.1,-1.571,1.571,-1.571,1.571,-1.745,1.745,-2.617,2.617,0.003,0.03,-0.05000000074505806,-0.02500000037252903,-0.02500000037252903,-0.02500000037252903,-0.05000000074505806,-0.0005000000237487257,0.05000000074505806,0.02500000037252903,0.02500000037252903,0.02500000037252903,0.05000000074505806,0.0005000000237487257,-0.031805325403446445,-1.56915238268524,0.17834047606599698,0.14,0.0,0.26,-0.004748446401208639,-0.0029567924793809652,0.36413678526878357,0.0,0.028969706251860128
0.0,52.0,-0.05,0.0,0.0,0.0,0.0,0.0,-2.5846588611602783,-1.293145775794983,1.0109710693359375,-1.3537670373916626,-0.0715857669711113,0.0,-2.6346588134765625,-1.293145775794983,1.0109710693359375,-1.3537670373916626,-0.0715857669711113,0.003,0.0,0.0,0.0,0.0,0.0,0.0,-3.1,3.1,-1.571,1.571,-1.571,1.571,-1.745,1.745,-2.617,2.617,0.003,0.03,-0.05000000074505806,-0.02500000037252903,-0.02500000037252903,-0.02500000037252903,-0.05000000074505806,-0.0005000000237487257,0.05000000074505806,0.02500000037252903,0.02500000037252903,0.02500000037252903,0.05000000074505806,0.0005000000237487257,-0.031845041637211816,-1.6009974243224518,0.17845179079295287,0.14,0.0,0.26,-0.004890290088951588,-0.0027157741133123636,0.36413678526878357,0.0,0.02671553446941255
0.0,53.0,-0.05,0.0,0.0,0.0,0.0,0.0,-2.6346588134765625,-1.293145775794983,1.0109710693359375,-1.3537670373916626,-0.0715857669711113,0.0,-2.6846587657928467,-1.293145775794983,1.0109710693359375,-1.3537670373916626,-0.0715857669711113,0.003,0.0,0.0,0.0,0.0,0.0,0.0,-3.1,3.1,-1.571,1.571,-1.571,1.571,-1.745,1.745,-2.617,2.617,0.003,0.03,-0.05000000074505806,-0.02500000037252903,-0.02500000037252903,-0.02500000037252903,-0.05000000074505806,-0.0005000000237487257,0.05000000074505806,0.02500000037252903,0.02500000037252903,0.02500000037252903,0.05000000074505806,0.0005000000237487257,-0.03188133539135859,-1.6328787597138104,0.17855345247672638,0.14,0.0,0.26,-0.005019910633563995,-0.002467967802658677,0.36413678526878357,0.0,0.0243988041056431
0.0,54.0,-0.05,0.0,0.0,0.0,0.0,0.0,-2.6846587657928467,-1.293145775794983,1.0109710693359375,-1.3537670373916626,-0.0715857669711113,0.0,-2.734658718109131,-1.293145775794983,1.0109710693359375,-1.3537670373916626,-0.0715857669711113,0.003,0.0,0.0,0.0,0.0,0.0,0.0,-3.1,3.1,-1.571,1.571,-1.571,1.571,-1.745,1.745,-2.617,2.617,0.003,0.03,-0.05000000074505806,-0.02500000037252903,-0.02500000037252903,-0.02500000037252903,-0.05000000074505806,-0.0005000000237487257,0.05000000074505806,0.02500000037252903,0.02500000037252903,0.02500000037252903,0.05000000074505806,0.0005000000237487257,-0.03191411591523234,-1.6647928756290427,0.1786452236003872,0.14,0.0,0.26,-0.005136983934789896,-0.0022139926441013813,0.36413678526878357,0.0,0.022025069678597298
0.0,55.0,-0.05,0.0,0.0,0.0,0.0,0.0,-2.734658718109131,-1.293145775794983,1.0109710693359375,-1.3537670373916626,-0.0715857669711113,0.0,-2.784658670425415,-1.293145775794983,1.0109710693359375,-1.3537670373916626,-0.0715857669711113,0.003,0.0,0.0,0.0,0.0,0.0,0.0,-3.1,3.1,-1.571,1.571,-1.571,1.571,-1.745,1.745,-2.617,2.617,0.003,0.03,-0.05000000074505806,-0.02500000037252903,-0.02500000037252903,-0.02500000037252903,-0.05000000074505806,-0.0005000000237487257,0.05000000074505806,0.02500000037252903,0.02500000037252903,0.02500000037252903,0.05000000074505806,0.0005000000237487257,-0.03194330133057859,-1.6967361769596212,0.17872689033992226,0.14,0.0,0.26,-0.00524121755734086,-0.001954483799636364,0.36413678526878357,0.0,0.019600017488412558
0.0,56.0,-0.05,0.0,0.0,0.0,0.0,0.0,-2.784658670425415,-1.293145775794983,1.0109710693359375,-1.3537670373916626,-0.0715857669711113,0.0,-2.834658622741699,-1.293145775794983,1.0109710693359375,-1.3537670373916626,-0.0715857669711113,0.003,0.0,0.0,0.0,0.0,0.0,0.0,-3.1,3.1,-1.571,1.571,-1.571,1.571,-1.745,1.745,-2.617,2.617,0.003,0.03,-0.05000000074505806,-0.02500000037252903,-0.02500000037252903,-0.02500000037252903,-0.05000000074505806,-0.0005000000237487257,0.05000000074505806,0.02500000037252903,0.02500000037252903,0.02500000037252903,0.05000000074505806,0.0005000000237487257,-0.03196881861868127,-1.7287049955783025,0.17879826234804763,0.14,0.0,0.26,-0.005332350730895996,-0.001690089819021523,0.36413678526878357,0.0,0.017129281950090114
0.0,57.0,-0.05,0.0,0.0,0.0,0.0,0.0,-2.834658622741699,-1.293145775794983,1.0109710693359375,-1.3537670373916626,-0.0715857669711113,0.0,-2.8846585750579834,-1.293145775794983,1.0109710693359375,-1.3537670373916626,-0.0715857669711113,0.003,0.0,0.0,0.0,0.0,0.0,0.0,-3.1,3.1,-1.571,1.571,-1.571,1.571,-1.745,1.745,-2.617,2.617,0.003,0.03,-0.05000000074505806,-0.02500000037252903,-0.02500000037252903,-0.02500000037252903,-0.05000000074505806,-0.0005000000237487257,0.05000000074505806,0.02500000037252903,0.02500000037252903,0.02500000037252903,0.05000000074505806,0.0005000000237487257,-0.03199060402166451,-1.760695599599967,0.17885917371402707,0.14,0.0,0.26,-0.00541015574708581,-0.001421471475623548,0.36413678526878357,0.0,0.014618727835065126
0.0,58.0,-0.05,0.0,0.0,0.0,0.0,0.0,-2.8846585750579834,-1.293145775794983,1.0109710693359375,-1.3537670373916626,-0.0715857669711113,0.0,-2.9346585273742676,-1.293145775794983,1.0109710693359375,-1.3537670373916626,-0.0715857669711113,0.003,0.0,0.0,0.0,0.0,0.0,0.0,-3.1,3.1,-1.571,1.571,-1.571,1.571,-1.745,1.745,-2.617,2.617,0.003,0.03,-0.05000000074505806,-0.02500000037252903,-0.02500000037252903,-0.02500000037252903,-0.05000000074505806,-0.0005000000237487257,0.05000000074505806,0.02500000037252903,0.02500000037252903,0.02500000037252903,0.05000000074505806,0.0005000000237487257,-0.032008603172034515,-1.7927042027720015,0.17890948318083788,0.14,0.0,0.26,-0.005474438425153494,-0.001149300136603415,0.36413678526878357,0.0,0.012074272034594546
0.0,59.0,-0.05,0.0,0.0,0.0,0.0,0.0,-2.9346585273742676,-1.293145775794983,1.0109710693359375,-1.3537670373916626,-0.0715857669711113,0.0,-2.9846584796905518,-1.293145775794983,1.0109710693359375,-1.3537670373916626,-0.0715857669711113,0.003,0.0,0.0,0.0,0.0,0.0,0.0,-3.1,3.1,-1.571,1.571,-1.571,1.571,-1.745,1.745,-2.617,2.617,0.003,0.03,-0.05000000074505806,-0.02500000037252903,-0.02500000037252903,-0.02500000037252903,-0.05000000074505806,-0.0005000000237487257,0.05000000074505806,0.02500000037252903,0.02500000037252903,0.02500000037252903,0.05000000074505806,0.0005000000237487257,-0.03202277095195996,-1.8247269737239615,0.1789490736269958,0.14,0.0,0.26,-0.00552503764629364,-0.0008742561913095415,0.36413678526878357,0.0,0.009501707077901322
0.0,60.0,-0.05,0.0,0.0,0.0,0.0,0.0,-2.9846584796905518,-1.293145775794983,1.0109710693359375,-1.3537670373916626,-0.0715857669711113,0.0,-3.034658432006836,-1.293145775794983,1.0109710693359375,-1.3537670373916626,-0.0715857669711113,0.003,0.0,0.0,0.0,0.0,0.0,0.0,-3.1,3.1,-1.571,1.571,-1.571,1.571,-1.745,1.745,-2.617,2.617,0.003,0.03,-0.05000000074505806,-0.02500000037252903,-0.02500000037252903,-0.02500000037252903,-0.05000000074505806,-0.0005000000237487257,0.05000000074505806,0.02500000037252903,0.02500000037252903,0.02500000037252903,0.05000000074505806,0.0005000000237487257,-0.03203307216555393,-1.8567600458895155,0.17897785384106585,0.14,0.0,0.26,-0.005561827681958675,-0.0005970270722173154,0.36413678526878357,0.0,0.006907251376810919
0.0,61.0,-0.05,0.0,0.0,0.0,0.0,0.0,-3.034658432006836,-1.293145775794983,1.0109710693359375,-1.3537670373916626,-0.0715857669711113,0.0,-3.08465838432312,-1.293145775794983,1.0109710693359375,-1.3537670373916626,-0.0715857669711113,0.003,0.0,0.0,0.0,0.0,0.0,0.0,-3.1,3.1,-1.571,1.571,-1.571,1.571,-1.745,1.745,-2.617,2.617,0.003,0.03,-0.05000000074505806,-0.02500000037252903,-0.02500000037252903,-0.02500000037252903,-0.05000000074505806,-0.0005000000237487257,0.05000000074505806,0.02500000037252903,0.02500000037252903,0.02500000037252903,0.05000000074505806,0.0005000000237487257,-0.0320394807227106,-1.8887995266122262,0.17899575615838104,0.14,0.0,0.26,-0.005584715399891138,-0.0003183057124260813,0.36413678526878357,0.0,0.00429655615564517
0.0,62.0,-0.05,0.0,0.0,0.0,0.0,0.0,-3.08465838432312,-1.293145775794983,1.0109710693359375,-1.3537670373916626,-0.0715857669711113,0.0,-3.1,-1.293145775794983,1.0109710693359375,-1.3537670373916626,-0.0715857669711113,0.003,0.0,0.0,0.0,0.0,0.0,0.0,-3.1,3.1,-1.571,1.571,-1.571,1.571,-1.745,1.745,-2.617,2.617,0.003,0.03,-0.05000000074505806,-0.02500000037252903,-0.02500000037252903,-0.02500000037252903,-0.05000000074505806,-0.0005000000237487257,0.05000000074505806,0.02500000037252903,0.02500000037252903,0.02500000037252903,0.05000000074505806,0.0005000000237487257,-0.032040663967533724,-1.9208401905797599,0.17899906135936502,0.14,0.0,0.26,-0.005588941276073456,-0.00023259305453393608,0.36413678526878357,0.0,0.0007932482361572291
0.0,63.0,-0.05,0.0,0.0,0.0,0.0,0.0,-3.0999999046325684,-1.293145775794983,1.0109710693359375,-1.3537670373916626,-0.0715857669711113,0.0,-3.1,-1.293145775794983,1.0109710693359375,-1.3537670373916626,-0.0715857669711113,0.003,0.0,0.0,0.0,0.0,0.0,0.0,-3.1,3.1,-1.571,1.571,-1.571,1.571,-1.745,1.745,-2.617,2.617,0.003,0.03,-0.05000000074505806,-0.02500000037252903,-0.02500000037252903,-0.02500000037252903,-0.05000000074505806,-0.0005000000237487257,0.05000000074505806,0.02500000037252903,0.02500000037252903,0.02500000037252903,0.05000000074505806,0.0005000000237487257,-0.032040663967533724,-1.9528808545472935,0.17899906135936502,0.14,0.0,0.26,-0.005588941276073456,-0.00023259305453393608,0.36413678526878357,0.0,0.0
0.0,64.0,-0.05,0.0,0.0,0.0,0.0,0.0,-3.0999999046325684,-1.293145775794983,1.0109710693359375,-1.3537670373916626,-0.0715857669711113,0.0,-3.1,-1.293145775794983,1.0109710693359375,-1.3537670373916626,-0.0715857669711113,0.003,0.0,0.0,0.0,0.0,0.0,0.0,-3.1,3.1,-1.571,1.571,-1.571,1.571,-1.745,1.745,-2.617,2.617,0.003,0.03,-0.05000000074505806,-0.02500000037252903,-0.02500000037252903,-0.02500000037252903,-0.05000000074505806,-0.0005000000237487257,0.05000000074505806,0.02500000037252903,0.02500000037252903,0.02500000037252903,0.05000000074505806,0.0005000000237487257,-0.032040663967533724,-1.9849215185148272,0.17899906135936502,0.14,0.0,0.26,-0.005588941276073456,-0.00023259305453393608,0.36413678526878357,0.0,0.0
0.0,65.0,-0.05,0.0,0.0,0.0,0.0,0.0,-3.0999999046325684,-1.293145775794983,1.0109710693359375,-1.3537670373916626,-0.0715857669711113,0.0,-3.1,-1.293145775794983,1.0109710693359375,-1.3537670373916626,-0.0715857669711113,0.003,0.0,0.0,0.0,0.0,0.0,0.0,-3.1,3.1,-1.571,1.571,-1.571,1.571,-1.745,1.745,-2.617,2.617,0.003,0.03,-0.05000000074505806,-0.02500000037252903,-0.02500000037252903,-0.02500000037252903,-0.05000000074505806,-0.0005000000237487257,0.05000000074505806,0.02500000037252903,0.02500000037252903,0.02500000037252903,0.05000000074505806,0.0005000000237487257,-0.032040663967533724,-2.016962182482361,0.17899906135936502,0.14,0.0,0.26,-0.005588941276073456,-0.00023259305453393608,0.36413678526878357,0.0,0.0
0.0,66.0,-0.05,0.0,0.0,0.0,0.0,0.0,-3.0999999046325684,-1.293145775794983,1.0109710693359375,-1.3537670373916626,-0.0715857669711113,0.0,-3.1,-1.293145775794983,1.0109710693359375,-1.3537670373916626,-0.0715857669711113,0.003,0.0,0.0,0.0,0.0,0.0,0.0,-3.1,3.1,-1.571,1.571,-1.571,1.571,-1.745,1.745,-2.617,2.617,0.003,0.03,-0.05000000074505806,-0.02500000037252903,-0.02500000037252903,-0.02500000037252903,-0.05000000074505806,-0.0005000000237487257,0.05000000074505806,0.02500000037252903,0.02500000037252903,0.02500000037252903,0.05000000074505806,0.0005000000237487257,-0.032040663967533724,-2.049002846449895,0.17899906135936502,0.14,0.0,0.26,-0.005588941276073456,-0.00023259305453393608,0.36413678526878357,0.0,0.0
0.0,67.0,-0.05,0.0,0.0,0.0,0.0,0.0,-3.0999999046325684,-1.293145775794983,1.0109710693359375,-1.3537670373916626,-0.0715857669711113,0.0,-3.1,-1.293145775794983,1.0109710693359375,-1.3537670373916626,-0.0715857669711113,0.003,0.0,0.0,0.0,0.0,0.0,0.0,-3.1,3.1,-1.571,1.571,-1.571,1.571,-1.745,1.745,-2.617,2.617,0.003,0.03,-0.05000000074505806,-0.02500000037252903,-0.02500000037252903,-0.02500000037252903,-0.05000000074505806,-0.0005000000237487257,0.05000000074505806,0.02500000037252903,0.02500000037252903,0.02500000037252903,0.05000000074505806,0.0005000000237487257,-0.032040663967533724,-2.0810435104174285,0.17899906135936502,0.14,0.0,0.26,-0.005588941276073456,-0.00023259305453393608,0.36413678526878357,0.0,0.0
0.0,68.0,-0.05,0.0,0.0,0.0,0.0,0.0,-3.0999999046325684,-1.293145775794983,1.0109710693359375,-1.3537670373916626,-0.0715857669711113,0.0,-3.1,-1.293145775794983,1.0109710693359375,-1.3537670373916626,-0.0715857669711113,0.003,0.0,0.0,0.0,0.0,0.0,0.0,-3.1,3.1,-1.571,1.571,-1.571,1.571,-1.745,1.745,-2.617,2.617,0.003,0.03,-0.05000000074505806,-0.02500000037252903,-0.02500000037252903,-0.02500000037252903,-0.05000000074505806,-0.0005000000237487257,0.05000000074505806,0.02500000037252903,0.02500000037252903,0.02500000037252903,0.05000000074505806,0.0005000000237487257,-0.032040663967533724,-2.113084174384962,0.17899906135936502,0.14,0.0,0.26,-0.005588941276073456,-0.00023259305453393608,0.36413678526878357,0.0,0.0
0.0,69.0,-0.05,0.0,0.0,0.0,0.0,0.0,-3.0999999046325684,-1.293145775794983,1.0109710693359375,-1.3537670373916626,-0.0715857669711113,0.0,-3.1,-1.293145775794983,1.0109710693359375,-1.3537670373916626,-0.0715857669711113,0.003,0.0,0.0,0.0,0.0,0.0,0.0,-3.1,3.1,-1.571,1.571,-1.571,1.571,-1.745,1.745,-2.617,2.617,0.003,0.03,-0.05000000074505806,-0.02500000037252903,-0.02500000037252903,-0.02500000037252903,-0.05000000074505806,-0.0005000000237487257,0.05000000074505806,0.02500000037252903,0.02500000037252903,0.02500000037252903,0.05000000074505806,0.0005000000237487257,-0.032040663967533724,-2.145124838352496,0.17899906135936502,0.14,0.0,0.26,-0.005588941276073456,-0.00023259305453393608,0.36413678526878357,0.0,0.0
0.0,70.0,-0.05,0.0,0.0,0.0,0.0,0.0,-3.0999999046325684,-1.293145775794983,1.0109710693359375,-1.3537670373916626,-0.0715857669711113,0.0,-3.1,-1.293145775794983,1.0109710693359375,-1.3537670373916626,-0.0715857669711113,0.003,0.0,0.0,0.0,0.0,0.0,0.0,-3.1,3.1,-1.571,1.571,-1.571,1.571,-1.745,1.745,-2.617,2.617,0.003,0.03,-0.05000000074505806,-0.02500000037252903,-0.02500000037252903,-0.02500000037252903,-0.05000000074505806,-0.0005000000237487257,0.05000000074505806,0.02500000037252903,0.02500000037252903,0.02500000037252903,0.05000000074505806,0.0005000000237487257,-0.032040663967533724,-2.1771655023200296,0.17899906135936502,0.14,0.0,0.26,-0.005588941276073456,-0.00023259305453393608,0.36413678526878357,0.0,0.0
0.0,71.0,-0.05,0.0,0.0,0.0,0.0,0.0,-3.0999999046325684,-1.293145775794983,1.0109710693359375,-1.3537670373916626,-0.0715857669711113,0.0,-3.1,-1.293145775794983,1.0109710693359375,-1.3537670373916626,-0.0715857669711113,0.003,0.0,0.0,0.0,0.0,0.0,0.0,-3.1,3.1,-1.571,1.571,-1.571,1.571,-1.745,1.745,-2.617,2.617,0.003,0.03,-0.05000000074505806,-0.02500000037252903,-0.02500000037252903,-0.02500000037252903,-0.05000000074505806,-0.0005000000237487257,0.05000000074505806,0.02500000037252903,0.02500000037252903,0.02500000037252903,0.05000000074505806,0.0005000000237487257,-0.032040663967533724,-2.2092061662875633,0.17899906135936502,0.14,0.0,0.26,-0.005588941276073456,-0.00023259305453393608,0.36413678526878357,0.0,0.0
0.0,72.0,-0.05,0.0,0.0,0.0,0.0,0.0,-3.0999999046325684,-1.293145775794983,1.0109710693359375,-1.3537670373916626,-0.0715857669711113,0.0,-3.1,-1.293145775794983,1.0109710693359375,-1.3537670373916626,-0.0715857669711113,0.003,0.0,0.0,0.0,0.0,0.0,0.0,-3.1,3.1,-1.571,1.571,-1.571,1.571,-1.745,1.745,-2.617,2.617,0.003,0.03,-0.05000000074505806,-0.02500000037252903,-0.02500000037252903,-0.02500000037252903,-0.05000000074505806,-0.0005000000237487257,0.05000000074505806,0.02500000037252903,0.02500000037252903,0.02500000037252903,0.05000000074505806,0.0005000000237487257,-0.032040663967533724,-2.241246830255097,0.17899906135936502,0.14,0.0,0.26,-0.005588941276073456,-0.00023259305453393608,0.36413678526878357,0.0,0.0
0.0,73.0,-0.05,0.0,0.0,0.0,0.0,0.0,-3.0999999046325684,-1.293145775794983,1.0109710693359375,-1.3537670373916626,-0.0715857669711113,0.0,-3.1,-1.293145775794983,1.0109710693359375,-1.3537670373916626,-0.0715857669711113,0.003,0.0,0.0,0.0,0.0,0.0,0.0,-3.1,3.1,-1.571,1.571,-1.571,1.571,-1.745,1.745,-2.617,2.617,0.003,0.03,-0.05000000074505806,-0.02500000037252903,-0.02500000037252903,-0.02500000037252903,-0.05000000074505806,-0.0005000000237487257,0.05000000074505806,0.02500000037252903,0.02500000037252903,0.02500000037252903,0.05000000074505806,0.0005000000237487257,-0.032040663967533724,-2.2732874942226307,0.17899906135936502,0.14,0.0,0.26,-0.005588941276073456,-0.00023259305453393608,0.36413678526878357,0.0,0.0
0.0,74.0,-0.05,0.0,0.0,0.0,0.0,0.0,-3.0999999046325684,-1.293145775794983,1.0109710693359375,-1.3537670373916626,-0.0715857669711113,0.0,-3.1,-1.293145775794983,1.0109710693359375,-1.3537670373916626,-0.0715857669711113,0.003,0.0,0.0,0.0,0.0,0.0,0.0,-3.1,3.1,-1.571,1.571,-1.571,1.571,-1.745,1.745,-2.617,2.617,0.003,0.03,-0.05000000074505806,-0.02500000037252903,-0.02500000037252903,-0.02500000037252903,-0.05000000074505806,-0.0005000000237487257,0.05000000074505806,0.02500000037252903,0.02500000037252903,0.02500000037252903,0.05000000074505806,0.0005000000237487257,-0.032040663967533724,-2.3053281581901643,0.17899906135936502,0.14,0.0,0.26,-0.005588941276073456,-0.00023259305453393608,0.36413678526878357,0.0,0.0
0.0,75.0,-0.05,0.0,0.0,0.0,0.0,0.0,-3.0999999046325684,-1.293145775794983,1.0109710693359375,-1.3537670373916626,-0.0715857669711113,0.0,-3.1,-1.293145775794983,1.0109710693359375,-1.3537670373916626,-0.0715857669711113,0.003,0.0,0.0,0.0,0.0,0.0,0.0,-3.1,3.1,-1.571,1.571,-1.571,1.571,-1.745,1.745,-2.617,2.617,0.003,0.03,-0.05000000074505806,-0.02500000037252903,-0.02500000037252903,-0.02500000037252903,-0.05000000074505806,-0.0005000000237487257,0.05000000074505806,0.02500000037252903,0.02500000037252903,0.02500000037252903,0.05000000074505806,0.0005000000237487257,-0.032040663967533724,-2.337368822157698,0.17899906135936502,0.14,0.0,0.26,-0.005588941276073456,-0.00023259305453393608,0.36413678526878357,0.0,0.0
0.0,76.0,-0.05,0.0,0.0,0.0,0.0,0.0,-3.0999999046325684,-1.293145775794983,1.0109710693359375,-1.3537670373916626,-0.0715857669711113,0.0,-3.1,-1.293145775794983,1.0109710693359375,-1.3537670373916626,-0.0715857669711113,0.003,0.0,0.0,0.0,0.0,0.0,0.0,-3.1,3.1,-1.571,1.571,-1.571,1.571,-1.745,1.745,-2.617,2.617,0.003,0.03,-0.05000000074505806,-0.02500000037252903,-0.02500000037252903,-0.02500000037252903,-0.05000000074505806,-0.0005000000237487257,0.05000000074505806,0.02500000037252903,0.02500000037252903,0.02500000037252903,0.05000000074505806,0.0005000000237487257,-0.032040663967533724,-2.3694094861252317,0.17899906135936502,0.14,0.0,0.26,-0.005588941276073456,-0.00023259305453393608,0.36413678526878357,0.0,0.0
0.0,77.0,-0.05,0.0,0.0,0.0,0.0,0.0,-3.0999999046325684,-1.293145775794983,1.0109710693359375,-1.3537670373916626,-0.0715857669711113,0.0,-3.1,-1.293145775794983,1.0109710693359375,-1.3537670373916626,-0.0715857669711113,0.003,0.0,0.0,0.0,0.0,0.0,0.0,-3.1,3.1,-1.571,1.571,-1.571,1.571,-1.745,1.745,-2.617,2.617,0.003,0.03,-0.05000000074505806,-0.02500000037252903,-0.02500000037252903,-0.02500000037252903,-0.05000000074505806,-0.0005000000237487257,0.05000000074505806,0.02500000037252903,0.02500000037252903,0.02500000037252903,0.05000000074505806,0.0005000000237487257,-0.032040663967533724,-2.4014501500927654,0.17899906135936502,0.14,0.0,0.26,-0.005588941276073456,-0.00023259305453393608,0.36413678526878357,0.0,0.0
0.0,78.0,-0.05,0.0,0.0,0.0,0.0,0.0,-3.0999999046325684,-1.293145775794983,1.0109710693359375,-1.3537670373916626,-0.0715857669711113,0.0,-3.1,-1.293145775794983,1.0109710693359375,-1.3537670373916626,-0.0715857669711113,0.003,0.0,0.0,0.0,0.0,0.0,0.0,-3.1,3.1,-1.571,1.571,-1.571,1.571,-1.745,1.745,-2.617,2.617,0.003,0.03,-0.05000000074505806,-0.02500000037252903,-0.02500000037252903,-0.02500000037252903,-0.05000000074505806,-0.0005000000237487257,0.05000000074505806,0.02500000037252903,0.02500000037252903,0.02500000037252903,0.05000000074505806,0.0005000000237487257,-0.032040663967533724,-2.433490814060299,0.17899906135936502,0.14,0.0,0.26,-0.005588941276073456,-0.00023259305453393608,0.36413678526878357,0.0,0.0
0.0,79.0,-0.05,0.0,0.0,0.0,0.0,0.0,-3.0999999046325684,-1.293145775794983,1.0109710693359375,-1.3537670373916626,-0.0715857669711113,0.0,-3.1,-1.293145775794983,1.0109710693359375,-1.3537670373916626,-0.0715857669711113,0.003,0.0,0.0,0.0,0.0,0.0,0.0,-3.1,3.1,-1.571,1.571,-1.571,1.571,-1.745,1.745,-2.617,2.617,0.003,0.03,-0.05000000074505806,-0.02500000037252903,-0.02500000037252903,-0.02500000037252903,-0.05000000074505806,-0.0005000000237487257,0.05000000074505806,0.02500000037252903,0.02500000037252903,0.02500000037252903,0.05000000074505806,0.0005000000237487257,-0.032040663967533724,-2.465531478027833,0.17899906135936502,0.14,0.0,0.26,-0.005588941276073456,-0.00023259305453393608,0.36413678526878357,0.0,0.0
0.0,80.0,-0.05,0.0,0.0,0.0,0.0,0.0,-3.0999999046325684,-1.293145775794983,1.0109710693359375,-1.3537670373916626,-0.0715857669711113,0.0,-3.1,-1.293145775794983,1.0109710693359375,-1.3537670373916626,-0.0715857669711113,0.003,0.0,0.0,0.0,0.0,0.0,0.0,-3.1,3.1,-1.571,1.571,-1.571,1.571,-1.745,1.745,-2.617,2.617,0.003,0.03,-0.05000000074505806,-0.02500000037252903,-0.02500000037252903,-0.02500000037252903,-0.05000000074505806,-0.0005000000237487257,0.05000000074505806,0.02500000037252903,0.02500000037252903,0.02500000037252903,0.05000000074505806,0.0005000000237487257,-0.032040663967533724,-2.4975721419953665,0.17899906135936502,0.14,0.0,0.26,-0.005588941276073456,-0.00023259305453393608,0.36413678526878357,0.0,0.0
0.0,81.0,-0.05,0.0,0.0,0.0,0.0,0.0,-3.0999999046325684,-1.293145775794983,1.0109710693359375,-1.3537670373916626,-0.0715857669711113,0.0,-3.1,-1.293145775794983,1.0109710693359375,-1.3537670373916626,-0.0715857669711113,0.003,0.0,0.0,0.0,0.0,0.0,0.0,-3.1,3.1,-1.571,1.571,-1.571,1.571,-1.745,1.745,-2.617,2.617,0.003,0.03,-0.05000000074505806,-0.02500000037252903,-0.02500000037252903,-0.02500000037252903,-0.05000000074505806,-0.0005000000237487257,0.05000000074505806,0.02500000037252903,0.02500000037252903,0.02500000037252903,0.05000000074505806,0.0005000000237487257,-0.032040663967533724,-2.5296128059629,0.17899906135936502,0.14,0.0,0.26,-0.005588941276073456,-0.00023259305453393608,0.36413678526878357,0.0,0.0
0.0,82.0,-0.05,0.0,0.0,0.0,0.0,0.0,-3.0999999046325684,-1.293145775794983,1.0109710693359375,-1.3537670373916626,-0.0715857669711113,0.0,-3.1,-1.293145775794983,1.0109710693359375,-1.3537670373916626,-0.0715857669711113,0.003,0.0,0.0,0.0,0.0,0.0,0.0,-3.1,3.1,-1.571,1.571,-1.571,1.571,-1.745,1.745,-2.617,2.617,0.003,0.03,-0.05000000074505806,-0.02500000037252903,-0.02500000037252903,-0.02500000037252903,-0.05000000074505806,-0.0005000000237487257,0.05000000074505806,0.02500000037252903,0.02500000037252903,0.02500000037252903,0.05000000074505806,0.0005000000237487257,-0.032040663967533724,-2.561653469930434,0.17899906135936502,0.14,0.0,0.26,-0.005588941276073456,-0.00023259305453393608,0.36413678526878357,0.0,0.0
0.0,83.0,-0.05,0.0,0.0,0.0,0.0,0.0,-3.0999999046325684,-1.293145775794983,1.0109710693359375,-1.3537670373916626,-0.0715857669711113,0.0,-3.1,-1.293145775794983,1.0109710693359375,-1.3537670373916626,-0.0715857669711113,0.003,0.0,0.0,0.0,0.0,0.0,0.0,-3.1,3.1,-1.571,1.571,-1.571,1.571,-1.745,1.745,-2.617,2.617,0.003,0.03,-0.05000000074505806,-0.02500000037252903,-0.02500000037252903,-0.02500000037252903,-0.05000000074505806,-0.0005000000237487257,0.05000000074505806,0.02500000037252903,0.02500000037252903,0.02500000037252903,0.05000000074505806,0.0005000000237487257,-0.032040663967533724,-2.5936941338979675,0.17899906135936502,0.14,0.0,0.26,-0.005588941276073456,-0.00023259305453393608,0.36413678526878357,0.0,0.0
0.0,84.0,-0.05,0.0,0.0,0.0,0.0,0.0,-3.0999999046325684,-1.293145775794983,1.0109710693359375,-1.3537670373916626,-0.0715857669711113,0.0,-3.1,-1.293145775794983,1.0109710693359375,-1.3537670373916626,-0.0715857669711113,0.003,0.0,0.0,0.0,0.0,0.0,0.0,-3.1,3.1,-1.571,1.571,-1.571,1.571,-1.745,1.745,-2.617,2.617,0.003,0.03,-0.05000000074505806,-0.02500000037252903,-0.02500000037252903,-0.02500000037252903,-0.05000000074505806,-0.0005000000237487257,0.05000000074505806,0.02500000037252903,0.02500000037252903,0.02500000037252903,0.05000000074505806,0.0005000000237487257,-0.032040663967533724,-2.6257347978655012,0.17899906135936502,0.14,0.0,0.26,-0.005588941276073456,-0.00023259305453393608,0.36413678526878357,0.0,0.0
0.0,85.0,-0.05,0.0,0.0,0.0,0.0,0.0,-3.0999999046325684,-1.293145775794983,1.0109710693359375,-1.3537670373916626,-0.0715857669711113,0.0,-3.1,-1.293145775794983,1.0109710693359375,-1.3537670373916626,-0.0715857669711113,0.003,0.0,0.0,0.0,0.0,0.0,0.0,-3.1,3.1,-1.571,1.571,-1.571,1.571,-1.745,1.745,-2.617,2.617,0.003,0.03,-0.05000000074505806,-0.02500000037252903,-0.02500000037252903,-0.02500000037252903,-0.05000000074505806,-0.0005000000237487257,0.05000000074505806,0.02500000037252903,0.02500000037252903,0.02500000037252903,0.05000000074505806,0.0005000000237487257,-0.032040663967533724,-2.657775461833035,0.17899906135936502,0.14,0.0,0.26,-0.005588941276073456,-0.00023259305453393608,0.36413678526878357,0.0,0.0
0.0,86.0,-0.05,0.0,0.0,0.0,0.0,0.0,-3.0999999046325684,-1.293145775794983,1.0109710693359375,-1.3537670373916626,-0.0715857669711113,0.0,-3.1,-1.293145775794983,1.0109710693359375,-1.3537670373916626,-0.0715857669711113,0.003,0.0,0.0,0.0,0.0,0.0,0.0,-3.1,3.1,-1.571,1.571,-1.571,1.571,-1.745,1.745,-2.617,2.617,0.003,0.03,-0.05000000074505806,-0.02500000037252903,-0.02500000037252903,-0.02500000037252903,-0.05000000074505806,-0.0005000000237487257,0.05000000074505806,0.02500000037252903,0.02500000037252903,0.02500000037252903,0.05000000074505806,0.0005000000237487257,-0.032040663967533724,-2.6898161258005686,0.17899906135936502,0.14,0.0,0.26,-0.005588941276073456,-0.00023259305453393608,0.36413678526878357,0.0,0.0
0.0,87.0,-0.05,0.0,0.0,0.0,0.0,0.0,-3.0999999046325684,-1.293145775794983,1.0109710693359375,-1.3537670373916626,-0.0715857669711113,0.0,-3.1,-1.293145775794983,1.0109710693359375,-1.3537670373916626,-0.0715857669711113,0.003,0.0,0.0,0.0,0.0,0.0,0.0,-3.1,3.1,-1.571,1.571,-1.571,1.571,-1.745,1.745,-2.617,2.617,0.003,0.03,-0.05000000074505806,-0.02500000037252903,-0.02500000037252903,-0.02500000037252903,-0.05000000074505806,-0.0005000000237487257,0.05000000074505806,0.02500000037252903,0.02500000037252903,0.02500000037252903,0.05000000074505806,0.0005000000237487257,-0.032040663967533724,-2.7218567897681023,0.17899906135936502,0.14,0.0,0.26,-0.005588941276073456,-0.00023259305453393608,0.36413678526878357,0.0,0.0
0.0,88.0,-0.05,0.0,0.0,0.0,0.0,0.0,-3.0999999046325684,-1.293145775794983,1.0109710693359375,-1.3537670373916626,-0.0715857669711113,0.0,-3.1,-1.293145775794983,1.0109710693359375,-1.3537670373916626,-0.0715857669711113,0.003,0.0,0.0,0.0,0.0,0.0,0.0,-3.1,3.1,-1.571,1.571,-1.571,1.571,-1.745,1.745,-2.617,2.617,0.003,0.03,-0.05000000074505806,-0.02500000037252903,-0.02500000037252903,-0.02500000037252903,-0.05000000074505806,-0.0005000000237487257,0.05000000074505806,0.02500000037252903,0.02500000037252903,0.02500000037252903,0.05000000074505806,0.0005000000237487257,-0.032040663967533724,-2.753897453735636,0.17899906135936502,0.14,0.0,0.26,-0.005588941276073456,-0.00023259305453393608,0.36413678526878357,0.0,0.0
0.0,89.0,-0.05,0.0,0.0,0.0,0.0,0.0,-3.0999999046325684,-1.293145775794983,1.0109710693359375,-1.3537670373916626,-0.0715857669711113,0.0,-3.1,-1.293145775794983,1.0109710693359375,-1.3537670373916626,-0.0715857669711113,0.003,0.0,0.0,0.0,0.0,0.0,0.0,-3.1,3.1,-1.571,1.571,-1.571,1.571,-1.745,1.745,-2.617,2.617,0.003,0.03,-0.05000000074505806,-0.02500000037252903,-0.02500000037252903,-0.02500000037252903,-0.05000000074505806,-0.0005000000237487257,0.05000000074505806,0.02500000037252903,0.02500000037252903,0.02500000037252903,0.05000000074505806,0.0005000000237487257,-0.032040663967533724,-2.7859381177031697,0.17899906135936502,0.14,0.0,0.26,-0.005588941276073456,-0.00023259305453393608,0.36413678526878357,0.0,0.0
0.0,90.0,-0.05,0.0,0.0,0.0,0.0,0.0,-3.0999999046325684,-1.293145775794983,1.0109710693359375,-1.3537670373916626,-0.0715857669711113,0.0,-3.1,-1.293145775794983,1.0109710693359375,-1.3537670373916626,-0.0715857669711113,0.003,0.0,0.0,0.0,0.0,0.0,0.0,-3.1,3.1,-1.571,1.571,-1.571,1.571,-1.745,1.745,-2.617,2.617,0.003,0.03,-0.05000000074505806,-0.02500000037252903,-0.02500000037252903,-0.02500000037252903,-0.05000000074505806,-0.0005000000237487257,0.05000000074505806,0.02500000037252903,0.02500000037252903,0.02500000037252903,0.05000000074505806,0.0005000000237487257,-0.032040663967533724,-2.8179787816707034,0.17899906135936502,0.14,0.0,0.26,-0.005588941276073456,-0.00023259305453393608,0.36413678526878357,0.0,0.0
0.0,91.0,-0.05,0.0,0.0,0.0,0.0,0.0,-3.0999999046325684,-1.293145775794983,1.0109710693359375,-1.3537670373916626,-0.0715857669711113,0.0,-3.1,-1.293145775794983,1.0109710693359375,-1.3537670373916626,-0.0715857669711113,0.003,0.0,0.0,0.0,0.0,0.0,0.0,-3.1,3.1,-1.571,1.571,-1.571,1.571,-1.745,1.745,-2.617,2.617,0.003,0.03,-0.05000000074505806,-0.02500000037252903,-0.02500000037252903,-0.02500000037252903,-0.05000000074505806,-0.0005000000237487257,0.05000000074505806,0.02500000037252903,0.02500000037252903,0.02500000037252903,0.05000000074505806,0.0005000000237487257,-0.032040663967533724,-2.850019445638237,0.17899906135936502,0.14,0.0,0.26,-0.005588941276073456,-0.00023259305453393608,0.36413678526878357,0.0,0.0
0.0,92.0,-0.05,0.0,0.0,0.0,0.0,0.0,-3.0999999046325684,-1.293145775794983,1.0109710693359375,-1.3537670373916626,-0.0715857669711113,0.0,-3.1,-1.293145775794983,1.0109710693359375,-1.3537670373916626,-0.0715857669711113,0.003,0.0,0.0,0.0,0.0,0.0,0.0,-3.1,3.1,-1.571,1.571,-1.571,1.571,-1.745,1.745,-2.617,2.617,0.003,0.03,-0.05000000074505806,-0.02500000037252903,-0.02500000037252903,-0.02500000037252903,-0.05000000074505806,-0.0005000000237487257,0.05000000074505806,0.02500000037252903,0.02500000037252903,0.02500000037252903,0.05000000074505806,0.0005000000237487257,-0.032040663967533724,-2.8820601096057707,0.17899906135936502,0.14,0.0,0.26,-0.005588941276073456,-0.00023259305453393608,0.36413678526878357,0.0,0.0
0.0,93.0,-0.05,0.0,0.0,0.0,0.0,0.0,-3.0999999046325684,-1.293145775794983,1.0109710693359375,-1.3537670373916626,-0.0715857669711113,0.0,-3.1,-1.293145775794983,1.0109710693359375,-1.3537670373916626,-0.0715857669711113,0.003,0.0,0.0,0.0,0.0,0.0,0.0,-3.1,3.1,-1.571,1.571,-1.571,1.571,-1.745,1.745,-2.617,2.617,0.003,0.03,-0.05000000074505806,-0.02500000037252903,-0.02500000037252903,-0.02500000037252903,-0.05000000074505806,-0.0005000000237487257,0.05000000074505806,0.02500000037252903,0.02500000037252903,0.02500000037252903,0.05000000074505806,0.0005000000237487257,-0.032040663967533724,-2.9141007735733044,0.17899906135936502,0.14,0.0,0.26,-0.005588941276073456,-0.00023259305453393608,0.36413678526878357,0.0,0.0
0.0,94.0,-0.05,0.0,0.0,0.0,0.0,0.0,-3.0999999046325684,-1.293145775794983,1.0109710693359375,-1.3537670373916626,-0.0715857669711113,0.0,-3.1,-1.293145775794983,1.0109710693359375,-1.3537670373916626,-0.0715857669711113,0.003,0.0,0.0,0.0,0.0,0.0,0.0,-3.1,3.1,-1.571,1.571,-1.571,1.571,-1.745,1.745,-2.617,2.617,0.003,0.03,-0.05000000074505806,-0.02500000037252903,-0.02500000037252903,-0.02500000037252903,-0.05000000074505806,-0.0005000000237487257,0.05000000074505806,0.02500000037252903,0.02500000037252903,0.02500000037252903,0.05000000074505806,0.0005000000237487257,-0.032040663967533724,-2.946141437540838,0.17899906135936502,0.14,0.0,0.26,-0.005588941276073456,-0.00023259305453393608,0.36413678526878357,0.0,0.0
0.0,95.0,-0.05,0.0,0.0,0.0,0.0,0.0,-3.0999999046325684,-1.293145775794983,1.0109710693359375,-1.3537670373916626,-0.0715857669711113,0.0,-3.1,-1.293145775794983,1.0109710693359375,-1.3537670373916626,-0.0715857669711113,0.003,0.0,0.0,0.0,0.0,0.0,0.0,-3.1,3.1,-1.571,1.571,-1.571,1.571,-1.745,1.745,-2.617,2.617,0.003,0.03,-0.05000000074505806,-0.02500000037252903,-0.02500000037252903,-0.02500000037252903,-0.05000000074505806,-0.0005000000237487257,0.05000000074505806,0.02500000037252903,0.02500000037252903,0.02500000037252903,0.05000000074505806,0.0005000000237487257,-0.032040663967533724,-2.978182101508372,0.17899906135936502,0.14,0.0,0.26,-0.005588941276073456,-0.00023259305453393608,0.36413678526878357,0.0,0.0
0.0,96.0,-0.05,0.0,0.0,0.0,0.0,0.0,-3.0999999046325684,-1.293145775794983,1.0109710693359375,-1.3537670373916626,-0.0715857669711113,0.0,-3.1,-1.293145775794983,1.0109710693359375,-1.3537670373916626,-0.0715857669711113,0.003,0.0,0.0,0.0,0.0,0.0,0.0,-3.1,3.1,-1.571,1.571,-1.571,1.571,-1.745,1.745,-2.617,2.617,0.003,0.03,-0.05000000074505806,-0.02500000037252903,-0.02500000037252903,-0.02500000037252903,-0.05000000074505806,-0.0005000000237487257,0.05000000074505806,0.02500000037252903,0.02500000037252903,0.02500000037252903,0.05000000074505806,0.0005000000237487257,-0.032040663967533724,-3.0102227654759055,0.17899906135936502,0.14,0.0,0.26,-0.005588941276073456,-0.00023259305453393608,0.36413678526878357,0.0,0.0
0.0,97.0,-0.05,0.0,0.0,0.0,0.0,0.0,-3.0999999046325684,-1.293145775794983,1.0109710693359375,-1.3537670373916626,-0.0715857669711113,0.0,-3.1,-1.293145775794983,1.0109710693359375,-1.3537670373916626,-0.0715857669711113,0.003,0.0,0.0,0.0,0.0,0.0,0.0,-3.1,3.1,-1.571,1.571,-1.571,1.571,-1.745,1.745,-2.617,2.617,0.003,0.03,-0.05000000074505806,-0.02500000037252903,-0.02500000037252903,-0.02500000037252903,-0.05000000074505806,-0.0005000000237487257,0.05000000074505806,0.02500000037252903,0.02500000037252903,0.02500000037252903,0.05000000074505806,0.0005000000237487257,-0.032040663967533724,-3.042263429443439,0.17899906135936502,0.14,0.0,0.26,-0.005588941276073456,-0.00023259305453393608,0.36413678526878357,0.0,0.0
0.0,98.0,-0.05,0.0,0.0,0.0,0.0,0.0,-3.0999999046325684,-1.293145775794983,1.0109710693359375,-1.3537670373916626,-0.0715857669711113,0.0,-3.1,-1.293145775794983,1.0109710693359375,-1.3537670373916626,-0.0715857669711113,0.003,0.0,0.0,0.0,0.0,0.0,0.0,-3.1,3.1,-1.571,1.571,-1.571,1.571,-1.745,1.745,-2.617,2.617,0.003,0.03,-0.05000000074505806,-0.02500000037252903,-0.02500000037252903,-0.02500000037252903,-0.05000000074505806,-0.0005000000237487257,0.05000000074505806,0.02500000037252903,0.02500000037252903,0.02500000037252903,0.05000000074505806,0.0005000000237487257,-0.032040663967533724,-3.074304093410973,0.17899906135936502,0.14,0.0,0.26,-0.005588941276073456,-0.00023259305453393608,0.36413678526878357,0.0,0.0
0.0,99.0,-0.05,0.0,0.0,0.0,0.0,0.0,-3.0999999046325684,-1.293145775794983,1.0109710693359375,-1.3537670373916626,-0.0715857669711113,0.0,-3.1,-1.293145775794983,1.0109710693359375,-1.3537670373916626,-0.0715857669711113,0.003,0.0,0.0,0.0,0.0,0.0,0.0,-3.1,3.1,-1.571,1.571,-1.571,1.571,-1.745,1.745,-2.617,2.617,0.003,0.03,-0.05000000074505806,-0.02500000037252903,-0.02500000037252903,-0.02500000037252903,-0.05000000074505806,-0.0005000000237487257,0.05000000074505806,0.02500000037252903,0.02500000037252903,0.02500000037252903,0.05000000074505806,0.0005000000237487257,-0.032040663967533724,-3.1063447573785066,0.17899906135936502,0.14,0.0,0.26,-0.005588941276073456,-0.00023259305453393608,0.36413678526878357,1.0,0.0
