PierreExeter/WidowX-reacher/tests/Check_env_consistency/logs/7_action2_+0.025.csv
episode,timestep,action_1,action_2,action_3,action_4,action_5,action_6,current_joint_pos_1,current_joint_pos_2,current_joint_pos_3,current_joint_pos_4,current_joint_pos_5,current_joint_pos_6,new_joint_pos_1,new_joint_pos_2,new_joint_pos_3,new_joint_pos_4,new_joint_pos_5,new_joint_pos_6,joint_vel_1,joint_vel_2,joint_vel_3,joint_vel_4,joint_vel_5,joint_vel_6,joint1_min,joint1_max,joint2_min,joint2_max,joint3_min,joint3_max,joint4_min,joint4_max,joint5_min,joint5_max,joint6_min,joint6_max,action_low1,action_low2,action_low3,action_low4,action_low5,action_low6,action_high1,action_high2,action_high3,action_high4,action_high5,action_high6,reward,return,dist,target_x,target_y,target_z,tip_x,tip_y,tip_z,done,est_vel,est_acc
0.0,0.0,0.0,0.025,0.0,0.0,0.0,0.0,0.015339807607233524,-1.293145775794983,1.0109710693359375,-1.3537670373916626,-0.0715857669711113,0.0,0.015339807607233524,-1.2681457996368408,1.0109710693359375,-1.3537670373916626,-0.0715857669711113,0.003,0.0,0.0,0.0,0.0,0.0,0.0,-3.1,3.1,-1.571,1.571,-1.571,1.571,-1.745,1.745,-2.617,2.617,0.003,0.03,-0.05000000074505806,-0.02500000037252903,-0.02500000037252903,-0.02500000037252903,-0.05000000074505806,-0.0005000000237487257,0.05000000074505806,0.02500000037252903,0.02500000037252903,0.02500000037252903,0.05000000074505806,0.0005000000237487257,-0.027294516995645335,-0.027294516995645335,0.16521052325940178,0.14,0.0,0.26,0.011568461544811726,0.00017747188394423574,0.36392220854759216,0.0,0.0,0.0
0.0,1.0,0.0,0.025,0.0,0.0,0.0,0.0,0.015339807607233524,-1.2681457996368408,1.0109710693359375,-1.3537670373916626,-0.0715857669711113,0.0,0.015339807607233524,-1.2431458234786987,1.0109710693359375,-1.3537670373916626,-0.0715857669711113,0.003,0.0,0.0,0.0,0.0,0.0,0.0,-3.1,3.1,-1.571,1.571,-1.571,1.571,-1.745,1.745,-2.617,2.617,0.003,0.03,-0.05000000074505806,-0.02500000037252903,-0.02500000037252903,-0.02500000037252903,-0.05000000074505806,-0.0005000000237487257,0.05000000074505806,0.02500000037252903,0.02500000037252903,0.02500000037252903,0.05000000074505806,0.0005000000237487257,-0.02572169602544496,-0.053016213021090296,0.16037984918762382,0.14,0.0,0.26,0.017536571249365807,0.00026902873651124537,0.3635583519935608,0.0,-1.1593617772267084,-278.24682653441005
0.0,2.0,0.0,0.025,0.0,0.0,0.0,0.0,0.015339807607233524,-1.2431458234786987,1.0109710693359375,-1.3537670373916626,-0.0715857669711113,0.0,0.015339807607233524,-1.2181458473205566,1.0109710693359375,-1.3537670373916626,-0.0715857669711113,0.003,0.0,0.0,0.0,0.0,0.0,0.0,-3.1,3.1,-1.571,1.571,-1.571,1.571,-1.745,1.745,-2.617,2.617,0.003,0.03,-0.05000000074505806,-0.02500000037252903,-0.02500000037252903,-0.02500000037252903,-0.05000000074505806,-0.0005000000237487257,0.05000000074505806,0.02500000037252903,0.02500000037252903,0.02500000037252903,0.05000000074505806,0.0005000000237487257,-0.0241921960065305,-0.0772084090276208,0.15553840685351802,0.14,0.0,0.26,0.023493722081184387,0.0003604174416977912,0.3630453944206238,0.0,-1.161946160185392,-0.6202519100840576
0.0,3.0,0.0,0.025,0.0,0.0,0.0,0.0,0.015339807607233524,-1.2181458473205566,1.0109710693359375,-1.3537670373916626,-0.0715857669711113,0.0,0.015339807607233524,-1.1931458711624146,1.0109710693359375,-1.3537670373916626,-0.0715857669711113,0.003,0.0,0.0,0.0,0.0,0.0,0.0,-3.1,3.1,-1.571,1.571,-1.571,1.571,-1.745,1.745,-2.617,2.617,0.003,0.03,-0.05000000074505806,-0.02500000037252903,-0.02500000037252903,-0.02500000037252903,-0.05000000074505806,-0.0005000000237487257,0.05000000074505806,0.02500000037252903,0.02500000037252903,0.02500000037252903,0.05000000074505806,0.0005000000237487257,-0.022706968558226865,-0.09991537758584766,0.1506883159313517,0.14,0.0,0.26,0.02943618968129158,0.00045158088323660195,0.362383633852005,0.0,-1.164021821319916,-0.4981586722857756
0.0,4.0,0.0,0.025,0.0,0.0,0.0,0.0,0.015339807607233524,-1.1931458711624146,1.0109710693359375,-1.3537670373916626,-0.0715857669711113,0.0,0.015339807607233524,-1.1681458950042725,1.0109710693359375,-1.3537670373916626,-0.0715857669711113,0.003,0.0,0.0,0.0,0.0,0.0,0.0,-3.1,3.1,-1.571,1.571,-1.571,1.571,-1.745,1.745,-2.617,2.617,0.003,0.03,-0.05000000074505806,-0.02500000037252903,-0.02500000037252903,-0.02500000037252903,-0.05000000074505806,-0.0005000000237487257,0.05000000074505806,0.02500000037252903,0.02500000037252903,0.02500000037252903,0.05000000074505806,0.0005000000237487257,-0.021266955331291793,-0.12118233291713945,0.14583194208160224,0.14,0.0,0.26,0.03536025807261467,0.0005424621049314737,0.36157354712486267,0.0,-1.165529723939871,-0.3618966287891823
0.0,5.0,0.0,0.025,0.0,0.0,0.0,0.0,0.015339807607233524,-1.1681458950042725,1.0109710693359375,-1.3537670373916626,-0.0715857669711113,0.0,0.015339807607233524,-1.1431459188461304,1.0109710693359375,-1.3537670373916626,-0.0715857669711113,0.003,0.0,0.0,0.0,0.0,0.0,0.0,-3.1,3.1,-1.571,1.571,-1.571,1.571,-1.745,1.745,-2.617,2.617,0.003,0.03,-0.05000000074505806,-0.02500000037252903,-0.02500000037252903,-0.02500000037252903,-0.05000000074505806,-0.0005000000237487257,0.05000000074505806,0.02500000037252903,0.02500000037252903,0.02500000037252903,0.05000000074505806,0.0005000000237487257,-0.01987304876237946,-0.14105538167951892,0.1409718013021734,0.14,0.0,0.26,0.04126223176717758,0.0006330043543130159,0.360615611076355,0.0,-1.1664337870629216,-0.21697514953213926
0.0,6.0,0.0,0.025,0.0,0.0,0.0,0.0,0.015339807607233524,-1.1431459188461304,1.0109710693359375,-1.3537670373916626,-0.0715857669711113,0.0,0.015339807607233524,-1.1181459426879883,1.0109710693359375,-1.3537670373916626,-0.0715857669711113,0.003,0.0,0.0,0.0,0.0,0.0,0.0,-3.1,3.1,-1.571,1.571,-1.571,1.571,-1.745,1.745,-2.617,2.617,0.003,0.03,-0.05000000074505806,-0.02500000037252903,-0.02500000037252903,-0.02500000037252903,-0.05000000074505806,-0.0005000000237487257,0.05000000074505806,0.02500000037252903,0.02500000037252903,0.02500000037252903,0.05000000074505806,0.0005000000237487257,-0.018526120902032008,-0.15958150258155093,0.13611069356237962,0.14,0.0,0.26,0.04713841527700424,0.0007231509662233293,0.3595104217529297,0.0,-1.1666658575505084,-0.05569691702085322
0.0,7.0,0.0,0.025,0.0,0.0,0.0,0.0,0.015339807607233524,-1.1181459426879883,1.0109710693359375,-1.3537670373916626,-0.0715857669711113,0.0,0.015339807607233524,-1.0931459665298462,1.0109710693359375,-1.3537670373916626,-0.0715857669711113,0.003,0.0,0.0,0.0,0.0,0.0,0.0,-3.1,3.1,-1.571,1.571,-1.571,1.571,-1.745,1.745,-2.617,2.617,0.003,0.03,-0.05000000074505806,-0.02500000037252903,-0.02500000037252903,-0.02500000037252903,-0.05000000074505806,-0.0005000000237487257,0.05000000074505806,0.02500000037252903,0.02500000037252903,0.02500000037252903,0.05000000074505806,0.0005000000237487257,-0.01722701189009356,-0.1768085144716445,0.1312517119510963,0.14,0.0,0.26,0.052985139191150665,0.0008128455956466496,0.3582586646080017,0.0,-1.1661555867079954,0.1224650022031426
0.0,8.0,0.0,0.025,0.0,0.0,0.0,0.0,0.015339807607233524,-1.0931459665298462,1.0109710693359375,-1.3537670373916626,-0.0715857669711113,0.0,0.015339807607233524,-1.068145990371704,1.0109710693359375,-1.3537670373916626,-0.0715857669711113,0.003,0.0,0.0,0.0,0.0,0.0,0.0,-3.1,3.1,-1.571,1.571,-1.571,1.571,-1.745,1.745,-2.617,2.617,0.003,0.03,-0.05000000074505806,-0.02500000037252903,-0.02500000037252903,-0.02500000037252903,-0.05000000074505806,-0.0005000000237487257,0.05000000074505806,0.02500000037252903,0.02500000037252903,0.02500000037252903,0.05000000074505806,0.0005000000237487257,-0.01597653172383528,-0.1927850461954798,0.12639830585824827,0.14,0.0,0.26,0.05879875272512436,0.000902032305020839,0.3568611145019531,0.0,-1.1648174622835294,0.3211498618718167
0.0,9.0,0.0,0.025,0.0,0.0,0.0,0.0,0.015339807607233524,-1.068145990371704,1.0109710693359375,-1.3537670373916626,-0.0715857669711113,0.0,0.015339807607233524,-1.043146014213562,1.0109710693359375,-1.3537670373916626,-0.0715857669711113,0.003,0.0,0.0,0.0,0.0,0.0,0.0,-3.1,3.1,-1.571,1.571,-1.571,1.571,-1.745,1.745,-2.617,2.617,0.003,0.03,-0.05000000074505806,-0.02500000037252903,-0.02500000037252903,-0.02500000037252903,-0.05000000074505806,-0.0005000000237487257,0.05000000074505806,0.02500000037252903,0.02500000037252903,0.02500000037252903,0.05000000074505806,0.0005000000237487257,-0.014775473295585971,-0.20756051949106577,0.12155440467373435,0.14,0.0,0.26,0.06457561254501343,0.0009906551567837596,0.35531869530677795,0.0,-1.1625362842833398,0.5474827200455223
0.0,10.0,0.0,0.025,0.0,0.0,0.0,0.0,0.015339807607233524,-1.043146014213562,1.0109710693359375,-1.3537670373916626,-0.0715857669711113,0.0,0.015339807607233524,-1.01814603805542,1.0109710693359375,-1.3537670373916626,-0.0715857669711113,0.003,0.0,0.0,0.0,0.0,0.0,0.0,-3.1,3.1,-1.571,1.571,-1.571,1.571,-1.745,1.745,-2.617,2.617,0.003,0.03,-0.05000000074505806,-0.02500000037252903,-0.02500000037252903,-0.02500000037252903,-0.05000000074505806,-0.0005000000237487257,0.05000000074505806,0.02500000037252903,0.02500000037252903,0.02500000037252903,0.05000000074505806,0.0005000000237487257,-0.013624571929036936,-0.2211850914201027,0.11672434163034262,0.14,0.0,0.26,0.07031212002038956,0.0010786589700728655,0.3536323010921478,0.0,-1.1592151304140152,0.7970769286378854
0.0,11.0,0.0,0.025,0.0,0.0,0.0,0.0,0.015339807607233524,-1.01814603805542,1.0109710693359375,-1.3537670373916626,-0.0715857669711113,0.0,0.015339807607233524,-0.9931460618972778,1.0109710693359375,-1.3537670373916626,-0.0715857669711113,0.003,0.0,0.0,0.0,0.0,0.0,0.0,-3.1,3.1,-1.571,1.571,-1.571,1.571,-1.745,1.745,-2.617,2.617,0.003,0.03,-0.05000000074505806,-0.02500000037252903,-0.02500000037252903,-0.02500000037252903,-0.05000000074505806,-0.0005000000237487257,0.05000000074505806,0.02500000037252903,0.02500000037252903,0.02500000037252903,0.05000000074505806,0.0005000000237487257,-0.012524557154552144,-0.23370964857465484,0.11191316792295777,0.14,0.0,0.26,0.07600468397140503,0.0011659886222332716,0.3518030345439911,0.0,-1.1546816897723633,1.0880257539964688
0.0,12.0,0.0,0.025,0.0,0.0,0.0,0.0,0.015339807607233524,-0.9931460618972778,1.0109710693359375,-1.3537670373916626,-0.0715857669711113,0.0,0.015339807607233524,-0.9681460857391357,1.0109710693359375,-1.3537670373916626,-0.0715857669711113,0.003,0.0,0.0,0.0,0.0,0.0,0.0,-3.1,3.1,-1.571,1.571,-1.571,1.571,-1.745,1.745,-2.617,2.617,0.003,0.03,-0.05000000074505806,-0.02500000037252903,-0.02500000037252903,-0.02500000037252903,-0.05000000074505806,-0.0005000000237487257,0.05000000074505806,0.02500000037252903,0.02500000037252903,0.02500000037252903,0.05000000074505806,0.0005000000237487257,-0.011476114751995815,-0.24518576332665065,0.10712662951850868,0.14,0.0,0.26,0.08164974302053452,0.001252589630894363,0.34983202815055847,0.0,-1.1487692170677821,1.4189934490994816
0.0,13.0,0.0,0.025,0.0,0.0,0.0,0.0,0.015339807607233524,-0.9681460857391357,1.0109710693359375,-1.3537670373916626,-0.0715857669711113,0.0,0.015339807607233524,-0.9431461095809937,1.0109710693359375,-1.3537670373916626,-0.0715857669711113,0.003,0.0,0.0,0.0,0.0,0.0,0.0,-3.1,3.1,-1.571,1.571,-1.571,1.571,-1.745,1.745,-2.617,2.617,0.003,0.03,-0.05000000074505806,-0.02500000037252903,-0.02500000037252903,-0.02500000037252903,-0.05000000074505806,-0.0005000000237487257,0.05000000074505806,0.02500000037252903,0.02500000037252903,0.02500000037252903,0.05000000074505806,0.0005000000237487257,-0.010479896820054823,-0.2556656601467055,0.10237136718855924,0.14,0.0,0.26,0.08724378049373627,0.0013384077465161681,0.34772050380706787,0.0,-1.1412629591878654,1.801501891180024
0.0,14.0,0.0,0.025,0.0,0.0,0.0,0.0,0.015339807607233524,-0.9431461095809937,1.0109710693359375,-1.3537670373916626,-0.0715857669711113,0.0,0.015339807607233524,-0.9181461334228516,1.0109710693359375,-1.3537670373916626,-0.0715857669711113,0.003,0.0,0.0,0.0,0.0,0.0,0.0,-3.1,3.1,-1.571,1.571,-1.571,1.571,-1.745,1.745,-2.617,2.617,0.003,0.03,-0.05000000074505806,-0.02500000037252903,-0.02500000037252903,-0.02500000037252903,-0.05000000074505806,-0.0005000000237487257,0.05000000074505806,0.02500000037252903,0.02500000037252903,0.02500000037252903,0.05000000074505806,0.0005000000237487257,-0.009536526073305662,-0.2652021862200112,0.09765513848899945,0.14,0.0,0.26,0.09278328716754913,0.0014233894180506468,0.34546977281570435,0.0,-1.131894887894349,2.2483371104438987
0.0,15.0,0.0,0.025,0.0,0.0,0.0,0.0,0.015339807607233524,-0.9181461334228516,1.0109710693359375,-1.3537670373916626,-0.0715857669711113,0.0,0.015339807607233524,-0.8931461572647095,1.0109710693359375,-1.3537670373916626,-0.0715857669711113,0.003,0.0,0.0,0.0,0.0,0.0,0.0,-3.1,3.1,-1.571,1.571,-1.571,1.571,-1.745,1.745,-2.617,2.617,0.003,0.03,-0.05000000074505806,-0.02500000037252903,-0.02500000037252903,-0.02500000037252903,-0.05000000074505806,-0.0005000000237487257,0.05000000074505806,0.02500000037252903,0.02500000037252903,0.02500000037252903,0.05000000074505806,0.0005000000237487257,-0.008646595007568484,-0.27384878122757966,0.09298706903418606,0.14,0.0,0.26,0.09826481342315674,0.0015074815601110458,0.3430812656879425,0.0,-1.1203366691552141,2.7739724973923963
0.0,16.0,0.0,0.025,0.0,0.0,0.0,0.0,0.015339807607233524,-0.8931461572647095,1.0109710693359375,-1.3537670373916626,-0.0715857669711113,0.0,0.015339807607233524,-0.8681461811065674,1.0109710693359375,-1.3537670373916626,-0.0715857669711113,0.003,0.0,0.0,0.0,0.0,0.0,0.0,-3.1,3.1,-1.571,1.571,-1.571,1.571,-1.745,1.745,-2.617,2.617,0.003,0.03,-0.05000000074505806,-0.02500000037252903,-0.02500000037252903,-0.02500000037252903,-0.05000000074505806,-0.0005000000237487257,0.05000000074505806,0.02500000037252903,0.02500000037252903,0.02500000037252903,0.05000000074505806,0.0005000000237487257,-0.007810660082263835,-0.2816594413098435,0.08837793888897746,0.14,0.0,0.26,0.1036849245429039,0.0015906315529718995,0.34055647253990173,0.0,-1.1061912348500635,3.39490423323614
0.0,17.0,0.0,0.025,0.0,0.0,0.0,0.0,0.015339807607233524,-0.8681461811065674,1.0109710693359375,-1.3537670373916626,-0.0715857669711113,0.0,0.015339807607233524,-0.8431462049484253,1.0109710693359375,-1.3537670373916626,-0.0715857669711113,0.003,0.0,0.0,0.0,0.0,0.0,0.0,-3.1,3.1,-1.571,1.571,-1.571,1.571,-1.745,1.745,-2.617,2.617,0.003,0.03,-0.05000000074505806,-0.02500000037252903,-0.02500000037252903,-0.02500000037252903,-0.05000000074505806,-0.0005000000237487257,0.05000000074505806,0.02500000037252903,0.02500000037252903,0.02500000037252903,0.05000000074505806,0.0005000000237487257,-0.00702924346946589,-0.28868868477930937,0.08384058366606169,0.14,0.0,0.26,0.10904023796319962,0.001672787475399673,0.3378969728946686,0.0,-1.0889652534997862,4.134235524066554
0.0,18.0,0.0,0.025,0.0,0.0,0.0,0.0,0.015339807607233524,-0.8431462049484253,1.0109710693359375,-1.3537670373916626,-0.0715857669711113,0.0,0.015339807607233524,-0.8181462287902832,1.0109710693359375,-1.3537670373916626,-0.0715857669711113,0.003,0.0,0.0,0.0,0.0,0.0,0.0,-3.1,3.1,-1.571,1.571,-1.571,1.571,-1.745,1.745,-2.617,2.617,0.003,0.03,-0.05000000074505806,-0.02500000037252903,-0.02500000037252903,-0.02500000037252903,-0.05000000074505806,-0.0005000000237487257,0.05000000074505806,0.02500000037252903,0.02500000037252903,0.02500000037252903,0.05000000074505806,0.0005000000237487257,-0.00630283028370863,-0.294991515063018,0.07939036644145579,0.14,0.0,0.26,0.11432740092277527,0.0017538978718221188,0.33510440587997437,0.0,-1.068052133905415,5.019148702649101
0.0,19.0,0.0,0.025,0.0,0.0,0.0,0.0,0.015339807607233524,-0.8181462287902832,1.0109710693359375,-1.3537670373916626,-0.0715857669711113,0.0,0.015339807607233524,-0.7931462526321411,1.0109710693359375,-1.3537670373916626,-0.0715857669711113,0.003,0.0,0.0,0.0,0.0,0.0,0.0,-3.1,3.1,-1.571,1.571,-1.571,1.571,-1.745,1.745,-2.617,2.617,0.003,0.03,-0.05000000074505806,-0.02500000037252903,-0.02500000037252903,-0.02500000037252903,-0.05000000074505806,-0.0005000000237487257,0.05000000074505806,0.02500000037252903,0.02500000037252903,0.02500000037252903,0.05000000074505806,0.0005000000237487257,-0.005631876049464758,-0.30062339111248276,0.07504582632941527,0.14,0.0,0.26,0.11954312026500702,0.001833912217989564,0.33218052983283997,0.0,-1.0426896268897257,6.087001683765436
0.0,20.0,0.0,0.025,0.0,0.0,0.0,0.0,0.015339807607233524,-0.7931462526321411,1.0109710693359375,-1.3537670373916626,-0.0715857669711113,0.0,0.015339807607233524,-0.768146276473999,1.0109710693359375,-1.3537670373916626,-0.0715857669711113,0.003,0.0,0.0,0.0,0.0,0.0,0.0,-3.1,3.1,-1.571,1.571,-1.571,1.571,-1.745,1.745,-2.617,2.617,0.003,0.03,-0.05000000074505806,-0.02500000037252903,-0.02500000037252903,-0.02500000037252903,-0.05000000074505806,-0.0005000000237487257,0.05000000074505806,0.02500000037252903,0.02500000037252903,0.02500000037252903,0.05000000074505806,0.0005000000237487257,-0.005016799600894428,-0.30564019071337717,0.07082936962090251,0.14,0.0,0.26,0.12468411773443222,0.001912780455313623,0.32912716269493103,0.0,-1.0119496100430614,7.377604043199426
0.0,21.0,0.0,0.025,0.0,0.0,0.0,0.0,0.015339807607233524,-0.768146276473999,1.0109710693359375,-1.3537670373916626,-0.0715857669711113,0.0,0.015339807607233524,-0.7431463003158569,1.0109710693359375,-1.3537670373916626,-0.0715857669711113,0.003,0.0,0.0,0.0,0.0,0.0,0.0,-3.1,3.1,-1.571,1.571,-1.571,1.571,-1.745,1.745,-2.617,2.617,0.003,0.03,-0.05000000074505806,-0.02500000037252903,-0.02500000037252903,-0.02500000037252903,-0.05000000074505806,-0.0005000000237487257,0.05000000074505806,0.02500000037252903,0.02500000037252903,0.02500000037252903,0.05000000074505806,0.0005000000237487257,-0.004457988656634799,-0.310098179370012,0.06676817098464506,0.14,0.0,0.26,0.1297471970319748,0.001990453340113163,0.32594624161720276,0.0,-0.9746876727017884,8.942864961905528
0.0,22.0,0.0,0.025,0.0,0.0,0.0,0.0,0.015339807607233524,-0.7431463003158569,1.0109710693359375,-1.3537670373916626,-0.0715857669711113,0.0,0.015339807607233524,-0.7181463241577148,1.0109710693359375,-1.3537670373916626,-0.0715857669711113,0.003,0.0,0.0,0.0,0.0,0.0,0.0,-3.1,3.1,-1.571,1.571,-1.571,1.571,-1.745,1.745,-2.617,2.617,0.003,0.03,-0.05000000074505806,-0.02500000037252903,-0.02500000037252903,-0.02500000037252903,-0.05000000074505806,-0.0005000000237487257,0.05000000074505806,0.02500000037252903,0.02500000037252903,0.02500000037252903,0.05000000074505806,0.0005000000237487257,-0.003955789641722153,-0.31405396901173416,0.06289506850081454,0.14,0.0,0.26,0.13472919166088104,0.0020668820943683386,0.32263973355293274,0.0,-0.9295445961193249,10.83433837979122
0.0,23.0,0.0,0.025,0.0,0.0,0.0,0.0,0.015339807607233524,-0.7181463241577148,1.0109710693359375,-1.3537670373916626,-0.0715857669711113,0.0,0.015339807607233524,-0.6931463479995728,1.0109710693359375,-1.3537670373916626,-0.0715857669711113,0.003,0.0,0.0,0.0,0.0,0.0,0.0,-3.1,3.1,-1.571,1.571,-1.571,1.571,-1.745,1.745,-2.617,2.617,0.003,0.03,-0.05000000074505806,-0.02500000037252903,-0.02500000037252903,-0.02500000037252903,-0.05000000074505806,-0.0005000000237487257,0.05000000074505806,0.02500000037252903,0.02500000037252903,0.02500000037252903,0.05000000074505806,0.0005000000237487257,-0.0035105153555860763,-0.3175644843673202,0.059249602155508826,0.14,0.0,0.26,0.13962697982788086,0.0021420191042125225,0.3192096948623657,0.0,-0.8749119228733715,13.111841579028827
0.0,24.0,0.0,0.025,0.0,0.0,0.0,0.0,0.015339807607233524,-0.6931463479995728,1.0109710693359375,-1.3537670373916626,-0.0715857669711113,0.0,0.015339807607233524,-0.6681463718414307,1.0109710693359375,-1.3537670373916626,-0.0715857669711113,0.003,0.0,0.0,0.0,0.0,0.0,0.0,-3.1,3.1,-1.571,1.571,-1.571,1.571,-1.745,1.745,-2.617,2.617,0.003,0.03,-0.05000000074505806,-0.02500000037252903,-0.02500000037252903,-0.02500000037252903,-0.05000000074505806,-0.0005000000237487257,0.05000000074505806,0.02500000037252903,0.02500000037252903,0.02500000037252903,0.05000000074505806,0.0005000000237487257,-0.003122447929321856,-0.3206869322966421,0.05587886836114218,0.14,0.0,0.26,0.1444375216960907,0.0022158175706863403,0.315658301115036,0.0,-0.8089761106479959,15.824594934090142
0.0,25.0,0.0,0.025,0.0,0.0,0.0,0.0,0.015339807607233524,-0.6681463718414307,1.0109710693359375,-1.3537670373916626,-0.0715857669711113,0.0,0.015339807607233524,-0.6431463956832886,1.0109710693359375,-1.3537670373916626,-0.0715857669711113,0.003,0.0,0.0,0.0,0.0,0.0,0.0,-3.1,3.1,-1.571,1.571,-1.571,1.571,-1.745,1.745,-2.617,2.617,0.003,0.03,-0.05000000074505806,-0.02500000037252903,-0.02500000037252903,-0.02500000037252903,-0.05000000074505806,-0.0005000000237487257,0.05000000074505806,0.02500000037252903,0.02500000037252903,0.02500000037252903,0.05000000074505806,0.0005000000237487257,-0.002791824739450734,-0.3234787570360928,0.052837720801059675,0.14,0.0,0.26,0.14915777742862701,0.002288231160491705,0.3119877278804779,0.0,-0.7298754144198005,18.98416709476689
0.0,26.0,0.0,0.025,0.0,0.0,0.0,0.0,0.015339807607233524,-0.6431463956832886,1.0109710693359375,-1.3537670373916626,-0.0715857669711113,0.0,0.015339807607233524,-0.6181464195251465,1.0109710693359375,-1.3537670373916626,-0.0715857669711113,0.003,0.0,0.0,0.0,0.0,0.0,0.0,-3.1,3.1,-1.571,1.571,-1.571,1.571,-1.745,1.745,-2.617,2.617,0.003,0.03,-0.05000000074505806,-0.02500000037252903,-0.02500000037252903,-0.02500000037252903,-0.05000000074505806,-0.0005000000237487257,0.05000000074505806,0.02500000037252903,0.02500000037252903,0.02500000037252903,0.05000000074505806,0.0005000000237487257,-0.0025188562278521693,-0.325997613263945,0.050188208055799016,0.14,0.0,0.26,0.1537848263978958,0.0023592147044837475,0.30820029973983765,0.0,-0.635883058862558,22.558165333738202
0.0,27.0,0.0,0.025,0.0,0.0,0.0,0.0,0.015339807607233524,-0.6181464195251465,1.0109710693359375,-1.3537670373916626,-0.0715857669711113,0.0,0.015339807607233524,-0.5931464433670044,1.0109710693359375,-1.3537670373916626,-0.0715857669711113,0.003,0.0,0.0,0.0,0.0,0.0,0.0,-3.1,3.1,-1.571,1.571,-1.571,1.571,-1.745,1.745,-2.617,2.617,0.003,0.03,-0.05000000074505806,-0.02500000037252903,-0.02500000037252903,-0.02500000037252903,-0.05000000074505806,-0.0005000000237487257,0.05000000074505806,0.02500000037252903,0.02500000037252903,0.02500000037252903,0.05000000074505806,0.0005000000237487257,-0.002303713643326158,-0.32830132690727115,0.047997017025291876,0.14,0.0,0.26,0.1583157479763031,0.00242872373200953,0.30429840087890625,0.0,-0.5258858473217137,26.39933076980263
0.0,28.0,0.0,0.025,0.0,0.0,0.0,0.0,0.015339807607233524,-0.5931464433670044,1.0109710693359375,-1.3537670373916626,-0.0715857669711113,0.0,0.015339807607233524,-0.5681464672088623,1.0109710693359375,-1.3537670373916626,-0.0715857669711113,0.003,0.0,0.0,0.0,0.0,0.0,0.0,-3.1,3.1,-1.571,1.571,-1.571,1.571,-1.745,1.745,-2.617,2.617,0.003,0.03,-0.05000000074505806,-0.02500000037252903,-0.02500000037252903,-0.02500000037252903,-0.05000000074505806,-0.0005000000237487257,0.05000000074505806,0.02500000037252903,0.02500000037252903,0.02500000037252903,0.05000000074505806,0.0005000000237487257,-0.0021465274253462084,-0.33044785433261736,0.0463306316096188,0.14,0.0,0.26,0.16274774074554443,0.002496714936569333,0.30028441548347473,0.0,-0.3999324997615389,30.228803414441963
0.0,29.0,0.0,0.025,0.0,0.0,0.0,0.0,0.015339807607233524,-0.5681464672088623,1.0109710693359375,-1.3537670373916626,-0.0715857669711113,0.0,0.015339807607233524,-0.5431464910507202,1.0109710693359375,-1.3537670373916626,-0.0715857669711113,0.003,0.0,0.0,0.0,0.0,0.0,0.0,-3.1,3.1,-1.571,1.571,-1.571,1.571,-1.745,1.745,-2.617,2.617,0.003,0.03,-0.05000000074505806,-0.02500000037252903,-0.02500000037252903,-0.02500000037252903,-0.05000000074505806,-0.0005000000237487257,0.05000000074505806,0.02500000037252903,0.02500000037252903,0.02500000037252903,0.05000000074505806,0.0005000000237487257,-0.002047399947701166,-0.3324952542803185,0.04524820380635198,0.14,0.0,0.26,0.16707801818847656,0.002563145710155368,0.29616090655326843,0.0,-0.25978267278403633,33.63595847460061
0.0,30.0,0.0,0.025,0.0,0.0,0.0,0.0,0.015339807607233524,-0.5431464910507202,1.0109710693359375,-1.3537670373916626,-0.0715857669711113,0.0,0.015339807607233524,-0.5181465148925781,1.0109710693359375,-1.3537670373916626,-0.0715857669711113,0.003,0.0,0.0,0.0,0.0,0.0,0.0,-3.1,3.1,-1.571,1.571,-1.571,1.571,-1.745,1.745,-2.617,2.617,0.003,0.03,-0.05000000074505806,-0.02500000037252903,-0.02500000037252903,-0.02500000037252903,-0.05000000074505806,-0.0005000000237487257,0.05000000074505806,0.02500000037252903,0.02500000037252903,0.02500000037252903,0.05000000074505806,0.0005000000237487257,-0.0020063902630565625,-0.33450164454337505,0.044792747884636,0.14,0.0,0.26,0.1713038831949234,0.002627974608913064,0.2919304072856903,0.0,-0.10930942121183562,36.11358037732817
0.0,31.0,0.0,0.025,0.0,0.0,0.0,0.0,0.015339807607233524,-0.5181465148925781,1.0109710693359375,-1.3537670373916626,-0.0715857669711113,0.0,0.015339807607233524,-0.49314650893211365,1.0109710693359375,-1.3537670373916626,-0.0715857669711113,0.003,0.0,0.0,0.0,0.0,0.0,0.0,-3.1,3.1,-1.571,1.571,-1.571,1.571,-1.745,1.745,-2.617,2.617,0.003,0.03,-0.05000000074505806,-0.02500000037252903,-0.02500000037252903,-0.02500000037252903,-0.05000000074505806,-0.0005000000237487257,0.05000000074505806,0.02500000037252903,0.02500000037252903,0.02500000037252903,0.05000000074505806,0.0005000000237487257,-0.0020235259789988624,-0.3365251705223739,0.04498361900735492,0.14,0.0,0.26,0.17542268335819244,0.0026911613531410694,0.28759559988975525,0.0,0.04580906945254093,37.22843775945037
0.0,32.0,0.0,0.025,0.0,0.0,0.0,0.0,0.015339807607233524,-0.49314650893211365,1.0109710693359375,-1.3537670373916626,-0.0715857669711113,0.0,0.015339807607233524,-0.46814650297164917,1.0109710693359375,-1.3537670373916626,-0.0715857669711113,0.003,0.0,0.0,0.0,0.0,0.0,0.0,-3.1,3.1,-1.571,1.571,-1.571,1.571,-1.745,1.745,-2.617,2.617,0.003,0.03,-0.05000000074505806,-0.02500000037252903,-0.02500000037252903,-0.02500000037252903,-0.05000000074505806,-0.0005000000237487257,0.05000000074505806,0.02500000037252903,0.02500000037252903,0.02500000037252903,0.05000000074505806,0.0005000000237487257,-0.002098795409495718,-0.3386239659318696,0.04581261190431864,0.14,0.0,0.26,0.17943185567855835,0.0027526661287993193,0.28315916657447815,0.0,0.1989582952712926,36.7558141965004
0.0,33.0,0.0,0.025,0.0,0.0,0.0,0.0,0.015339807607233524,-0.46814650297164917,1.0109710693359375,-1.3537670373916626,-0.0715857669711113,0.0,0.015339807607233524,-0.4431464970111847,1.0109710693359375,-1.3537670373916626,-0.0715857669711113,0.003,0.0,0.0,0.0,0.0,0.0,0.0,-3.1,3.1,-1.571,1.571,-1.571,1.571,-1.745,1.745,-2.617,2.617,0.003,0.03,-0.05000000074505806,-0.02500000037252903,-0.02500000037252903,-0.02500000037252903,-0.05000000074505806,-0.0005000000237487257,0.05000000074505806,0.02500000037252903,0.02500000037252903,0.02500000037252903,0.05000000074505806,0.0005000000237487257,-0.002232152039802939,-0.34085611797167253,0.04724565630619326,0.14,0.0,0.26,0.18332889676094055,0.0028124505188316107,0.27862387895584106,0.0,0.34393065644991005,34.79336668286819
0.0,34.0,0.0,0.025,0.0,0.0,0.0,0.0,0.015339807607233524,-0.4431464970111847,1.0109710693359375,-1.3537670373916626,-0.0715857669711113,0.0,0.015339807607233524,-0.4181464910507202,1.0109710693359375,-1.3537670373916626,-0.0715857669711113,0.003,0.0,0.0,0.0,0.0,0.0,0.0,-3.1,3.1,-1.571,1.571,-1.571,1.571,-1.745,1.745,-2.617,2.617,0.003,0.03,-0.05000000074505806,-0.02500000037252903,-0.02500000037252903,-0.02500000037252903,-0.05000000074505806,-0.0005000000237487257,0.05000000074505806,0.02500000037252903,0.02500000037252903,0.02500000037252903,0.05000000074505806,0.0005000000237487257,-0.0024235115423881307,-0.34327962951406066,0.04922917369190885,0.14,0.0,0.26,0.18711134791374207,0.002870477270334959,0.2739925980567932,0.0,0.47604417257174125,31.707243869239488
0.0,35.0,0.0,0.025,0.0,0.0,0.0,0.0,0.015339807607233524,-0.4181464910507202,1.0109710693359375,-1.3537670373916626,-0.0715857669711113,0.0,0.015339807607233524,-0.39314648509025574,1.0109710693359375,-1.3537670373916626,-0.0715857669711113,0.003,0.0,0.0,0.0,0.0,0.0,0.0,-3.1,3.1,-1.571,1.571,-1.571,1.571,-1.745,1.745,-2.617,2.617,0.003,0.03,-0.05000000074505806,-0.02500000037252903,-0.02500000037252903,-0.02500000037252903,-0.05000000074505806,-0.0005000000237487257,0.05000000074505806,0.02500000037252903,0.02500000037252903,0.02500000037252903,0.05000000074505806,0.0005000000237487257,-0.0026727553750571426,-0.3459523848891178,0.05169869800156618,0.14,0.0,0.26,0.19077686965465546,0.0029267100617289543,0.2692681849002838,0.0,0.5926858343177588,27.993998819044208
0.0,36.0,0.0,0.025,0.0,0.0,0.0,0.0,0.015339807607233524,-0.39314648509025574,1.0109710693359375,-1.3537670373916626,-0.0715857669711113,0.0,0.015339807607233524,-0.36814647912979126,1.0109710693359375,-1.3537670373916626,-0.0715857669711113,0.003,0.0,0.0,0.0,0.0,0.0,0.0,-3.1,3.1,-1.571,1.571,-1.571,1.571,-1.745,1.745,-2.617,2.617,0.003,0.03,-0.05000000074505806,-0.02500000037252903,-0.02500000037252903,-0.02500000037252903,-0.05000000074505806,-0.0005000000237487257,0.05000000074505806,0.02500000037252903,0.02500000037252903,0.02500000037252903,0.05000000074505806,0.0005000000237487257,-0.00297972826286881,-0.3489321131519866,0.054586887279536374,0.14,0.0,0.26,0.19432316720485687,0.002981113735586405,0.26445361971855164,0.0,0.6931654267128468,24.11510217482111
0.0,37.0,0.0,0.025,0.0,0.0,0.0,0.0,0.015339807607233524,-0.36814647912979126,1.0109710693359375,-1.3537670373916626,-0.0715857669711113,0.0,0.015339807607233524,-0.3431464731693268,1.0109710693359375,-1.3537670373916626,-0.0715857669711113,0.003,0.0,0.0,0.0,0.0,0.0,0.0,-3.1,3.1,-1.571,1.571,-1.571,1.571,-1.745,1.745,-2.617,2.617,0.003,0.03,-0.05000000074505806,-0.02500000037252903,-0.02500000037252903,-0.02500000037252903,-0.05000000074505806,-0.0005000000237487257,0.05000000074505806,0.02500000037252903,0.02500000037252903,0.02500000037252903,0.05000000074505806,0.0005000000237487257,-0.003344235994021671,-0.35227634914600825,0.05782936964918147,0.14,0.0,0.26,0.19774800539016724,0.003033654298633337,0.25955188274383545,0.0,0.7781957687148233,20.407282080474374
0.0,38.0,0.0,0.025,0.0,0.0,0.0,0.0,0.015339807607233524,-0.3431464731693268,1.0109710693359375,-1.3537670373916626,-0.0715857669711113,0.0,0.015339807607233524,-0.3181464672088623,1.0109710693359375,-1.3537670373916626,-0.0715857669711113,0.003,0.0,0.0,0.0,0.0,0.0,0.0,-3.1,3.1,-1.571,1.571,-1.571,1.571,-1.745,1.745,-2.617,2.617,0.003,0.03,-0.05000000074505806,-0.02500000037252903,-0.02500000037252903,-0.02500000037252903,-0.05000000074505806,-0.0005000000237487257,0.05000000074505806,0.02500000037252903,0.02500000037252903,0.02500000037252903,0.05000000074505806,0.0005000000237487257,-0.003766053611275993,-0.3560424027572842,0.06136818077209062,0.14,0.0,0.26,0.20104926824569702,0.0030842989217489958,0.2545660734176636,0.0,0.8493146694981962,17.068536188009496
0.0,39.0,0.0,0.025,0.0,0.0,0.0,0.0,0.015339807607233524,-0.3181464672088623,1.0109710693359375,-1.3537670373916626,-0.0715857669711113,0.0,0.015339807607233524,-0.2931464612483978,1.0109710693359375,-1.3537670373916626,-0.0715857669711113,0.003,0.0,0.0,0.0,0.0,0.0,0.0,-3.1,3.1,-1.571,1.571,-1.571,1.571,-1.745,1.745,-2.617,2.617,0.003,0.03,-0.05000000074505806,-0.02500000037252903,-0.02500000037252903,-0.02500000037252903,-0.05000000074505806,-0.0005000000237487257,0.05000000074505806,0.02500000037252903,0.02500000037252903,0.02500000037252903,0.05000000074505806,0.0005000000237487257,-0.004244914552306095,-0.3602873173095903,0.06515300877400901,0.14,0.0,0.26,0.2042248696088791,0.003133016172796488,0.24949929118156433,0.0,0.9083587204604127,14.170572230931944
0.0,40.0,0.0,0.025,0.0,0.0,0.0,0.0,0.015339807607233524,-0.2931464612483978,1.0109710693359375,-1.3537670373916626,-0.0715857669711113,0.0,0.015339807607233524,-0.26814645528793335,1.0109710693359375,-1.3537670373916626,-0.0715857669711113,0.003,0.0,0.0,0.0,0.0,0.0,0.0,-3.1,3.1,-1.571,1.571,-1.571,1.571,-1.745,1.745,-2.617,2.617,0.003,0.03,-0.05000000074505806,-0.02500000037252903,-0.02500000037252903,-0.02500000037252903,-0.05000000074505806,-0.0005000000237487257,0.05000000074505806,0.02500000037252903,0.02500000037252903,0.02500000037252903,0.05000000074505806,0.0005000000237487257,-0.004780523882053136,-0.3650678411916434,0.0691413326603786,0.14,0.0,0.26,0.20727285742759705,0.003179775085300207,0.24435469508171082,0.0,0.9571977327287018,11.72136294438939
0.0,41.0,0.0,0.025,0.0,0.0,0.0,0.0,0.015339807607233524,-0.26814645528793335,1.0109710693359375,-1.3537670373916626,-0.0715857669711113,0.0,0.015339807607233524,-0.24314644932746887,1.0109710693359375,-1.3537670373916626,-0.0715857669711113,0.003,0.0,0.0,0.0,0.0,0.0,0.0,-3.1,3.1,-1.571,1.571,-1.571,1.571,-1.745,1.745,-2.617,2.617,0.003,0.03,-0.05000000074505806,-0.02500000037252903,-0.02500000037252903,-0.02500000037252903,-0.05000000074505806,-0.0005000000237487257,0.05000000074505806,0.02500000037252903,0.02500000037252903,0.02500000037252903,0.05000000074505806,0.0005000000237487257,-0.005372542735696991,-0.3704403839273404,0.07329763117384484,0.14,0.0,0.26,0.2101912945508957,0.0032245467882603407,0.2391355037689209,0.0,0.9975116432318987,9.675338520767252
0.0,42.0,0.0,0.025,0.0,0.0,0.0,0.0,0.015339807607233524,-0.24314644932746887,1.0109710693359375,-1.3537670373916626,-0.0715857669711113,0.0,0.015339807607233524,-0.2181464433670044,1.0109710693359375,-1.3537670373916626,-0.0715857669711113,0.003,0.0,0.0,0.0,0.0,0.0,0.0,-3.1,3.1,-1.571,1.571,-1.571,1.571,-1.745,1.745,-2.617,2.617,0.003,0.03,-0.05000000074505806,-0.02500000037252903,-0.02500000037252903,-0.02500000037252903,-0.05000000074505806,-0.0005000000237487257,0.05000000074505806,0.02500000037252903,0.02500000037252903,0.02500000037252903,0.05000000074505806,0.0005000000237487257,-0.006020601782650132,-0.37646098570999054,0.0775925369004657,0.14,0.0,0.26,0.21297836303710938,0.00326730334199965,0.23384498059749603,0.0,1.030777374389007,7.98377547770599
0.0,43.0,0.0,0.025,0.0,0.0,0.0,0.0,0.015339807607233524,-0.2181464433670044,1.0109710693359375,-1.3537670373916626,-0.0715857669711113,0.0,0.015339807607233524,-0.19314643740653992,1.0109710693359375,-1.3537670373916626,-0.0715857669711113,0.003,0.0,0.0,0.0,0.0,0.0,0.0,-3.1,3.1,-1.571,1.571,-1.571,1.571,-1.745,1.745,-2.617,2.617,0.003,0.03,-0.05000000074505806,-0.02500000037252903,-0.02500000037252903,-0.02500000037252903,-0.05000000074505806,-0.0005000000237487257,0.05000000074505806,0.02500000037252903,0.02500000037252903,0.02500000037252903,0.05000000074505806,0.0005000000237487257,-0.0067242978480170825,-0.3831852835580076,0.08200181612633395,0.14,0.0,0.26,0.2156323343515396,0.003308017970994115,0.22848643362522125,0.0,1.0582270142083783,6.5879135566491165
0.0,44.0,0.0,0.025,0.0,0.0,0.0,0.0,0.015339807607233524,-0.19314643740653992,1.0109710693359375,-1.3537670373916626,-0.0715857669711113,0.0,0.015339807607233524,-0.16814643144607544,1.0109710693359375,-1.3537670373916626,-0.0715857669711113,0.003,0.0,0.0,0.0,0.0,0.0,0.0,-3.1,3.1,-1.571,1.571,-1.571,1.571,-1.745,1.745,-2.617,2.617,0.003,0.03,-0.05000000074505806,-0.02500000037252903,-0.02500000037252903,-0.02500000037252903,-0.05000000074505806,-0.0005000000237487257,0.05000000074505806,0.02500000037252903,0.02500000037252903,0.02500000037252903,0.05000000074505806,0.0005000000237487257,-0.007483189344118694,-0.3906684729021263,0.08650542956438453,0.14,0.0,0.26,0.2181515395641327,0.0033466650638729334,0.22306321561336517,0.0,1.0808672251321405,5.433650621702935
0.0,45.0,0.0,0.025,0.0,0.0,0.0,0.0,0.015339807607233524,-0.16814643144607544,1.0109710693359375,-1.3537670373916626,-0.0715857669711113,0.0,0.015339807607233524,-0.14314642548561096,1.0109710693359375,-1.3537670373916626,-0.0715857669711113,0.003,0.0,0.0,0.0,0.0,0.0,0.0,-3.1,3.1,-1.571,1.571,-1.571,1.571,-1.745,1.745,-2.617,2.617,0.003,0.03,-0.05000000074505806,-0.02500000037252903,-0.02500000037252903,-0.02500000037252903,-0.05000000074505806,-0.0005000000237487257,0.05000000074505806,0.02500000037252903,0.02500000037252903,0.02500000037252903,0.05000000074505806,0.0005000000237487257,-0.008296803948204161,-0.39896527685033045,0.09108679348952932,0.14,0.0,0.26,0.22053441405296326,0.003383220639079809,0.2175787091255188,0.0,1.0995273420347484,4.478428056625905
0.0,46.0,0.0,0.025,0.0,0.0,0.0,0.0,0.015339807607233524,-0.14314642548561096,1.0109710693359375,-1.3537670373916626,-0.0715857669711113,0.0,0.015339807607233524,-0.11814642697572708,1.0109710693359375,-1.3537670373916626,-0.0715857669711113,0.003,0.0,0.0,0.0,0.0,0.0,0.0,-3.1,3.1,-1.571,1.571,-1.571,1.571,-1.745,1.745,-2.617,2.617,0.003,0.03,-0.05000000074505806,-0.02500000037252903,-0.02500000037252903,-0.02500000037252903,-0.05000000074505806,-0.0005000000237487257,0.05000000074505806,0.02500000037252903,0.02500000037252903,0.02500000037252903,0.05000000074505806,0.0005000000237487257,-0.00916462933282294,-0.40812990618315337,0.09573207055539402,0.14,0.0,0.26,0.22277945280075073,0.003417661879211664,0.2120363563299179,0.0,1.1148664958075294,3.6813969054674267
0.0,47.0,0.0,0.025,0.0,0.0,0.0,0.0,0.015339807607233524,-0.11814642697572708,1.0109710693359375,-1.3537670373916626,-0.0715857669711113,0.0,0.015339807607233524,-0.0931464284658432,1.0109710693359375,-1.3537670373916626,-0.0715857669711113,0.003,0.0,0.0,0.0,0.0,0.0,0.0,-3.1,3.1,-1.571,1.571,-1.571,1.571,-1.745,1.745,-2.617,2.617,0.003,0.03,-0.05000000074505806,-0.02500000037252903,-0.02500000037252903,-0.02500000037252903,-0.05000000074505806,-0.0005000000237487257,0.05000000074505806,0.02500000037252903,0.02500000037252903,0.02500000037252903,0.05000000074505806,0.0005000000237487257,-0.010086126915530097,-0.4182160330986835,0.10042971131856397,0.14,0.0,0.26,0.2248852550983429,0.0034499671310186386,0.20643958449363708,0.0,1.1274337831607872,3.016148964781884
0.0,48.0,0.0,0.025,0.0,0.0,0.0,0.0,0.015339807607233524,-0.0931464284658432,1.0109710693359375,-1.3537670373916626,-0.0715857669711113,0.0,0.015339807607233524,-0.06814642995595932,1.0109710693359375,-1.3537670373916626,-0.0715857669711113,0.003,0.0,0.0,0.0,0.0,0.0,0.0,-3.1,3.1,-1.571,1.571,-1.571,1.571,-1.745,1.745,-2.617,2.617,0.003,0.03,-0.05000000074505806,-0.02500000037252903,-0.02500000037252903,-0.02500000037252903,-0.05000000074505806,-0.0005000000237487257,0.05000000074505806,0.02500000037252903,0.02500000037252903,0.02500000037252903,0.05000000074505806,0.0005000000237487257,-0.011060719181594562,-0.42927675228027806,0.10516995379667408,0.14,0.0,0.26,0.22685052454471588,0.003480116371065378,0.20079194009304047,0.0,1.137658194746427,2.4538587805535528
0.0,49.0,0.0,0.025,0.0,0.0,0.0,0.0,0.015339807607233524,-0.06814642995595932,1.0109710693359375,-1.3537670373916626,-0.0715857669711113,0.0,0.015339807607233524,-0.04314643144607544,1.0109710693359375,-1.3537670373916626,-0.0715857669711113,0.003,0.0,0.0,0.0,0.0,0.0,0.0,-3.1,3.1,-1.571,1.571,-1.571,1.571,-1.745,1.745,-2.617,2.617,0.003,0.03,-0.05000000074505806,-0.02500000037252903,-0.02500000037252903,-0.02500000037252903,-0.05000000074505806,-0.0005000000237487257,0.05000000074505806,0.02500000037252903,0.02500000037252903,0.02500000037252903,0.05000000074505806,0.0005000000237487257,-0.012087797741153213,-0.44136455002143127,0.10994452119661631,0.14,0.0,0.26,0.2286740094423294,0.0035080905072391033,0.1950969099998474,0.0,1.1458961759861341,1.9771154975297023
0.0,50.0,0.0,0.025,0.0,0.0,0.0,0.0,0.015339807607233524,-0.04314643144607544,1.0109710693359375,-1.3537670373916626,-0.0715857669711113,0.0,0.015339807607233524,-0.01814643107354641,1.0109710693359375,-1.3537670373916626,-0.0715857669711113,0.003,0.0,0.0,0.0,0.0,0.0,0.0,-3.1,3.1,-1.571,1.571,-1.571,1.571,-1.745,1.745,-2.617,2.617,0.003,0.03,-0.05000000074505806,-0.02500000037252903,-0.02500000037252903,-0.02500000037252903,-0.05000000074505806,-0.0005000000237487257,0.05000000074505806,0.02500000037252903,0.02500000037252903,0.02500000037252903,0.05000000074505806,0.0005000000237487257,-0.013166720685086734,-0.454531270706518,0.11474633190253505,0.14,0.0,0.26,0.23035459220409393,0.0035338723100721836,0.18935808539390564,0.0,1.1524345694204985,1.5692144242474448
0.0,51.0,0.0,0.025,0.0,0.0,0.0,0.0,0.015339807607233524,-0.01814643107354641,1.0109710693359375,-1.3537670373916626,-0.0715857669711113,0.0,0.015339807607233524,0.00685356929898262,1.0109710693359375,-1.3537670373916626,-0.0715857669711113,0.003,0.0,0.0,0.0,0.0,0.0,0.0,-3.1,3.1,-1.571,1.571,-1.571,1.571,-1.745,1.745,-2.617,2.617,0.003,0.03,-0.05000000074505806,-0.02500000037252903,-0.02500000037252903,-0.02500000037252903,-0.05000000074505806,-0.0005000000237487257,0.05000000074505806,0.02500000037252903,0.02500000037252903,0.02500000037252903,0.05000000074505806,0.0005000000237487257,-0.014296813060443782,-0.4688280837669618,0.11956928142480318,0.14,0.0,0.26,0.2318911999464035,0.0035574454814195633,0.18357902765274048,0.0,1.15750788534435,1.2175958217243377
0.0,52.0,0.0,0.025,0.0,0.0,0.0,0.0,0.015339807607233524,0.00685356929898262,1.0109710693359375,-1.3537670373916626,-0.0715857669711113,0.0,0.015339807607233524,0.0318535715341568,1.0109710693359375,-1.3537670373916626,-0.0715857669711113,0.003,0.0,0.0,0.0,0.0,0.0,0.0,-3.1,3.1,-1.571,1.571,-1.571,1.571,-1.745,1.745,-2.617,2.617,0.003,0.03,-0.05000000074505806,-0.02500000037252903,-0.02500000037252903,-0.02500000037252903,-0.05000000074505806,-0.0005000000237487257,0.05000000074505806,0.02500000037252903,0.02500000037252903,0.02500000037252903,0.05000000074505806,0.0005000000237487257,-0.01547737139696273,-0.48430545516392454,0.12440808413026354,0.14,0.0,0.26,0.2332828938961029,0.003578795352950692,0.17776335775852203,0.0,1.1613126493104864,0.9131433518727583
0.0,53.0,0.0,0.025,0.0,0.0,0.0,0.0,0.015339807607233524,0.0318535715341568,1.0109710693359375,-1.3537670373916626,-0.0715857669711113,0.0,0.015339807607233524,0.05685357004404068,1.0109710693359375,-1.3537670373916626,-0.0715857669711113,0.003,0.0,0.0,0.0,0.0,0.0,0.0,-3.1,3.1,-1.571,1.571,-1.571,1.571,-1.745,1.745,-2.617,2.617,0.003,0.03,-0.05000000074505806,-0.02500000037252903,-0.02500000037252903,-0.02500000037252903,-0.05000000074505806,-0.0005000000237487257,0.05000000074505806,0.02500000037252903,0.02500000037252903,0.02500000037252903,0.05000000074505806,0.0005000000237487257,-0.016707653417347645,-0.5010131085812721,0.12925808840203248,0.14,0.0,0.26,0.2345287948846817,0.003597908653318882,0.1719147264957428,0.0,1.164001025224547,0.6452102193745368
0.0,54.0,0.0,0.025,0.0,0.0,0.0,0.0,0.015339807607233524,0.05685357004404068,1.0109710693359375,-1.3537670373916626,-0.0715857669711113,0.0,0.015339807607233524,0.08185356855392456,1.0109710693359375,-1.3537670373916626,-0.0715857669711113,0.003,0.0,0.0,0.0,0.0,0.0,0.0,-3.1,3.1,-1.571,1.571,-1.571,1.571,-1.745,1.745,-2.617,2.617,0.003,0.03,-0.05000000074505806,-0.02500000037252903,-0.02500000037252903,-0.02500000037252903,-0.05000000074505806,-0.0005000000237487257,0.05000000074505806,0.02500000037252903,0.02500000037252903,0.02500000037252903,0.05000000074505806,0.0005000000237487257,-0.01798689125169896,-0.5189999998329711,0.134115216331701,0.14,0.0,0.26,0.23562811315059662,0.0036147735081613064,0.16603676974773407,0.0,1.1657107031204461,0.41032269501579677
0.0,55.0,0.0,0.025,0.0,0.0,0.0,0.0,0.015339807607233524,0.08185356855392456,1.0109710693359375,-1.3537670373916626,-0.0715857669711113,0.0,0.015339807607233524,0.10685356706380844,1.0109710693359375,-1.3537670373916626,-0.0715857669711113,0.003,0.0,0.0,0.0,0.0,0.0,0.0,-3.1,3.1,-1.571,1.571,-1.571,1.571,-1.745,1.745,-2.617,2.617,0.003,0.03,-0.05000000074505806,-0.02500000037252903,-0.02500000037252903,-0.02500000037252903,-0.05000000074505806,-0.0005000000237487257,0.05000000074505806,0.02500000037252903,0.02500000037252903,0.02500000037252903,0.05000000074505806,0.0005000000237487257,-0.019314287315083167,-0.5383142871480542,0.13897585155372558,0.14,0.0,0.26,0.23658017814159393,0.0036293789744377136,0.16013316810131073,0.0,1.1665524532858962,0.2020200397080174
0.0,56.0,0.0,0.025,0.0,0.0,0.0,0.0,0.015339807607233524,0.10685356706380844,1.0109710693359375,-1.3537670373916626,-0.0715857669711113,0.0,0.015339807607233524,0.13185356557369232,1.0109710693359375,-1.3537670373916626,-0.0715857669711113,0.003,0.0,0.0,0.0,0.0,0.0,0.0,-3.1,3.1,-1.571,1.571,-1.571,1.571,-1.745,1.745,-2.617,2.617,0.003,0.03,-0.05000000074505806,-0.02500000037252903,-0.02500000037252903,-0.02500000037252903,-0.05000000074505806,-0.0005000000237487257,0.05000000074505806,0.02500000037252903,0.02500000037252903,0.02500000037252903,0.05000000074505806,0.0005000000237487257,-0.020689010798582496,-0.5590032979466367,0.14383675051454164,0.14,0.0,0.26,0.2373843789100647,0.0036417164374142885,0.15420760214328766,0.0,1.1666157505958563,0.0151913543904314
0.0,57.0,0.0,0.025,0.0,0.0,0.0,0.0,0.015339807607233524,0.13185356557369232,1.0109710693359375,-1.3537670373916626,-0.0715857669711113,0.0,0.015339807607233524,0.1568535715341568,1.0109710693359375,-1.3537670373916626,-0.0715857669711113,0.003,0.0,0.0,0.0,0.0,0.0,0.0,-3.1,3.1,-1.571,1.571,-1.571,1.571,-1.745,1.745,-2.617,2.617,0.003,0.03,-0.05000000074505806,-0.02500000037252903,-0.02500000037252903,-0.02500000037252903,-0.05000000074505806,-0.0005000000237487257,0.05000000074505806,0.02500000037252903,0.02500000037252903,0.02500000037252903,0.05000000074505806,0.0005000000237487257,-0.022110203301550023,-0.5811135012481867,0.14869500092992374,0.14,0.0,0.26,0.23804022371768951,0.003651777748018503,0.14826378226280212,0.0,1.1659800996917036,-0.15255621699665767
0.0,58.0,0.0,0.025,0.0,0.0,0.0,0.0,0.015339807607233524,0.1568535715341568,1.0109710693359375,-1.3537670373916626,-0.0715857669711113,0.0,0.015339807607233524,0.18185357749462128,1.0109710693359375,-1.3537670373916626,-0.0715857669711113,0.003,0.0,0.0,0.0,0.0,0.0,0.0,-3.1,3.1,-1.571,1.571,-1.571,1.571,-1.745,1.745,-2.617,2.617,0.003,0.03,-0.05000000074505806,-0.02500000037252903,-0.02500000037252903,-0.02500000037252903,-0.05000000074505806,-0.0005000000237487257,0.05000000074505806,0.02500000037252903,0.02500000037252903,0.02500000037252903,0.05000000074505806,0.0005000000237487257,-0.023576979142851198,-0.6046904803910379,0.15354797016844995,0.14,0.0,0.26,0.23854731023311615,0.0036595568526536226,0.1423054188489914,0.0,1.1647126172462907,-0.30419578689908633
0.0,59.0,0.0,0.025,0.0,0.0,0.0,0.0,0.015339807607233524,0.18185357749462128,1.0109710693359375,-1.3537670373916626,-0.0715857669711113,0.0,0.015339807607233524,0.20685358345508575,1.0109710693359375,-1.3537670373916626,-0.0715857669711113,0.003,0.0,0.0,0.0,0.0,0.0,0.0,-3.1,3.1,-1.571,1.571,-1.571,1.571,-1.745,1.745,-2.617,2.617,0.003,0.03,-0.05000000074505806,-0.02500000037252903,-0.02500000037252903,-0.02500000037252903,-0.05000000074505806,-0.0005000000237487257,0.05000000074505806,0.02500000037252903,0.02500000037252903,0.02500000037252903,0.05000000074505806,0.0005000000237487257,-0.025088415600462755,-0.6297788959915006,0.15839323091743143,0.14,0.0,0.26,0.23890531063079834,0.00366504886187613,0.13633625209331512,0.0,1.1628625797555547,-0.44400899777663483
0.0,60.0,0.0,0.025,0.0,0.0,0.0,0.0,0.015339807607233524,0.20685358345508575,1.0109710693359375,-1.3537670373916626,-0.0715857669711113,0.0,0.015339807607233524,0.23185358941555023,1.0109710693359375,-1.3537670373916626,-0.0715857669711113,0.003,0.0,0.0,0.0,0.0,0.0,0.0,-3.1,3.1,-1.571,1.571,-1.571,1.571,-1.745,1.745,-2.617,2.617,0.003,0.03,-0.05000000074505806,-0.02500000037252903,-0.02500000037252903,-0.02500000037252903,-0.05000000074505806,-0.0005000000237487257,0.05000000074505806,0.02500000037252903,0.02500000037252903,0.02500000037252903,0.05000000074505806,0.0005000000237487257,-0.026643572908483668,-0.6564224688999842,0.16322859096519723,0.14,0.0,0.26,0.23911400139331818,0.0036682505160570145,0.13035999238491058,0.0,1.1604864114637925,-0.570280390022937
0.0,61.0,0.0,0.025,0.0,0.0,0.0,0.0,0.015339807607233524,0.23185358941555023,1.0109710693359375,-1.3537670373916626,-0.0715857669711113,0.0,0.015339807607233524,0.2568535804748535,1.0109710693359375,-1.3537670373916626,-0.0715857669711113,0.003,0.0,0.0,0.0,0.0,0.0,0.0,-3.1,3.1,-1.571,1.571,-1.571,1.571,-1.745,1.745,-2.617,2.617,0.003,0.03,-0.05000000074505806,-0.02500000037252903,-0.02500000037252903,-0.02500000037252903,-0.05000000074505806,-0.0005000000237487257,0.05000000074505806,0.02500000037252903,0.02500000037252903,0.02500000037252903,0.05000000074505806,0.0005000000237487257,-0.02824147324173233,-0.6846639421417166,0.16805199564935946,0.14,0.0,0.26,0.23917324841022491,0.003669159486889839,0.12438039481639862,0.0,1.1576171241989353,-0.6886289435657389
0.0,62.0,0.0,0.025,0.0,0.0,0.0,0.0,0.015339807607233524,0.2568535804748535,1.0109710693359375,-1.3537670373916626,-0.0715857669711113,0.0,0.015339807607233524,0.281853586435318,1.0109710693359375,-1.3537670373916626,-0.0715857669711113,0.003,0.0,0.0,0.0,0.0,0.0,0.0,-3.1,3.1,-1.571,1.571,-1.571,1.571,-1.745,1.745,-2.617,2.617,0.003,0.03,-0.05000000074505806,-0.02500000037252903,-0.02500000037252903,-0.02500000037252903,-0.05000000074505806,-0.0005000000237487257,0.05000000074505806,0.02500000037252903,0.02500000037252903,0.02500000037252903,0.05000000074505806,0.0005000000237487257,-0.029881126520974098,-0.7145450686626906,0.17286158196943038,0.14,0.0,0.26,0.23908302187919617,0.003667775308713317,0.1184011697769165,0.0,1.1543007168170205,-0.7959377716595384
0.0,63.0,0.0,0.025,0.0,0.0,0.0,0.0,0.015339807607233524,0.281853586435318,1.0109710693359375,-1.3537670373916626,-0.0715857669711113,0.0,0.015339807607233524,0.30685359239578247,1.0109710693359375,-1.3537670373916626,-0.0715857669711113,0.003,0.0,0.0,0.0,0.0,0.0,0.0,-3.1,3.1,-1.571,1.571,-1.571,1.571,-1.745,1.745,-2.617,2.617,0.003,0.03,-0.05000000074505806,-0.02500000037252903,-0.02500000037252903,-0.02500000037252903,-0.05000000074505806,-0.0005000000237487257,0.05000000074505806,0.02500000037252903,0.02500000037252903,0.02500000037252903,0.05000000074505806,0.0005000000237487257,-0.03156150158873624,-0.7461065702514269,0.17765557010332167,0.14,0.0,0.26,0.2388433814048767,0.0036640989128500223,0.11242607980966568,0.0,1.1505571521339086,-0.8984555239468506
0.0,64.0,0.0,0.025,0.0,0.0,0.0,0.0,0.015339807607233524,0.30685359239578247,1.0109710693359375,-1.3537670373916626,-0.0715857669711113,0.0,0.015339807607233524,0.33185359835624695,1.0109710693359375,-1.3537670373916626,-0.0715857669711113,0.003,0.0,0.0,0.0,0.0,0.0,0.0,-3.1,3.1,-1.571,1.571,-1.571,1.571,-1.745,1.745,-2.617,2.617,0.003,0.03,-0.05000000074505806,-0.02500000037252903,-0.02500000037252903,-0.02500000037252903,-0.05000000074505806,-0.0005000000237487257,0.05000000074505806,0.02500000037252903,0.02500000037252903,0.02500000037252903,0.05000000074505806,0.0005000000237487257,-0.033281549812692206,-0.7793881200641191,0.18243231570281676,0.14,0.0,0.26,0.23845446109771729,0.003658132627606392,0.10645884275436401,0.0,1.146418943878822,-0.9931699812208095
0.0,65.0,0.0,0.025,0.0,0.0,0.0,0.0,0.015339807607233524,0.33185359835624695,1.0109710693359375,-1.3537670373916626,-0.0715857669711113,0.0,0.015339807607233524,0.3568536043167114,1.0109710693359375,-1.3537670373916626,-0.0715857669711113,0.003,0.0,0.0,0.0,0.0,0.0,0.0,-3.1,3.1,-1.571,1.571,-1.571,1.571,-1.745,1.745,-2.617,2.617,0.003,0.03,-0.05000000074505806,-0.02500000037252903,-0.02500000037252903,-0.02500000037252903,-0.05000000074505806,-0.0005000000237487257,0.05000000074505806,0.02500000037252903,0.02500000037252903,0.02500000037252903,0.05000000074505806,0.0005000000237487257,-0.03504020027893521,-0.8144283203430542,0.18719027827036105,0.14,0.0,0.26,0.23791652917861938,0.0036498799454420805,0.10050319135189056,0.0,1.1419110162106305,-1.0819026403659393
0.0,66.0,0.0,0.025,0.0,0.0,0.0,0.0,0.015339807607233524,0.3568536043167114,1.0109710693359375,-1.3537670373916626,-0.0715857669711113,0.0,0.015339807607233524,0.3818536102771759,1.0109710693359375,-1.3537670373916626,-0.0715857669711113,0.003,0.0,0.0,0.0,0.0,0.0,0.0,-3.1,3.1,-1.571,1.571,-1.571,1.571,-1.745,1.745,-2.617,2.617,0.003,0.03,-0.05000000074505806,-0.02500000037252903,-0.02500000037252903,-0.02500000037252903,-0.05000000074505806,-0.0005000000237487257,0.05000000074505806,0.02500000037252903,0.02500000037252903,0.02500000037252903,0.05000000074505806,0.0005000000237487257,-0.03683634832373226,-0.8512646686667865,0.19192797691772887,0.14,0.0,0.26,0.23722989857196808,0.0036393464542925358,0.09456285089254379,0.0,1.1370476753682746,-1.1672018021654296
0.0,67.0,0.0,0.025,0.0,0.0,0.0,0.0,0.015339807607233524,0.3818536102771759,1.0109710693359375,-1.3537670373916626,-0.0715857669711113,0.0,0.015339807607233524,0.4068536162376404,1.0109710693359375,-1.3537670373916626,-0.0715857669711113,0.003,0.0,0.0,0.0,0.0,0.0,0.0,-3.1,3.1,-1.571,1.571,-1.571,1.571,-1.745,1.745,-2.617,2.617,0.003,0.03,-0.05000000074505806,-0.02500000037252903,-0.02500000037252903,-0.02500000037252903,-0.05000000074505806,-0.0005000000237487257,0.05000000074505806,0.02500000037252903,0.02500000037252903,0.02500000037252903,0.05000000074505806,0.0005000000237487257,-0.038668872713859694,-0.8899335413806462,0.1966440253703623,0.14,0.0,0.26,0.236395001411438,0.0036265384405851364,0.08864153176546097,0.0,1.1318516286320235,-1.2470512167002568
0.0,68.0,0.0,0.025,0.0,0.0,0.0,0.0,0.015339807607233524,0.4068536162376404,1.0109710693359375,-1.3537670373916626,-0.0715857669711113,0.0,0.015339807607233524,0.43185362219810486,1.0109710693359375,-1.3537670373916626,-0.0715857669711113,0.003,0.0,0.0,0.0,0.0,0.0,0.0,-3.1,3.1,-1.571,1.571,-1.571,1.571,-1.745,1.745,-2.617,2.617,0.003,0.03,-0.05000000074505806,-0.02500000037252903,-0.02500000037252903,-0.02500000037252903,-0.05000000074505806,-0.0005000000237487257,0.05000000074505806,0.02500000037252903,0.02500000037252903,0.02500000037252903,0.05000000074505806,0.0005000000237487257,-0.040536630225311995,-0.9304701716059581,0.20133710593259255,0.14,0.0,0.26,0.2354123741388321,0.0036114638205617666,0.08274293690919876,0.0,1.1263393349352602,-1.3229504872231956
0.0,69.0,0.0,0.025,0.0,0.0,0.0,0.0,0.015339807607233524,0.43185362219810486,1.0109710693359375,-1.3537670373916626,-0.0715857669711113,0.0,0.015339807607233524,0.45685362815856934,1.0109710693359375,-1.3537670373916626,-0.0715857669711113,0.003,0.0,0.0,0.0,0.0,0.0,0.0,-3.1,3.1,-1.571,1.571,-1.571,1.571,-1.745,1.745,-2.617,2.617,0.003,0.03,-0.05000000074505806,-0.02500000037252903,-0.02500000037252903,-0.02500000037252903,-0.05000000074505806,-0.0005000000237487257,0.05000000074505806,0.02500000037252903,0.02500000037252903,0.02500000037252903,0.05000000074505806,0.0005000000237487257,-0.04243845228211728,-0.9729086238880754,0.2060059520550736,0.14,0.0,0.26,0.23428262770175934,0.00359413237310946,0.07687075436115265,0.0,1.1205230693954538,-1.3959037295535381
0.0,70.0,0.0,0.025,0.0,0.0,0.0,0.0,0.015339807607233524,0.45685362815856934,1.0109710693359375,-1.3537670373916626,-0.0715857669711113,0.0,0.015339807607233524,0.4818536341190338,1.0109710693359375,-1.3537670373916626,-0.0715857669711113,0.003,0.0,0.0,0.0,0.0,0.0,0.0,-3.1,3.1,-1.571,1.571,-1.571,1.571,-1.745,1.745,-2.617,2.617,0.003,0.03,-0.05000000074505806,-0.02500000037252903,-0.02500000037252903,-0.02500000037252903,-0.05000000074505806,-0.0005000000237487257,0.05000000074505806,0.02500000037252903,0.02500000037252903,0.02500000037252903,0.05000000074505806,0.0005000000237487257,-0.044373150734963444,-1.017281774623039,0.21064935493602502,0.14,0.0,0.26,0.23300644755363464,0.003574554342776537,0.07102864235639572,0.0,1.1144166914283393,-1.4655307121074657
0.0,71.0,0.0,0.025,0.0,0.0,0.0,0.0,0.015339807607233524,0.4818536341190338,1.0109710693359375,-1.3537670373916626,-0.0715857669711113,0.0,0.015339807607233524,0.5068536400794983,1.0109710693359375,-1.3537670373916626,-0.0715857669711113,0.003,0.0,0.0,0.0,0.0,0.0,0.0,-3.1,3.1,-1.571,1.571,-1.571,1.571,-1.745,1.745,-2.617,2.617,0.003,0.03,-0.05000000074505806,-0.02500000037252903,-0.02500000037252903,-0.02500000037252903,-0.05000000074505806,-0.0005000000237487257,0.05000000074505806,0.02500000037252903,0.02500000037252903,0.02500000037252903,0.05000000074505806,0.0005000000237487257,-0.04633951524456319,-1.063621289867602,0.21526614978803144,0.14,0.0,0.26,0.23158465325832367,0.0035527427680790424,0.06522026658058167,0.0,1.1080307644815401,-1.5326224672318034
0.0,72.0,0.0,0.025,0.0,0.0,0.0,0.0,0.015339807607233524,0.5068536400794983,1.0109710693359375,-1.3537670373916626,-0.0715857669711113,0.0,0.015339807607233524,0.5318536162376404,1.0109710693359375,-1.3537670373916626,-0.0715857669711113,0.003,0.0,0.0,0.0,0.0,0.0,0.0,-3.1,3.1,-1.571,1.571,-1.571,1.571,-1.745,1.745,-2.617,2.617,0.003,0.03,-0.05000000074505806,-0.02500000037252903,-0.02500000037252903,-0.02500000037252903,-0.05000000074505806,-0.0005000000237487257,0.05000000074505806,0.02500000037252903,0.02500000037252903,0.02500000037252903,0.05000000074505806,0.0005000000237487257,-0.048336314081869856,-1.1119576039494719,0.21985521163226915,0.14,0.0,0.26,0.23001812398433685,0.0035287104547023773,0.05944925919175148,0.0,1.101374842617051,-1.5974212474773708
0.0,73.0,0.0,0.025,0.0,0.0,0.0,0.0,0.015339807607233524,0.5318536162376404,1.0109710693359375,-1.3537670373916626,-0.0715857669711113,0.0,0.015339807607233524,0.5568535923957825,1.0109710693359375,-1.3537670373916626,-0.0715857669711113,0.003,0.0,0.0,0.0,0.0,0.0,0.0,-3.1,3.1,-1.571,1.571,-1.571,1.571,-1.745,1.745,-2.617,2.617,0.003,0.03,-0.05000000074505806,-0.02500000037252903,-0.02500000037252903,-0.02500000037252903,-0.05000000074505806,-0.0005000000237487257,0.05000000074505806,0.02500000037252903,0.02500000037252903,0.02500000037252903,0.05000000074505806,0.0005000000237487257,-0.05036230317496026,-1.1623199071244321,0.22441546999919648,0.14,0.0,0.26,0.228307843208313,0.00350247323513031,0.05371921882033348,0.0,1.09446200806256,-1.6590802930778636
0.0,74.0,0.0,0.025,0.0,0.0,0.0,0.0,0.015339807607233524,0.5568535923957825,1.0109710693359375,-1.3537670373916626,-0.0715857669711113,0.0,0.015339807607233524,0.5818535685539246,1.0109710693359375,-1.3537670373916626,-0.0715857669711113,0.003,0.0,0.0,0.0,0.0,0.0,0.0,-3.1,3.1,-1.571,1.571,-1.571,1.571,-1.745,1.745,-2.617,2.617,0.003,0.03,-0.05000000074505806,-0.02500000037252903,-0.02500000037252903,-0.02500000037252903,-0.05000000074505806,-0.0005000000237487257,0.05000000074505806,0.02500000037252903,0.02500000037252903,0.02500000037252903,0.05000000074505806,0.0005000000237487257,-0.05241621747380236,-1.2147361245982344,0.22894588328642723,0.14,0.0,0.26,0.22645488381385803,0.0034740467090159655,0.04803372547030449,0.0,1.08729918893538,-1.7190765905231942
0.0,75.0,0.0,0.025,0.0,0.0,0.0,0.0,0.015339807607233524,0.5818535685539246,1.0109710693359375,-1.3537670373916626,-0.0715857669711113,0.0,0.015339807607233524,0.6068535447120667,1.0109710693359375,-1.3537670373916626,-0.0715857669711113,0.003,0.0,0.0,0.0,0.0,0.0,0.0,-3.1,3.1,-1.571,1.571,-1.571,1.571,-1.745,1.745,-2.617,2.617,0.003,0.03,-0.05000000074505806,-0.02500000037252903,-0.02500000037252903,-0.02500000037252903,-0.05000000074505806,-0.0005000000237487257,0.05000000074505806,0.02500000037252903,0.02500000037252903,0.02500000037252903,0.05000000074505806,0.0005000000237487257,-0.05449677122273683,-1.2692328958209713,0.2334454352150344,0.14,0.0,0.26,0.2244603931903839,0.003443449269980192,0.04239633306860924,0.0,1.0798924628657236,-1.7776142567175413
0.0,76.0,0.0,0.025,0.0,0.0,0.0,0.0,0.015339807607233524,0.6068535447120667,1.0109710693359375,-1.3537670373916626,-0.0715857669711113,0.0,0.015339807607233524,0.6318535208702087,1.0109710693359375,-1.3537670373916626,-0.0715857669711113,0.003,0.0,0.0,0.0,0.0,0.0,0.0,-3.1,3.1,-1.571,1.571,-1.571,1.571,-1.745,1.745,-2.617,2.617,0.003,0.03,-0.05000000074505806,-0.02500000037252903,-0.02500000037252903,-0.02500000037252903,-0.05000000074505806,-0.0005000000237487257,0.05000000074505806,0.02500000037252903,0.02500000037252903,0.02500000037252903,0.05000000074505806,0.0005000000237487257,-0.05660266464649964,-1.325835560467471,0.23791314517382103,0.14,0.0,0.26,0.2223256230354309,0.003410699777305126,0.03681056573987007,0.0,1.0722503901087888,-1.8340974616643635
0.0,77.0,0.0,0.025,0.0,0.0,0.0,0.0,0.015339807607233524,0.6318535208702087,1.0109710693359375,-1.3537670373916626,-0.0715857669711113,0.0,0.015339807607233524,0.6568534970283508,1.0109710693359375,-1.3537670373916626,-0.0715857669711113,0.003,0.0,0.0,0.0,0.0,0.0,0.0,-3.1,3.1,-1.571,1.571,-1.571,1.571,-1.745,1.745,-2.617,2.617,0.003,0.03,-0.05000000074505806,-0.02500000037252903,-0.02500000037252903,-0.02500000037252903,-0.05000000074505806,-0.0005000000237487257,0.05000000074505806,0.02500000037252903,0.02500000037252903,0.02500000037252903,0.05000000074505806,0.0005000000237487257,-0.05873258047514822,-1.3845681409426192,0.24234805647074667,0.14,0.0,0.26,0.22005189955234528,0.0033758184872567654,0.03127991408109665,0.0,1.0643787112621528,-1.8892029231926344
0.0,78.0,0.0,0.025,0.0,0.0,0.0,0.0,0.015339807607233524,0.6568534970283508,1.0109710693359375,-1.3537670373916626,-0.0715857669711113,0.0,0.015339807607233524,0.6818534731864929,1.0109710693359375,-1.3537670373916626,-0.0715857669711113,0.003,0.0,0.0,0.0,0.0,0.0,0.0,-3.1,3.1,-1.571,1.571,-1.571,1.571,-1.745,1.745,-2.617,2.617,0.003,0.03,-0.05000000074505806,-0.02500000037252903,-0.02500000037252903,-0.02500000037252903,-0.05000000074505806,-0.0005000000237487257,0.05000000074505806,0.02500000037252903,0.02500000037252903,0.02500000037252903,0.05000000074505806,0.0005000000237487257,-0.06088518975233528,-1.4454533306949544,0.2467492446844271,0.14,0.0,0.26,0.21764065325260162,0.0033388277515769005,0.025807833299040794,0.0,1.0562851712833043,-1.9424495949236231
0.0,79.0,0.0,0.025,0.0,0.0,0.0,0.0,0.015339807607233524,0.6818534731864929,1.0109710693359375,-1.3537670373916626,-0.0715857669711113,0.0,0.015339807607233524,0.706853449344635,1.0109710693359375,-1.3537670373916626,-0.0715857669711113,0.003,0.0,0.0,0.0,0.0,0.0,0.0,-3.1,3.1,-1.571,1.571,-1.571,1.571,-1.745,1.745,-2.617,2.617,0.003,0.03,-0.05000000074505806,-0.02500000037252903,-0.02500000037252903,-0.02500000037252903,-0.05000000074505806,-0.0005000000237487257,0.05000000074505806,0.02500000037252903,0.02500000037252903,0.02500000037252903,0.05000000074505806,0.0005000000237487257,-0.06305914690440735,-1.5085124775993617,0.2511158037726964,0.14,0.0,0.26,0.21509338915348053,0.003299750154837966,0.020397743210196495,0.0,1.0479741811846255,-1.9946376236829266
0.0,80.0,0.0,0.025,0.0,0.0,0.0,0.0,0.015339807607233524,0.706853449344635,1.0109710693359375,-1.3537670373916626,-0.0715857669711113,0.0,0.015339807607233524,0.7318534255027771,1.0109710693359375,-1.3537670373916626,-0.0715857669711113,0.003,0.0,0.0,0.0,0.0,0.0,0.0,-3.1,3.1,-1.571,1.571,-1.571,1.571,-1.745,1.745,-2.617,2.617,0.003,0.03,-0.05000000074505806,-0.02500000037252903,-0.02500000037252903,-0.02500000037252903,-0.05000000074505806,-0.0005000000237487257,0.05000000074505806,0.02500000037252903,0.02500000037252903,0.02500000037252903,0.05000000074505806,0.0005000000237487257,-0.06525309205567381,-1.5737655696550354,0.2554468478092337,0.14,0.0,0.26,0.21241170167922974,0.003258610377088189,0.015053028240799904,0.0,1.0394505687689604,-2.0456669797596305
0.0,81.0,0.0,0.025,0.0,0.0,0.0,0.0,0.015339807607233524,0.7318534255027771,1.0109710693359375,-1.3537670373916626,-0.0715857669711113,0.0,0.015339807607233524,0.7568534016609192,1.0109710693359375,-1.3537670373916626,-0.0715857669711113,0.003,0.0,0.0,0.0,0.0,0.0,0.0,-3.1,3.1,-1.571,1.571,-1.571,1.571,-1.745,1.745,-2.617,2.617,0.003,0.03,-0.05000000074505806,-0.02500000037252903,-0.02500000037252903,-0.02500000037252903,-0.05000000074505806,-0.0005000000237487257,0.05000000074505806,0.02500000037252903,0.02500000037252903,0.02500000037252903,0.05000000074505806,0.0005000000237487257,-0.0674656567141371,-1.6412312263691726,0.25974151904179105,0.14,0.0,0.26,0.20959727466106415,0.003215434029698372,0.009777025319635868,0.0,1.0307210958137603,-2.0950735092480244
0.0,82.0,0.0,0.025,0.0,0.0,0.0,0.0,0.015339807607233524,0.7568534016609192,1.0109710693359375,-1.3537670373916626,-0.0715857669711113,0.0,0.015339807607233524,0.7818533778190613,1.0109710693359375,-1.3537670373916626,-0.0715857669711113,0.003,0.0,0.0,0.0,0.0,0.0,0.0,-3.1,3.1,-1.571,1.571,-1.571,1.571,-1.745,1.745,-2.617,2.617,0.003,0.03,-0.05000000074505806,-0.02500000037252903,-0.02500000037252903,-0.02500000037252903,-0.05000000074505806,-0.0005000000237487257,0.05000000074505806,0.02500000037252903,0.02500000037252903,0.02500000037252903,0.05000000074505806,0.0005000000237487257,-0.06969545317290321,-1.710926679542076,0.2639989643405883,0.14,0.0,0.26,0.20665183663368225,0.003170248121023178,0.004573033191263676,0.0,1.0217868717113365,-2.1442137845816944
0.0,83.0,0.0,0.025,0.0,0.0,0.0,0.0,0.015339807607233524,0.7818533778190613,1.0109710693359375,-1.3537670373916626,-0.0715857669711113,0.0,0.015339807607233524,0.8068533539772034,1.0109710693359375,-1.3537670373916626,-0.0715857669711113,0.003,0.0,0.0,0.0,0.0,0.0,0.0,-3.1,3.1,-1.571,1.571,-1.571,1.571,-1.745,1.745,-2.617,2.617,0.003,0.03,-0.05000000074505806,-0.02500000037252903,-0.02500000037252903,-0.02500000037252903,-0.05000000074505806,-0.0005000000237487257,0.05000000074505806,0.02500000037252903,0.02500000037252903,0.02500000037252903,0.05000000074505806,0.0005000000237487257,-0.0719410932516597,-1.7828677727937357,0.2682183685948069,0.14,0.0,0.26,0.20357726514339447,0.0031230810564011335,-0.0005556964897550642,0.0,1.0126570210124708,-2.191164167727777
0.0,84.0,0.0,0.025,0.0,0.0,0.0,0.0,0.015339807607233524,0.8068533539772034,1.0109710693359375,-1.3537670373916626,-0.0715857669711113,0.0,0.015339807607233524,0.8318533301353455,1.0109710693359375,-1.3537670373916626,-0.0715857669711113,0.003,0.0,0.0,0.0,0.0,0.0,0.0,-3.1,3.1,-1.571,1.571,-1.571,1.571,-1.745,1.745,-2.617,2.617,0.003,0.03,-0.05000000074505806,-0.02500000037252903,-0.02500000037252903,-0.02500000037252903,-0.05000000074505806,-0.0005000000237487257,0.05000000074505806,0.02500000037252903,0.02500000037252903,0.02500000037252903,0.05000000074505806,0.0005000000237487257,-0.07420116941600519,-1.8570689422097408,0.27239891595967336,0.14,0.0,0.26,0.20037545263767242,0.0030739621724933386,-0.0056059579364955425,0.0,1.0033313675679478,-2.238156826685511
0.0,85.0,0.0,0.025,0.0,0.0,0.0,0.0,0.015339807607233524,0.8318533301353455,1.0109710693359375,-1.3537670373916626,-0.0715857669711113,0.0,0.015339807607233524,0.8568533062934875,1.0109710693359375,-1.3537670373916626,-0.0715857669711113,0.003,0.0,0.0,0.0,0.0,0.0,0.0,-3.1,3.1,-1.571,1.571,-1.571,1.571,-1.745,1.745,-2.617,2.617,0.003,0.03,-0.05000000074505806,-0.02500000037252903,-0.02500000037252903,-0.02500000037252903,-0.05000000074505806,-0.0005000000237487257,0.05000000074505806,0.02500000037252903,0.02500000037252903,0.02500000037252903,0.05000000074505806,0.0005000000237487257,-0.07647427242720807,-1.933543214636949,0.2765398206899109,0.14,0.0,0.26,0.19704842567443848,0.003022921970114112,-0.01057459507137537,0.0,0.9938171352570091,-2.2834157546252953
0.0,86.0,0.0,0.025,0.0,0.0,0.0,0.0,0.015339807607233524,0.8568533062934875,1.0109710693359375,-1.3537670373916626,-0.0715857669711113,0.0,0.015339807607233524,0.8818532824516296,1.0109710693359375,-1.3537670373916626,-0.0715857669711113,0.003,0.0,0.0,0.0,0.0,0.0,0.0,-3.1,3.1,-1.571,1.571,-1.571,1.571,-1.745,1.745,-2.617,2.617,0.003,0.03,-0.05000000074505806,-0.02500000037252903,-0.02500000037252903,-0.02500000037252903,-0.05000000074505806,-0.0005000000237487257,0.05000000074505806,0.02500000037252903,0.02500000037252903,0.02500000037252903,0.05000000074505806,0.0005000000237487257,-0.07875897902135565,-2.0123021936583045,0.280640301848034,0.14,0.0,0.26,0.19359824061393738,0.0029699925798922777,-0.015458502806723118,0.0,0.9841154779495476,-2.3283977537907674
0.0,87.0,0.0,0.025,0.0,0.0,0.0,0.0,0.015339807607233524,0.8818532824516296,1.0109710693359375,-1.3537670373916626,-0.0715857669711113,0.0,0.015339807607233524,0.9068532586097717,1.0109710693359375,-1.3537670373916626,-0.0715857669711113,0.003,0.0,0.0,0.0,0.0,0.0,0.0,-3.1,3.1,-1.571,1.571,-1.571,1.571,-1.745,1.745,-2.617,2.617,0.003,0.03,-0.05000000074505806,-0.02500000037252903,-0.02500000037252903,-0.02500000037252903,-0.05000000074505806,-0.0005000000237487257,0.05000000074505806,0.02500000037252903,0.02500000037252903,0.02500000037252903,0.05000000074505806,0.0005000000237487257,-0.08105386190433837,-2.093356055562643,0.2846995994102176,0.14,0.0,0.26,0.19002705812454224,0.0029152072966098785,-0.020254628732800484,0.0,0.9742314149240627,-2.3721751261163604
0.0,88.0,0.0,0.025,0.0,0.0,0.0,0.0,0.015339807607233524,0.9068532586097717,1.0109710693359375,-1.3537670373916626,-0.0715857669711113,0.0,0.015339807607233524,0.9318532347679138,1.0109710693359375,-1.3537670373916626,-0.0715857669711113,0.003,0.0,0.0,0.0,0.0,0.0,0.0,-3.1,3.1,-1.571,1.571,-1.571,1.571,-1.745,1.745,-2.617,2.617,0.003,0.03,-0.05000000074505806,-0.02500000037252903,-0.02500000037252903,-0.02500000037252903,-0.05000000074505806,-0.0005000000237487257,0.05000000074505806,0.02500000037252903,0.02500000037252903,0.02500000037252903,0.05000000074505806,0.0005000000237487257,-0.08335748782756705,-2.17671354339021,0.28871696837485505,0.14,0.0,0.26,0.18633712828159332,0.002858599880710244,-0.024959973990917206,0.0,0.9641685515129872,-2.4150872186581296
0.0,89.0,0.0,0.025,0.0,0.0,0.0,0.0,0.015339807607233524,0.9318532347679138,1.0109710693359375,-1.3537670373916626,-0.0715857669711113,0.0,0.015339807607233524,0.9568532109260559,1.0109710693359375,-1.3537670373916626,-0.0715857669711113,0.003,0.0,0.0,0.0,0.0,0.0,0.0,-3.1,3.1,-1.571,1.571,-1.571,1.571,-1.745,1.745,-2.617,2.617,0.003,0.03,-0.05000000074505806,-0.02500000037252903,-0.02500000037252903,-0.02500000037252903,-0.05000000074505806,-0.0005000000237487257,0.05000000074505806,0.02500000037252903,0.02500000037252903,0.02500000037252903,0.05000000074505806,0.0005000000237487257,-0.08566841590579995,-2.26238195929601,0.2926916737896723,0.14,0.0,0.26,0.1825307309627533,0.0028002059552818537,-0.029571600258350372,0.0,0.9539292995561421,-2.4574204696428126
0.0,90.0,0.0,0.025,0.0,0.0,0.0,0.0,0.015339807607233524,0.9568532109260559,1.0109710693359375,-1.3537670373916626,-0.0715857669711113,0.0,0.015339807607233524,0.981853187084198,1.0109710693359375,-1.3537670373916626,-0.0715857669711113,0.003,0.0,0.0,0.0,0.0,0.0,0.0,-3.1,3.1,-1.571,1.571,-1.571,1.571,-1.745,1.745,-2.617,2.617,0.003,0.03,-0.05000000074505806,-0.02500000037252903,-0.02500000037252903,-0.02500000037252903,-0.05000000074505806,-0.0005000000237487257,0.05000000074505806,0.02500000037252903,0.02500000037252903,0.02500000037252903,0.05000000074505806,0.0005000000237487257,-0.0879852041288566,-2.350367163424867,0.2966229999997583,0.14,0.0,0.26,0.17861026525497437,0.0027400620747357607,-0.03408662602305412,0.0,0.9435182904206307,-2.4986421925227376
0.0,91.0,0.0,0.025,0.0,0.0,0.0,0.0,0.015339807607233524,0.981853187084198,1.0109710693359375,-1.3537670373916626,-0.0715857669711113,0.0,0.015339807607233524,1.0068532228469849,1.0109710693359375,-1.3537670373916626,-0.0715857669711113,0.003,0.0,0.0,0.0,0.0,0.0,0.0,-3.1,3.1,-1.571,1.571,-1.571,1.571,-1.745,1.745,-2.617,2.617,0.003,0.03,-0.05000000074505806,-0.02500000037252903,-0.02500000037252903,-0.02500000037252903,-0.05000000074505806,-0.0005000000237487257,0.05000000074505806,0.02500000037252903,0.02500000037252903,0.02500000037252903,0.05000000074505806,0.0005000000237487257,-0.09030640621636601,-2.4406735696412327,0.3005102431138846,0.14,0.0,0.26,0.17457816004753113,0.00267820549197495,-0.03850223496556282,0.0,0.932938347390313,-2.539186327276255
0.0,92.0,0.0,0.025,0.0,0.0,0.0,0.0,0.015339807607233524,1.0068532228469849,1.0109710693359375,-1.3537670373916626,-0.0715857669711113,0.0,0.015339807607233524,1.031853199005127,1.0109710693359375,-1.3537670373916626,-0.0715857669711113,0.003,0.0,0.0,0.0,0.0,0.0,0.0,-3.1,3.1,-1.571,1.571,-1.571,1.571,-1.745,1.745,-2.617,2.617,0.003,0.03,-0.05000000074505806,-0.02500000037252903,-0.02500000037252903,-0.02500000037252903,-0.05000000074505806,-0.0005000000237487257,0.05000000074505806,0.02500000037252903,0.02500000037252903,0.02500000037252903,0.05000000074505806,0.0005000000237487257,-0.09263056646809043,-2.533304136109323,0.30435270077344545,0.14,0.0,0.26,0.17043696343898773,0.002614675322547555,-0.04281565546989441,0.0,0.9221898382946092,-2.579642182968911
0.0,93.0,0.0,0.025,0.0,0.0,0.0,0.0,0.015339807607233524,1.031853199005127,1.0109710693359375,-1.3537670373916626,-0.0715857669711113,0.0,0.015339807607233524,1.056853175163269,1.0109710693359375,-1.3537670373916626,-0.0715857669711113,0.003,0.0,0.0,0.0,0.0,0.0,0.0,-3.1,3.1,-1.571,1.571,-1.571,1.571,-1.745,1.745,-2.617,2.617,0.003,0.03,-0.05000000074505806,-0.02500000037252903,-0.02500000037252903,-0.02500000037252903,-0.05000000074505806,-0.0005000000237487257,0.05000000074505806,0.02500000037252903,0.02500000037252903,0.02500000037252903,0.05000000074505806,0.0005000000237487257,-0.09495623050374968,-2.628260366613073,0.3081496884693374,0.14,0.0,0.26,0.1661892533302307,0.0025495111476629972,-0.0470241904258728,0.0,0.911277047014063,-2.6190699073310952
0.0,94.0,0.0,0.025,0.0,0.0,0.0,0.0,0.015339807607233524,1.056853175163269,1.0109710693359375,-1.3537670373916626,-0.0715857669711113,0.0,0.015339807607233524,1.0818531513214111,1.0109710693359375,-1.3537670373916626,-0.0715857669711113,0.003,0.0,0.0,0.0,0.0,0.0,0.0,-3.1,3.1,-1.571,1.571,-1.571,1.571,-1.745,1.745,-2.617,2.617,0.003,0.03,-0.05000000074505806,-0.02500000037252903,-0.02500000037252903,-0.02500000037252903,-0.05000000074505806,-0.0005000000237487257,0.05000000074505806,0.02500000037252903,0.02500000037252903,0.02500000037252903,0.05000000074505806,0.0005000000237487257,-0.09728195088868537,-2.725542317501758,0.3119005464706424,0.14,0.0,0.26,0.16183766722679138,0.0024827534798532724,-0.05112522095441818,0.0,0.9002059203132085,-2.6570704082050867
0.0,95.0,0.0,0.025,0.0,0.0,0.0,0.0,0.015339807607233524,1.0818531513214111,1.0109710693359375,-1.3537670373916626,-0.0715857669711113,0.0,0.015339807607233524,1.1068531274795532,1.0109710693359375,-1.3537670373916626,-0.0715857669711113,0.003,0.0,0.0,0.0,0.0,0.0,0.0,-3.1,3.1,-1.571,1.571,-1.571,1.571,-1.745,1.745,-2.617,2.617,0.003,0.03,-0.05000000074505806,-0.02500000037252903,-0.02500000037252903,-0.02500000037252903,-0.05000000074505806,-0.0005000000237487257,0.05000000074505806,0.02500000037252903,0.02500000037252903,0.02500000037252903,0.05000000074505806,0.0005000000237487257,-0.09960627067941588,-2.825148588181174,0.31560461130885886,0.14,0.0,0.26,0.1573849469423294,0.0024144442286342382,-0.05511617660522461,0.0,0.8889755611719474,-2.6952861939026462
0.0,96.0,0.0,0.025,0.0,0.0,0.0,0.0,0.015339807607233524,1.1068531274795532,1.0109710693359375,-1.3537670373916626,-0.0715857669711113,0.0,0.015339807607233524,1.1318531036376953,1.0109710693359375,-1.3537670373916626,-0.0715857669711113,0.003,0.0,0.0,0.0,0.0,0.0,0.0,-3.1,3.1,-1.571,1.571,-1.571,1.571,-1.745,1.745,-2.617,2.617,0.003,0.03,-0.05000000074505806,-0.02500000037252903,-0.02500000037252903,-0.02500000037252903,-0.05000000074505806,-0.0005000000237487257,0.05000000074505806,0.02500000037252903,0.02500000037252903,0.02500000037252903,0.05000000074505806,0.0005000000237487257,-0.10192773793967455,-2.9270763261208486,0.31926123776568077,0.14,0.0,0.26,0.15283386409282684,0.0023446260020136833,-0.05899456515908241,0.0,0.8775903496372583,-2.7324507683253785
0.0,97.0,0.0,0.025,0.0,0.0,0.0,0.0,0.015339807607233524,1.1318531036376953,1.0109710693359375,-1.3537670373916626,-0.0715857669711113,0.0,0.015339807607233524,1.1568530797958374,1.0109710693359375,-1.3537670373916626,-0.0715857669711113,0.003,0.0,0.0,0.0,0.0,0.0,0.0,-3.1,3.1,-1.571,1.571,-1.571,1.571,-1.745,1.745,-2.617,2.617,0.003,0.03,-0.05000000074505806,-0.02500000037252903,-0.02500000037252903,-0.02500000037252903,-0.05000000074505806,-0.0005000000237487257,0.05000000074505806,0.02500000037252903,0.02500000037252903,0.02500000037252903,0.05000000074505806,0.0005000000237487257,-0.10424490588148076,-3.0313212320023295,0.32286979710322977,0.14,0.0,0.26,0.14818726480007172,0.0022733425721526146,-0.06275796890258789,0.0,0.86605424101176,-2.7686660701196075
0.0,98.0,0.0,0.025,0.0,0.0,0.0,0.0,0.015339807607233524,1.1568530797958374,1.0109710693359375,-1.3537670373916626,-0.0715857669711113,0.0,0.015339807607233524,1.1818530559539795,1.0109710693359375,-1.3537670373916626,-0.0715857669711113,0.003,0.0,0.0,0.0,0.0,0.0,0.0,-3.1,3.1,-1.571,1.571,-1.571,1.571,-1.745,1.745,-2.617,2.617,0.003,0.03,-0.05000000074505806,-0.02500000037252903,-0.02500000037252903,-0.02500000037252903,-0.05000000074505806,-0.0005000000237487257,0.05000000074505806,0.02500000037252903,0.02500000037252903,0.02500000037252903,0.05000000074505806,0.0005000000237487257,-0.1065563176484374,-3.1378775496507667,0.3264296519136051,0.14,0.0,0.26,0.14344805479049683,0.0022006381768733263,-0.06640402227640152,0.0,0.8543651544900843,-2.805380765202159
0.0,99.0,0.0,0.025,0.0,0.0,0.0,0.0,0.015339807607233524,1.1818530559539795,1.0109710693359375,-1.3537670373916626,-0.0715857669711113,0.0,0.015339807607233524,1.2068530321121216,1.0109710693359375,-1.3537670373916626,-0.0715857669711113,0.003,0.0,0.0,0.0,0.0,0.0,0.0,-3.1,3.1,-1.571,1.571,-1.571,1.571,-1.745,1.745,-2.617,2.617,0.003,0.03,-0.05000000074505806,-0.02500000037252903,-0.02500000037252903,-0.02500000037252903,-0.05000000074505806,-0.0005000000237487257,0.05000000074505806,0.02500000037252903,0.02500000037252903,0.02500000037252903,0.05000000074505806,0.0005000000237487257,-0.10886053504039624,-3.246738084691163,0.32994019918827144,0.14,0.0,0.26,0.13861919939517975,0.0021265586838126183,-0.06993045657873154,1.0,0.8425313459199169,-2.840114056840193
