PierreExeter/WidowX-reacher/tests/Check_env_consistency/logs/7_action2_+0.025.csv
episode,timestep,action_1,action_2,action_3,action_4,action_5,action_6,current_joint_pos_1,current_joint_pos_2,current_joint_pos_3,current_joint_pos_4,current_joint_pos_5,current_joint_pos_6,new_joint_pos_1,new_joint_pos_2,new_joint_pos_3,new_joint_pos_4,new_joint_pos_5,new_joint_pos_6,joint_vel_1,joint_vel_2,joint_vel_3,joint_vel_4,joint_vel_5,joint_vel_6,joint1_min,joint1_max,joint2_min,joint2_max,joint3_min,joint3_max,joint4_min,joint4_max,joint5_min,joint5_max,joint6_min,joint6_max,action_low1,action_low2,action_low3,action_low4,action_low5,action_low6,action_high1,action_high2,action_high3,action_high4,action_high5,action_high6,reward,return,dist,target_x,target_y,target_z,tip_x,tip_y,tip_z,done,est_vel
0.0,0.0,0.0,0.025,0.0,0.0,0.0,0.0,0.015339807607233524,-1.293145775794983,1.0109710693359375,-1.3537670373916626,-0.0715857669711113,0.0,0.015339807607233524,-1.2681457996368408,1.0109710693359375,-1.3537670373916626,-0.0715857669711113,0.003,0.0,0.0,0.0,0.0,0.0,0.0,-3.1,3.1,-1.571,1.571,-1.571,1.571,-1.745,1.745,-2.617,2.617,0.003,0.03,-0.05000000074505806,-0.02500000037252903,-0.02500000037252903,-0.02500000037252903,-0.05000000074505806,-0.0005000000237487257,0.05000000074505806,0.02500000037252903,0.02500000037252903,0.02500000037252903,0.05000000074505806,0.0005000000237487257,-0.027294516995645335,-0.027294516995645335,0.16521052325940178,0.14,0.0,0.26,0.011568461544811726,0.00017747188394423574,0.36392220854759216,0.0,
0.0,1.0,0.0,0.025,0.0,0.0,0.0,0.0,0.015339807607233524,-1.2681457996368408,1.0109710693359375,-1.3537670373916626,-0.0715857669711113,0.0,0.015339807607233524,-1.2431458234786987,1.0109710693359375,-1.3537670373916626,-0.0715857669711113,0.003,0.0,0.0,0.0,0.0,0.0,0.0,-3.1,3.1,-1.571,1.571,-1.571,1.571,-1.745,1.745,-2.617,2.617,0.003,0.03,-0.05000000074505806,-0.02500000037252903,-0.02500000037252903,-0.02500000037252903,-0.05000000074505806,-0.0005000000237487257,0.05000000074505806,0.02500000037252903,0.02500000037252903,0.02500000037252903,0.05000000074505806,0.0005000000237487257,-0.02572169602544496,-0.053016213021090296,0.16037984918762382,0.14,0.0,0.26,0.017536571249365807,0.00026902873651124537,0.3635583519935608,0.0,-1.1593617772267084
0.0,2.0,0.0,0.025,0.0,0.0,0.0,0.0,0.015339807607233524,-1.2431458234786987,1.0109710693359375,-1.3537670373916626,-0.0715857669711113,0.0,0.015339807607233524,-1.2181458473205566,1.0109710693359375,-1.3537670373916626,-0.0715857669711113,0.003,0.0,0.0,0.0,0.0,0.0,0.0,-3.1,3.1,-1.571,1.571,-1.571,1.571,-1.745,1.745,-2.617,2.617,0.003,0.03,-0.05000000074505806,-0.02500000037252903,-0.02500000037252903,-0.02500000037252903,-0.05000000074505806,-0.0005000000237487257,0.05000000074505806,0.02500000037252903,0.02500000037252903,0.02500000037252903,0.05000000074505806,0.0005000000237487257,-0.0241921960065305,-0.0772084090276208,0.15553840685351802,0.14,0.0,0.26,0.023493722081184387,0.0003604174416977912,0.3630453944206238,0.0,-1.161946160185392
0.0,3.0,0.0,0.025,0.0,0.0,0.0,0.0,0.015339807607233524,-1.2181458473205566,1.0109710693359375,-1.3537670373916626,-0.0715857669711113,0.0,0.015339807607233524,-1.1931458711624146,1.0109710693359375,-1.3537670373916626,-0.0715857669711113,0.003,0.0,0.0,0.0,0.0,0.0,0.0,-3.1,3.1,-1.571,1.571,-1.571,1.571,-1.745,1.745,-2.617,2.617,0.003,0.03,-0.05000000074505806,-0.02500000037252903,-0.02500000037252903,-0.02500000037252903,-0.05000000074505806,-0.0005000000237487257,0.05000000074505806,0.02500000037252903,0.02500000037252903,0.02500000037252903,0.05000000074505806,0.0005000000237487257,-0.022706968558226865,-0.09991537758584766,0.1506883159313517,0.14,0.0,0.26,0.02943618968129158,0.00045158088323660195,0.362383633852005,0.0,-1.164021821319916
0.0,4.0,0.0,0.025,0.0,0.0,0.0,0.0,0.015339807607233524,-1.1931458711624146,1.0109710693359375,-1.3537670373916626,-0.0715857669711113,0.0,0.015339807607233524,-1.1681458950042725,1.0109710693359375,-1.3537670373916626,-0.0715857669711113,0.003,0.0,0.0,0.0,0.0,0.0,0.0,-3.1,3.1,-1.571,1.571,-1.571,1.571,-1.745,1.745,-2.617,2.617,0.003,0.03,-0.05000000074505806,-0.02500000037252903,-0.02500000037252903,-0.02500000037252903,-0.05000000074505806,-0.0005000000237487257,0.05000000074505806,0.02500000037252903,0.02500000037252903,0.02500000037252903,0.05000000074505806,0.0005000000237487257,-0.021266955331291793,-0.12118233291713945,0.14583194208160224,0.14,0.0,0.26,0.03536025807261467,0.0005424621049314737,0.36157354712486267,0.0,-1.165529723939871
0.0,5.0,0.0,0.025,0.0,0.0,0.0,0.0,0.015339807607233524,-1.1681458950042725,1.0109710693359375,-1.3537670373916626,-0.0715857669711113,0.0,0.015339807607233524,-1.1431459188461304,1.0109710693359375,-1.3537670373916626,-0.0715857669711113,0.003,0.0,0.0,0.0,0.0,0.0,0.0,-3.1,3.1,-1.571,1.571,-1.571,1.571,-1.745,1.745,-2.617,2.617,0.003,0.03,-0.05000000074505806,-0.02500000037252903,-0.02500000037252903,-0.02500000037252903,-0.05000000074505806,-0.0005000000237487257,0.05000000074505806,0.02500000037252903,0.02500000037252903,0.02500000037252903,0.05000000074505806,0.0005000000237487257,-0.01987304876237946,-0.14105538167951892,0.1409718013021734,0.14,0.0,0.26,0.04126223176717758,0.0006330043543130159,0.360615611076355,0.0,-1.1664337870629216
0.0,6.0,0.0,0.025,0.0,0.0,0.0,0.0,0.015339807607233524,-1.1431459188461304,1.0109710693359375,-1.3537670373916626,-0.0715857669711113,0.0,0.015339807607233524,-1.1181459426879883,1.0109710693359375,-1.3537670373916626,-0.0715857669711113,0.003,0.0,0.0,0.0,0.0,0.0,0.0,-3.1,3.1,-1.571,1.571,-1.571,1.571,-1.745,1.745,-2.617,2.617,0.003,0.03,-0.05000000074505806,-0.02500000037252903,-0.02500000037252903,-0.02500000037252903,-0.05000000074505806,-0.0005000000237487257,0.05000000074505806,0.02500000037252903,0.02500000037252903,0.02500000037252903,0.05000000074505806,0.0005000000237487257,-0.018526120902032008,-0.15958150258155093,0.13611069356237962,0.14,0.0,0.26,0.04713841527700424,0.0007231509662233293,0.3595104217529297,0.0,-1.1666658575505084
0.0,7.0,0.0,0.025,0.0,0.0,0.0,0.0,0.015339807607233524,-1.1181459426879883,1.0109710693359375,-1.3537670373916626,-0.0715857669711113,0.0,0.015339807607233524,-1.0931459665298462,1.0109710693359375,-1.3537670373916626,-0.0715857669711113,0.003,0.0,0.0,0.0,0.0,0.0,0.0,-3.1,3.1,-1.571,1.571,-1.571,1.571,-1.745,1.745,-2.617,2.617,0.003,0.03,-0.05000000074505806,-0.02500000037252903,-0.02500000037252903,-0.02500000037252903,-0.05000000074505806,-0.0005000000237487257,0.05000000074505806,0.02500000037252903,0.02500000037252903,0.02500000037252903,0.05000000074505806,0.0005000000237487257,-0.01722701189009356,-0.1768085144716445,0.1312517119510963,0.14,0.0,0.26,0.052985139191150665,0.0008128455956466496,0.3582586646080017,0.0,-1.1661555867079954
0.0,8.0,0.0,0.025,0.0,0.0,0.0,0.0,0.015339807607233524,-1.0931459665298462,1.0109710693359375,-1.3537670373916626,-0.0715857669711113,0.0,0.015339807607233524,-1.068145990371704,1.0109710693359375,-1.3537670373916626,-0.0715857669711113,0.003,0.0,0.0,0.0,0.0,0.0,0.0,-3.1,3.1,-1.571,1.571,-1.571,1.571,-1.745,1.745,-2.617,2.617,0.003,0.03,-0.05000000074505806,-0.02500000037252903,-0.02500000037252903,-0.02500000037252903,-0.05000000074505806,-0.0005000000237487257,0.05000000074505806,0.02500000037252903,0.02500000037252903,0.02500000037252903,0.05000000074505806,0.0005000000237487257,-0.01597653172383528,-0.1927850461954798,0.12639830585824827,0.14,0.0,0.26,0.05879875272512436,0.000902032305020839,0.3568611145019531,0.0,-1.1648174622835294
0.0,9.0,0.0,0.025,0.0,0.0,0.0,0.0,0.015339807607233524,-1.068145990371704,1.0109710693359375,-1.3537670373916626,-0.0715857669711113,0.0,0.015339807607233524,-1.043146014213562,1.0109710693359375,-1.3537670373916626,-0.0715857669711113,0.003,0.0,0.0,0.0,0.0,0.0,0.0,-3.1,3.1,-1.571,1.571,-1.571,1.571,-1.745,1.745,-2.617,2.617,0.003,0.03,-0.05000000074505806,-0.02500000037252903,-0.02500000037252903,-0.02500000037252903,-0.05000000074505806,-0.0005000000237487257,0.05000000074505806,0.02500000037252903,0.02500000037252903,0.02500000037252903,0.05000000074505806,0.0005000000237487257,-0.014775473295585971,-0.20756051949106577,0.12155440467373435,0.14,0.0,0.26,0.06457561254501343,0.0009906551567837596,0.35531869530677795,0.0,-1.1625362842833398
0.0,10.0,0.0,0.025,0.0,0.0,0.0,0.0,0.015339807607233524,-1.043146014213562,1.0109710693359375,-1.3537670373916626,-0.0715857669711113,0.0,0.015339807607233524,-1.01814603805542,1.0109710693359375,-1.3537670373916626,-0.0715857669711113,0.003,0.0,0.0,0.0,0.0,0.0,0.0,-3.1,3.1,-1.571,1.571,-1.571,1.571,-1.745,1.745,-2.617,2.617,0.003,0.03,-0.05000000074505806,-0.02500000037252903,-0.02500000037252903,-0.02500000037252903,-0.05000000074505806,-0.0005000000237487257,0.05000000074505806,0.02500000037252903,0.02500000037252903,0.02500000037252903,0.05000000074505806,0.0005000000237487257,-0.013624571929036936,-0.2211850914201027,0.11672434163034262,0.14,0.0,0.26,0.07031212002038956,0.0010786589700728655,0.3536323010921478,0.0,-1.1592151304140152
0.0,11.0,0.0,0.025,0.0,0.0,0.0,0.0,0.015339807607233524,-1.01814603805542,1.0109710693359375,-1.3537670373916626,-0.0715857669711113,0.0,0.015339807607233524,-0.9931460618972778,1.0109710693359375,-1.3537670373916626,-0.0715857669711113,0.003,0.0,0.0,0.0,0.0,0.0,0.0,-3.1,3.1,-1.571,1.571,-1.571,1.571,-1.745,1.745,-2.617,2.617,0.003,0.03,-0.05000000074505806,-0.02500000037252903,-0.02500000037252903,-0.02500000037252903,-0.05000000074505806,-0.0005000000237487257,0.05000000074505806,0.02500000037252903,0.02500000037252903,0.02500000037252903,0.05000000074505806,0.0005000000237487257,-0.012524557154552144,-0.23370964857465484,0.11191316792295777,0.14,0.0,0.26,0.07600468397140503,0.0011659886222332716,0.3518030345439911,0.0,-1.1546816897723633
0.0,12.0,0.0,0.025,0.0,0.0,0.0,0.0,0.015339807607233524,-0.9931460618972778,1.0109710693359375,-1.3537670373916626,-0.0715857669711113,0.0,0.015339807607233524,-0.9681460857391357,1.0109710693359375,-1.3537670373916626,-0.0715857669711113,0.003,0.0,0.0,0.0,0.0,0.0,0.0,-3.1,3.1,-1.571,1.571,-1.571,1.571,-1.745,1.745,-2.617,2.617,0.003,0.03,-0.05000000074505806,-0.02500000037252903,-0.02500000037252903,-0.02500000037252903,-0.05000000074505806,-0.0005000000237487257,0.05000000074505806,0.02500000037252903,0.02500000037252903,0.02500000037252903,0.05000000074505806,0.0005000000237487257,-0.011476114751995815,-0.24518576332665065,0.10712662951850868,0.14,0.0,0.26,0.08164974302053452,0.001252589630894363,0.34983202815055847,0.0,-1.1487692170677821
0.0,13.0,0.0,0.025,0.0,0.0,0.0,0.0,0.015339807607233524,-0.9681460857391357,1.0109710693359375,-1.3537670373916626,-0.0715857669711113,0.0,0.015339807607233524,-0.9431461095809937,1.0109710693359375,-1.3537670373916626,-0.0715857669711113,0.003,0.0,0.0,0.0,0.0,0.0,0.0,-3.1,3.1,-1.571,1.571,-1.571,1.571,-1.745,1.745,-2.617,2.617,0.003,0.03,-0.05000000074505806,-0.02500000037252903,-0.02500000037252903,-0.02500000037252903,-0.05000000074505806,-0.0005000000237487257,0.05000000074505806,0.02500000037252903,0.02500000037252903,0.02500000037252903,0.05000000074505806,0.0005000000237487257,-0.010479896820054823,-0.2556656601467055,0.10237136718855924,0.14,0.0,0.26,0.08724378049373627,0.0013384077465161681,0.34772050380706787,0.0,-1.1412629591878654
0.0,14.0,0.0,0.025,0.0,0.0,0.0,0.0,0.015339807607233524,-0.9431461095809937,1.0109710693359375,-1.3537670373916626,-0.0715857669711113,0.0,0.015339807607233524,-0.9181461334228516,1.0109710693359375,-1.3537670373916626,-0.0715857669711113,0.003,0.0,0.0,0.0,0.0,0.0,0.0,-3.1,3.1,-1.571,1.571,-1.571,1.571,-1.745,1.745,-2.617,2.617,0.003,0.03,-0.05000000074505806,-0.02500000037252903,-0.02500000037252903,-0.02500000037252903,-0.05000000074505806,-0.0005000000237487257,0.05000000074505806,0.02500000037252903,0.02500000037252903,0.02500000037252903,0.05000000074505806,0.0005000000237487257,-0.009536526073305662,-0.2652021862200112,0.09765513848899945,0.14,0.0,0.26,0.09278328716754913,0.0014233894180506468,0.34546977281570435,0.0,-1.131894887894349
0.0,15.0,0.0,0.025,0.0,0.0,0.0,0.0,0.015339807607233524,-0.9181461334228516,1.0109710693359375,-1.3537670373916626,-0.0715857669711113,0.0,0.015339807607233524,-0.8931461572647095,1.0109710693359375,-1.3537670373916626,-0.0715857669711113,0.003,0.0,0.0,0.0,0.0,0.0,0.0,-3.1,3.1,-1.571,1.571,-1.571,1.571,-1.745,1.745,-2.617,2.617,0.003,0.03,-0.05000000074505806,-0.02500000037252903,-0.02500000037252903,-0.02500000037252903,-0.05000000074505806,-0.0005000000237487257,0.05000000074505806,0.02500000037252903,0.02500000037252903,0.02500000037252903,0.05000000074505806,0.0005000000237487257,-0.008646595007568484,-0.27384878122757966,0.09298706903418606,0.14,0.0,0.26,0.09826481342315674,0.0015074815601110458,0.3430812656879425,0.0,-1.1203366691552141
0.0,16.0,0.0,0.025,0.0,0.0,0.0,0.0,0.015339807607233524,-0.8931461572647095,1.0109710693359375,-1.3537670373916626,-0.0715857669711113,0.0,0.015339807607233524,-0.8681461811065674,1.0109710693359375,-1.3537670373916626,-0.0715857669711113,0.003,0.0,0.0,0.0,0.0,0.0,0.0,-3.1,3.1,-1.571,1.571,-1.571,1.571,-1.745,1.745,-2.617,2.617,0.003,0.03,-0.05000000074505806,-0.02500000037252903,-0.02500000037252903,-0.02500000037252903,-0.05000000074505806,-0.0005000000237487257,0.05000000074505806,0.02500000037252903,0.02500000037252903,0.02500000037252903,0.05000000074505806,0.0005000000237487257,-0.007810660082263835,-0.2816594413098435,0.08837793888897746,0.14,0.0,0.26,0.1036849245429039,0.0015906315529718995,0.34055647253990173,0.0,-1.1061912348500635
0.0,17.0,0.0,0.025,0.0,0.0,0.0,0.0,0.015339807607233524,-0.8681461811065674,1.0109710693359375,-1.3537670373916626,-0.0715857669711113,0.0,0.015339807607233524,-0.8431462049484253,1.0109710693359375,-1.3537670373916626,-0.0715857669711113,0.003,0.0,0.0,0.0,0.0,0.0,0.0,-3.1,3.1,-1.571,1.571,-1.571,1.571,-1.745,1.745,-2.617,2.617,0.003,0.03,-0.05000000074505806,-0.02500000037252903,-0.02500000037252903,-0.02500000037252903,-0.05000000074505806,-0.0005000000237487257,0.05000000074505806,0.02500000037252903,0.02500000037252903,0.02500000037252903,0.05000000074505806,0.0005000000237487257,-0.00702924346946589,-0.28868868477930937,0.08384058366606169,0.14,0.0,0.26,0.10904023796319962,0.001672787475399673,0.3378969728946686,0.0,-1.0889652534997862
0.0,18.0,0.0,0.025,0.0,0.0,0.0,0.0,0.015339807607233524,-0.8431462049484253,1.0109710693359375,-1.3537670373916626,-0.0715857669711113,0.0,0.015339807607233524,-0.8181462287902832,1.0109710693359375,-1.3537670373916626,-0.0715857669711113,0.003,0.0,0.0,0.0,0.0,0.0,0.0,-3.1,3.1,-1.571,1.571,-1.571,1.571,-1.745,1.745,-2.617,2.617,0.003,0.03,-0.05000000074505806,-0.02500000037252903,-0.02500000037252903,-0.02500000037252903,-0.05000000074505806,-0.0005000000237487257,0.05000000074505806,0.02500000037252903,0.02500000037252903,0.02500000037252903,0.05000000074505806,0.0005000000237487257,-0.00630283028370863,-0.294991515063018,0.07939036644145579,0.14,0.0,0.26,0.11432740092277527,0.0017538978718221188,0.33510440587997437,0.0,-1.068052133905415
0.0,19.0,0.0,0.025,0.0,0.0,0.0,0.0,0.015339807607233524,-0.8181462287902832,1.0109710693359375,-1.3537670373916626,-0.0715857669711113,0.0,0.015339807607233524,-0.7931462526321411,1.0109710693359375,-1.3537670373916626,-0.0715857669711113,0.003,0.0,0.0,0.0,0.0,0.0,0.0,-3.1,3.1,-1.571,1.571,-1.571,1.571,-1.745,1.745,-2.617,2.617,0.003,0.03,-0.05000000074505806,-0.02500000037252903,-0.02500000037252903,-0.02500000037252903,-0.05000000074505806,-0.0005000000237487257,0.05000000074505806,0.02500000037252903,0.02500000037252903,0.02500000037252903,0.05000000074505806,0.0005000000237487257,-0.005631876049464758,-0.30062339111248276,0.07504582632941527,0.14,0.0,0.26,0.11954312026500702,0.001833912217989564,0.33218052983283997,0.0,-1.0426896268897257
0.0,20.0,0.0,0.025,0.0,0.0,0.0,0.0,0.015339807607233524,-0.7931462526321411,1.0109710693359375,-1.3537670373916626,-0.0715857669711113,0.0,0.015339807607233524,-0.768146276473999,1.0109710693359375,-1.3537670373916626,-0.0715857669711113,0.003,0.0,0.0,0.0,0.0,0.0,0.0,-3.1,3.1,-1.571,1.571,-1.571,1.571,-1.745,1.745,-2.617,2.617,0.003,0.03,-0.05000000074505806,-0.02500000037252903,-0.02500000037252903,-0.02500000037252903,-0.05000000074505806,-0.0005000000237487257,0.05000000074505806,0.02500000037252903,0.02500000037252903,0.02500000037252903,0.05000000074505806,0.0005000000237487257,-0.005016799600894428,-0.30564019071337717,0.07082936962090251,0.14,0.0,0.26,0.12468411773443222,0.001912780455313623,0.32912716269493103,0.0,-1.0119496100430614
0.0,21.0,0.0,0.025,0.0,0.0,0.0,0.0,0.015339807607233524,-0.768146276473999,1.0109710693359375,-1.3537670373916626,-0.0715857669711113,0.0,0.015339807607233524,-0.7431463003158569,1.0109710693359375,-1.3537670373916626,-0.0715857669711113,0.003,0.0,0.0,0.0,0.0,0.0,0.0,-3.1,3.1,-1.571,1.571,-1.571,1.571,-1.745,1.745,-2.617,2.617,0.003,0.03,-0.05000000074505806,-0.02500000037252903,-0.02500000037252903,-0.02500000037252903,-0.05000000074505806,-0.0005000000237487257,0.05000000074505806,0.02500000037252903,0.02500000037252903,0.02500000037252903,0.05000000074505806,0.0005000000237487257,-0.004457988656634799,-0.310098179370012,0.06676817098464506,0.14,0.0,0.26,0.1297471970319748,0.001990453340113163,0.32594624161720276,0.0,-0.9746876727017884
0.0,22.0,0.0,0.025,0.0,0.0,0.0,0.0,0.015339807607233524,-0.7431463003158569,1.0109710693359375,-1.3537670373916626,-0.0715857669711113,0.0,0.015339807607233524,-0.7181463241577148,1.0109710693359375,-1.3537670373916626,-0.0715857669711113,0.003,0.0,0.0,0.0,0.0,0.0,0.0,-3.1,3.1,-1.571,1.571,-1.571,1.571,-1.745,1.745,-2.617,2.617,0.003,0.03,-0.05000000074505806,-0.02500000037252903,-0.02500000037252903,-0.02500000037252903,-0.05000000074505806,-0.0005000000237487257,0.05000000074505806,0.02500000037252903,0.02500000037252903,0.02500000037252903,0.05000000074505806,0.0005000000237487257,-0.003955789641722153,-0.31405396901173416,0.06289506850081454,0.14,0.0,0.26,0.13472919166088104,0.0020668820943683386,0.32263973355293274,0.0,-0.9295445961193249
0.0,23.0,0.0,0.025,0.0,0.0,0.0,0.0,0.015339807607233524,-0.7181463241577148,1.0109710693359375,-1.3537670373916626,-0.0715857669711113,0.0,0.015339807607233524,-0.6931463479995728,1.0109710693359375,-1.3537670373916626,-0.0715857669711113,0.003,0.0,0.0,0.0,0.0,0.0,0.0,-3.1,3.1,-1.571,1.571,-1.571,1.571,-1.745,1.745,-2.617,2.617,0.003,0.03,-0.05000000074505806,-0.02500000037252903,-0.02500000037252903,-0.02500000037252903,-0.05000000074505806,-0.0005000000237487257,0.05000000074505806,0.02500000037252903,0.02500000037252903,0.02500000037252903,0.05000000074505806,0.0005000000237487257,-0.0035105153555860763,-0.3175644843673202,0.059249602155508826,0.14,0.0,0.26,0.13962697982788086,0.0021420191042125225,0.3192096948623657,0.0,-0.8749119228733715
0.0,24.0,0.0,0.025,0.0,0.0,0.0,0.0,0.015339807607233524,-0.6931463479995728,1.0109710693359375,-1.3537670373916626,-0.0715857669711113,0.0,0.015339807607233524,-0.6681463718414307,1.0109710693359375,-1.3537670373916626,-0.0715857669711113,0.003,0.0,0.0,0.0,0.0,0.0,0.0,-3.1,3.1,-1.571,1.571,-1.571,1.571,-1.745,1.745,-2.617,2.617,0.003,0.03,-0.05000000074505806,-0.02500000037252903,-0.02500000037252903,-0.02500000037252903,-0.05000000074505806,-0.0005000000237487257,0.05000000074505806,0.02500000037252903,0.02500000037252903,0.02500000037252903,0.05000000074505806,0.0005000000237487257,-0.0035105153555860763,-0.32107499972290626,0.059249602155508826,0.14,0.0,0.26,0.13962697982788086,0.0021420191042125225,0.3192096948623657,0.0,0.0
0.0,25.0,0.0,0.025,0.0,0.0,0.0,0.0,0.015339807607233524,-0.6931463479995728,1.0109710693359375,-1.3537670373916626,-0.0715857669711113,0.0,0.015339807607233524,-0.6681463718414307,1.0109710693359375,-1.3537670373916626,-0.0715857669711113,0.003,0.0,0.0,0.0,0.0,0.0,0.0,-3.1,3.1,-1.571,1.571,-1.571,1.571,-1.745,1.745,-2.617,2.617,0.003,0.03,-0.05000000074505806,-0.02500000037252903,-0.02500000037252903,-0.02500000037252903,-0.05000000074505806,-0.0005000000237487257,0.05000000074505806,0.02500000037252903,0.02500000037252903,0.02500000037252903,0.05000000074505806,0.0005000000237487257,-0.0035105153555860763,-0.3245855150784923,0.059249602155508826,0.14,0.0,0.26,0.13962697982788086,0.0021420191042125225,0.3192096948623657,0.0,0.0
0.0,26.0,0.0,0.025,0.0,0.0,0.0,0.0,0.015339807607233524,-0.6931463479995728,1.0109710693359375,-1.3537670373916626,-0.0715857669711113,0.0,0.015339807607233524,-0.6681463718414307,1.0109710693359375,-1.3537670373916626,-0.0715857669711113,0.003,0.0,0.0,0.0,0.0,0.0,0.0,-3.1,3.1,-1.571,1.571,-1.571,1.571,-1.745,1.745,-2.617,2.617,0.003,0.03,-0.05000000074505806,-0.02500000037252903,-0.02500000037252903,-0.02500000037252903,-0.05000000074505806,-0.0005000000237487257,0.05000000074505806,0.02500000037252903,0.02500000037252903,0.02500000037252903,0.05000000074505806,0.0005000000237487257,-0.0035105153555860763,-0.32809603043407837,0.059249602155508826,0.14,0.0,0.26,0.13962697982788086,0.0021420191042125225,0.3192096948623657,0.0,0.0
0.0,27.0,0.0,0.025,0.0,0.0,0.0,0.0,0.015339807607233524,-0.6931463479995728,1.0109710693359375,-1.3537670373916626,-0.0715857669711113,0.0,0.015339807607233524,-0.6681463718414307,1.0109710693359375,-1.3537670373916626,-0.0715857669711113,0.003,0.0,0.0,0.0,0.0,0.0,0.0,-3.1,3.1,-1.571,1.571,-1.571,1.571,-1.745,1.745,-2.617,2.617,0.003,0.03,-0.05000000074505806,-0.02500000037252903,-0.02500000037252903,-0.02500000037252903,-0.05000000074505806,-0.0005000000237487257,0.05000000074505806,0.02500000037252903,0.02500000037252903,0.02500000037252903,0.05000000074505806,0.0005000000237487257,-0.0035105153555860763,-0.3316065457896644,0.059249602155508826,0.14,0.0,0.26,0.13962697982788086,0.0021420191042125225,0.3192096948623657,0.0,0.0
0.0,28.0,0.0,0.025,0.0,0.0,0.0,0.0,0.015339807607233524,-0.6931463479995728,1.0109710693359375,-1.3537670373916626,-0.0715857669711113,0.0,0.015339807607233524,-0.6681463718414307,1.0109710693359375,-1.3537670373916626,-0.0715857669711113,0.003,0.0,0.0,0.0,0.0,0.0,0.0,-3.1,3.1,-1.571,1.571,-1.571,1.571,-1.745,1.745,-2.617,2.617,0.003,0.03,-0.05000000074505806,-0.02500000037252903,-0.02500000037252903,-0.02500000037252903,-0.05000000074505806,-0.0005000000237487257,0.05000000074505806,0.02500000037252903,0.02500000037252903,0.02500000037252903,0.05000000074505806,0.0005000000237487257,-0.0035105153555860763,-0.33511706114525047,0.059249602155508826,0.14,0.0,0.26,0.13962697982788086,0.0021420191042125225,0.3192096948623657,0.0,0.0
0.0,29.0,0.0,0.025,0.0,0.0,0.0,0.0,0.015339807607233524,-0.6931463479995728,1.0109710693359375,-1.3537670373916626,-0.0715857669711113,0.0,0.015339807607233524,-0.6681463718414307,1.0109710693359375,-1.3537670373916626,-0.0715857669711113,0.003,0.0,0.0,0.0,0.0,0.0,0.0,-3.1,3.1,-1.571,1.571,-1.571,1.571,-1.745,1.745,-2.617,2.617,0.003,0.03,-0.05000000074505806,-0.02500000037252903,-0.02500000037252903,-0.02500000037252903,-0.05000000074505806,-0.0005000000237487257,0.05000000074505806,0.02500000037252903,0.02500000037252903,0.02500000037252903,0.05000000074505806,0.0005000000237487257,-0.0035105153555860763,-0.3386275765008365,0.059249602155508826,0.14,0.0,0.26,0.13962697982788086,0.0021420191042125225,0.3192096948623657,0.0,0.0
0.0,30.0,0.0,0.025,0.0,0.0,0.0,0.0,0.015339807607233524,-0.6931463479995728,1.0109710693359375,-1.3537670373916626,-0.0715857669711113,0.0,0.015339807607233524,-0.6681463718414307,1.0109710693359375,-1.3537670373916626,-0.0715857669711113,0.003,0.0,0.0,0.0,0.0,0.0,0.0,-3.1,3.1,-1.571,1.571,-1.571,1.571,-1.745,1.745,-2.617,2.617,0.003,0.03,-0.05000000074505806,-0.02500000037252903,-0.02500000037252903,-0.02500000037252903,-0.05000000074505806,-0.0005000000237487257,0.05000000074505806,0.02500000037252903,0.02500000037252903,0.02500000037252903,0.05000000074505806,0.0005000000237487257,-0.0035105153555860763,-0.3421380918564226,0.059249602155508826,0.14,0.0,0.26,0.13962697982788086,0.0021420191042125225,0.3192096948623657,0.0,0.0
0.0,31.0,0.0,0.025,0.0,0.0,0.0,0.0,0.015339807607233524,-0.6931463479995728,1.0109710693359375,-1.3537670373916626,-0.0715857669711113,0.0,0.015339807607233524,-0.6681463718414307,1.0109710693359375,-1.3537670373916626,-0.0715857669711113,0.003,0.0,0.0,0.0,0.0,0.0,0.0,-3.1,3.1,-1.571,1.571,-1.571,1.571,-1.745,1.745,-2.617,2.617,0.003,0.03,-0.05000000074505806,-0.02500000037252903,-0.02500000037252903,-0.02500000037252903,-0.05000000074505806,-0.0005000000237487257,0.05000000074505806,0.02500000037252903,0.02500000037252903,0.02500000037252903,0.05000000074505806,0.0005000000237487257,-0.0035105153555860763,-0.34564860721200863,0.059249602155508826,0.14,0.0,0.26,0.13962697982788086,0.0021420191042125225,0.3192096948623657,0.0,0.0
0.0,32.0,0.0,0.025,0.0,0.0,0.0,0.0,0.015339807607233524,-0.6931463479995728,1.0109710693359375,-1.3537670373916626,-0.0715857669711113,0.0,0.015339807607233524,-0.6681463718414307,1.0109710693359375,-1.3537670373916626,-0.0715857669711113,0.003,0.0,0.0,0.0,0.0,0.0,0.0,-3.1,3.1,-1.571,1.571,-1.571,1.571,-1.745,1.745,-2.617,2.617,0.003,0.03,-0.05000000074505806,-0.02500000037252903,-0.02500000037252903,-0.02500000037252903,-0.05000000074505806,-0.0005000000237487257,0.05000000074505806,0.02500000037252903,0.02500000037252903,0.02500000037252903,0.05000000074505806,0.0005000000237487257,-0.0035105153555860763,-0.3491591225675947,0.059249602155508826,0.14,0.0,0.26,0.13962697982788086,0.0021420191042125225,0.3192096948623657,0.0,0.0
0.0,33.0,0.0,0.025,0.0,0.0,0.0,0.0,0.015339807607233524,-0.6931463479995728,1.0109710693359375,-1.3537670373916626,-0.0715857669711113,0.0,0.015339807607233524,-0.6681463718414307,1.0109710693359375,-1.3537670373916626,-0.0715857669711113,0.003,0.0,0.0,0.0,0.0,0.0,0.0,-3.1,3.1,-1.571,1.571,-1.571,1.571,-1.745,1.745,-2.617,2.617,0.003,0.03,-0.05000000074505806,-0.02500000037252903,-0.02500000037252903,-0.02500000037252903,-0.05000000074505806,-0.0005000000237487257,0.05000000074505806,0.02500000037252903,0.02500000037252903,0.02500000037252903,0.05000000074505806,0.0005000000237487257,-0.0035105153555860763,-0.35266963792318073,0.059249602155508826,0.14,0.0,0.26,0.13962697982788086,0.0021420191042125225,0.3192096948623657,0.0,0.0
0.0,34.0,0.0,0.025,0.0,0.0,0.0,0.0,0.015339807607233524,-0.6931463479995728,1.0109710693359375,-1.3537670373916626,-0.0715857669711113,0.0,0.015339807607233524,-0.6681463718414307,1.0109710693359375,-1.3537670373916626,-0.0715857669711113,0.003,0.0,0.0,0.0,0.0,0.0,0.0,-3.1,3.1,-1.571,1.571,-1.571,1.571,-1.745,1.745,-2.617,2.617,0.003,0.03,-0.05000000074505806,-0.02500000037252903,-0.02500000037252903,-0.02500000037252903,-0.05000000074505806,-0.0005000000237487257,0.05000000074505806,0.02500000037252903,0.02500000037252903,0.02500000037252903,0.05000000074505806,0.0005000000237487257,-0.0035105153555860763,-0.3561801532787668,0.059249602155508826,0.14,0.0,0.26,0.13962697982788086,0.0021420191042125225,0.3192096948623657,0.0,0.0
0.0,35.0,0.0,0.025,0.0,0.0,0.0,0.0,0.015339807607233524,-0.6931463479995728,1.0109710693359375,-1.3537670373916626,-0.0715857669711113,0.0,0.015339807607233524,-0.6681463718414307,1.0109710693359375,-1.3537670373916626,-0.0715857669711113,0.003,0.0,0.0,0.0,0.0,0.0,0.0,-3.1,3.1,-1.571,1.571,-1.571,1.571,-1.745,1.745,-2.617,2.617,0.003,0.03,-0.05000000074505806,-0.02500000037252903,-0.02500000037252903,-0.02500000037252903,-0.05000000074505806,-0.0005000000237487257,0.05000000074505806,0.02500000037252903,0.02500000037252903,0.02500000037252903,0.05000000074505806,0.0005000000237487257,-0.0035105153555860763,-0.35969066863435284,0.059249602155508826,0.14,0.0,0.26,0.13962697982788086,0.0021420191042125225,0.3192096948623657,0.0,0.0
0.0,36.0,0.0,0.025,0.0,0.0,0.0,0.0,0.015339807607233524,-0.6931463479995728,1.0109710693359375,-1.3537670373916626,-0.0715857669711113,0.0,0.015339807607233524,-0.6681463718414307,1.0109710693359375,-1.3537670373916626,-0.0715857669711113,0.003,0.0,0.0,0.0,0.0,0.0,0.0,-3.1,3.1,-1.571,1.571,-1.571,1.571,-1.745,1.745,-2.617,2.617,0.003,0.03,-0.05000000074505806,-0.02500000037252903,-0.02500000037252903,-0.02500000037252903,-0.05000000074505806,-0.0005000000237487257,0.05000000074505806,0.02500000037252903,0.02500000037252903,0.02500000037252903,0.05000000074505806,0.0005000000237487257,-0.0035105153555860763,-0.3632011839899389,0.059249602155508826,0.14,0.0,0.26,0.13962697982788086,0.0021420191042125225,0.3192096948623657,0.0,0.0
0.0,37.0,0.0,0.025,0.0,0.0,0.0,0.0,0.015339807607233524,-0.6931463479995728,1.0109710693359375,-1.3537670373916626,-0.0715857669711113,0.0,0.015339807607233524,-0.6681463718414307,1.0109710693359375,-1.3537670373916626,-0.0715857669711113,0.003,0.0,0.0,0.0,0.0,0.0,0.0,-3.1,3.1,-1.571,1.571,-1.571,1.571,-1.745,1.745,-2.617,2.617,0.003,0.03,-0.05000000074505806,-0.02500000037252903,-0.02500000037252903,-0.02500000037252903,-0.05000000074505806,-0.0005000000237487257,0.05000000074505806,0.02500000037252903,0.02500000037252903,0.02500000037252903,0.05000000074505806,0.0005000000237487257,-0.0035105153555860763,-0.36671169934552494,0.059249602155508826,0.14,0.0,0.26,0.13962697982788086,0.0021420191042125225,0.3192096948623657,0.0,0.0
0.0,38.0,0.0,0.025,0.0,0.0,0.0,0.0,0.015339807607233524,-0.6931463479995728,1.0109710693359375,-1.3537670373916626,-0.0715857669711113,0.0,0.015339807607233524,-0.6681463718414307,1.0109710693359375,-1.3537670373916626,-0.0715857669711113,0.003,0.0,0.0,0.0,0.0,0.0,0.0,-3.1,3.1,-1.571,1.571,-1.571,1.571,-1.745,1.745,-2.617,2.617,0.003,0.03,-0.05000000074505806,-0.02500000037252903,-0.02500000037252903,-0.02500000037252903,-0.05000000074505806,-0.0005000000237487257,0.05000000074505806,0.02500000037252903,0.02500000037252903,0.02500000037252903,0.05000000074505806,0.0005000000237487257,-0.0035105153555860763,-0.370222214701111,0.059249602155508826,0.14,0.0,0.26,0.13962697982788086,0.0021420191042125225,0.3192096948623657,0.0,0.0
0.0,39.0,0.0,0.025,0.0,0.0,0.0,0.0,0.015339807607233524,-0.6931463479995728,1.0109710693359375,-1.3537670373916626,-0.0715857669711113,0.0,0.015339807607233524,-0.6681463718414307,1.0109710693359375,-1.3537670373916626,-0.0715857669711113,0.003,0.0,0.0,0.0,0.0,0.0,0.0,-3.1,3.1,-1.571,1.571,-1.571,1.571,-1.745,1.745,-2.617,2.617,0.003,0.03,-0.05000000074505806,-0.02500000037252903,-0.02500000037252903,-0.02500000037252903,-0.05000000074505806,-0.0005000000237487257,0.05000000074505806,0.02500000037252903,0.02500000037252903,0.02500000037252903,0.05000000074505806,0.0005000000237487257,-0.0035105153555860763,-0.37373273005669705,0.059249602155508826,0.14,0.0,0.26,0.13962697982788086,0.0021420191042125225,0.3192096948623657,0.0,0.0
0.0,40.0,0.0,0.025,0.0,0.0,0.0,0.0,0.015339807607233524,-0.6931463479995728,1.0109710693359375,-1.3537670373916626,-0.0715857669711113,0.0,0.015339807607233524,-0.6681463718414307,1.0109710693359375,-1.3537670373916626,-0.0715857669711113,0.003,0.0,0.0,0.0,0.0,0.0,0.0,-3.1,3.1,-1.571,1.571,-1.571,1.571,-1.745,1.745,-2.617,2.617,0.003,0.03,-0.05000000074505806,-0.02500000037252903,-0.02500000037252903,-0.02500000037252903,-0.05000000074505806,-0.0005000000237487257,0.05000000074505806,0.02500000037252903,0.02500000037252903,0.02500000037252903,0.05000000074505806,0.0005000000237487257,-0.0035105153555860763,-0.3772432454122831,0.059249602155508826,0.14,0.0,0.26,0.13962697982788086,0.0021420191042125225,0.3192096948623657,0.0,0.0
0.0,41.0,0.0,0.025,0.0,0.0,0.0,0.0,0.015339807607233524,-0.6931463479995728,1.0109710693359375,-1.3537670373916626,-0.0715857669711113,0.0,0.015339807607233524,-0.6681463718414307,1.0109710693359375,-1.3537670373916626,-0.0715857669711113,0.003,0.0,0.0,0.0,0.0,0.0,0.0,-3.1,3.1,-1.571,1.571,-1.571,1.571,-1.745,1.745,-2.617,2.617,0.003,0.03,-0.05000000074505806,-0.02500000037252903,-0.02500000037252903,-0.02500000037252903,-0.05000000074505806,-0.0005000000237487257,0.05000000074505806,0.02500000037252903,0.02500000037252903,0.02500000037252903,0.05000000074505806,0.0005000000237487257,-0.0035105153555860763,-0.38075376076786915,0.059249602155508826,0.14,0.0,0.26,0.13962697982788086,0.0021420191042125225,0.3192096948623657,0.0,0.0
0.0,42.0,0.0,0.025,0.0,0.0,0.0,0.0,0.015339807607233524,-0.6931463479995728,1.0109710693359375,-1.3537670373916626,-0.0715857669711113,0.0,0.015339807607233524,-0.6681463718414307,1.0109710693359375,-1.3537670373916626,-0.0715857669711113,0.003,0.0,0.0,0.0,0.0,0.0,0.0,-3.1,3.1,-1.571,1.571,-1.571,1.571,-1.745,1.745,-2.617,2.617,0.003,0.03,-0.05000000074505806,-0.02500000037252903,-0.02500000037252903,-0.02500000037252903,-0.05000000074505806,-0.0005000000237487257,0.05000000074505806,0.02500000037252903,0.02500000037252903,0.02500000037252903,0.05000000074505806,0.0005000000237487257,-0.0035105153555860763,-0.3842642761234552,0.059249602155508826,0.14,0.0,0.26,0.13962697982788086,0.0021420191042125225,0.3192096948623657,0.0,0.0
0.0,43.0,0.0,0.025,0.0,0.0,0.0,0.0,0.015339807607233524,-0.6931463479995728,1.0109710693359375,-1.3537670373916626,-0.0715857669711113,0.0,0.015339807607233524,-0.6681463718414307,1.0109710693359375,-1.3537670373916626,-0.0715857669711113,0.003,0.0,0.0,0.0,0.0,0.0,0.0,-3.1,3.1,-1.571,1.571,-1.571,1.571,-1.745,1.745,-2.617,2.617,0.003,0.03,-0.05000000074505806,-0.02500000037252903,-0.02500000037252903,-0.02500000037252903,-0.05000000074505806,-0.0005000000237487257,0.05000000074505806,0.02500000037252903,0.02500000037252903,0.02500000037252903,0.05000000074505806,0.0005000000237487257,-0.0035105153555860763,-0.38777479147904126,0.059249602155508826,0.14,0.0,0.26,0.13962697982788086,0.0021420191042125225,0.3192096948623657,0.0,0.0
0.0,44.0,0.0,0.025,0.0,0.0,0.0,0.0,0.015339807607233524,-0.6931463479995728,1.0109710693359375,-1.3537670373916626,-0.0715857669711113,0.0,0.015339807607233524,-0.6681463718414307,1.0109710693359375,-1.3537670373916626,-0.0715857669711113,0.003,0.0,0.0,0.0,0.0,0.0,0.0,-3.1,3.1,-1.571,1.571,-1.571,1.571,-1.745,1.745,-2.617,2.617,0.003,0.03,-0.05000000074505806,-0.02500000037252903,-0.02500000037252903,-0.02500000037252903,-0.05000000074505806,-0.0005000000237487257,0.05000000074505806,0.02500000037252903,0.02500000037252903,0.02500000037252903,0.05000000074505806,0.0005000000237487257,-0.0035105153555860763,-0.3912853068346273,0.059249602155508826,0.14,0.0,0.26,0.13962697982788086,0.0021420191042125225,0.3192096948623657,0.0,0.0
0.0,45.0,0.0,0.025,0.0,0.0,0.0,0.0,0.015339807607233524,-0.6931463479995728,1.0109710693359375,-1.3537670373916626,-0.0715857669711113,0.0,0.015339807607233524,-0.6681463718414307,1.0109710693359375,-1.3537670373916626,-0.0715857669711113,0.003,0.0,0.0,0.0,0.0,0.0,0.0,-3.1,3.1,-1.571,1.571,-1.571,1.571,-1.745,1.745,-2.617,2.617,0.003,0.03,-0.05000000074505806,-0.02500000037252903,-0.02500000037252903,-0.02500000037252903,-0.05000000074505806,-0.0005000000237487257,0.05000000074505806,0.02500000037252903,0.02500000037252903,0.02500000037252903,0.05000000074505806,0.0005000000237487257,-0.0035105153555860763,-0.39479582219021336,0.059249602155508826,0.14,0.0,0.26,0.13962697982788086,0.0021420191042125225,0.3192096948623657,0.0,0.0
0.0,46.0,0.0,0.025,0.0,0.0,0.0,0.0,0.015339807607233524,-0.6931463479995728,1.0109710693359375,-1.3537670373916626,-0.0715857669711113,0.0,0.015339807607233524,-0.6681463718414307,1.0109710693359375,-1.3537670373916626,-0.0715857669711113,0.003,0.0,0.0,0.0,0.0,0.0,0.0,-3.1,3.1,-1.571,1.571,-1.571,1.571,-1.745,1.745,-2.617,2.617,0.003,0.03,-0.05000000074505806,-0.02500000037252903,-0.02500000037252903,-0.02500000037252903,-0.05000000074505806,-0.0005000000237487257,0.05000000074505806,0.02500000037252903,0.02500000037252903,0.02500000037252903,0.05000000074505806,0.0005000000237487257,-0.0035105153555860763,-0.3983063375457994,0.059249602155508826,0.14,0.0,0.26,0.13962697982788086,0.0021420191042125225,0.3192096948623657,0.0,0.0
0.0,47.0,0.0,0.025,0.0,0.0,0.0,0.0,0.015339807607233524,-0.6931463479995728,1.0109710693359375,-1.3537670373916626,-0.0715857669711113,0.0,0.015339807607233524,-0.6681463718414307,1.0109710693359375,-1.3537670373916626,-0.0715857669711113,0.003,0.0,0.0,0.0,0.0,0.0,0.0,-3.1,3.1,-1.571,1.571,-1.571,1.571,-1.745,1.745,-2.617,2.617,0.003,0.03,-0.05000000074505806,-0.02500000037252903,-0.02500000037252903,-0.02500000037252903,-0.05000000074505806,-0.0005000000237487257,0.05000000074505806,0.02500000037252903,0.02500000037252903,0.02500000037252903,0.05000000074505806,0.0005000000237487257,-0.0035105153555860763,-0.40181685290138547,0.059249602155508826,0.14,0.0,0.26,0.13962697982788086,0.0021420191042125225,0.3192096948623657,0.0,0.0
0.0,48.0,0.0,0.025,0.0,0.0,0.0,0.0,0.015339807607233524,-0.6931463479995728,1.0109710693359375,-1.3537670373916626,-0.0715857669711113,0.0,0.015339807607233524,-0.6681463718414307,1.0109710693359375,-1.3537670373916626,-0.0715857669711113,0.003,0.0,0.0,0.0,0.0,0.0,0.0,-3.1,3.1,-1.571,1.571,-1.571,1.571,-1.745,1.745,-2.617,2.617,0.003,0.03,-0.05000000074505806,-0.02500000037252903,-0.02500000037252903,-0.02500000037252903,-0.05000000074505806,-0.0005000000237487257,0.05000000074505806,0.02500000037252903,0.02500000037252903,0.02500000037252903,0.05000000074505806,0.0005000000237487257,-0.0035105153555860763,-0.4053273682569715,0.059249602155508826,0.14,0.0,0.26,0.13962697982788086,0.0021420191042125225,0.3192096948623657,0.0,0.0
0.0,49.0,0.0,0.025,0.0,0.0,0.0,0.0,0.015339807607233524,-0.6931463479995728,1.0109710693359375,-1.3537670373916626,-0.0715857669711113,0.0,0.015339807607233524,-0.6681463718414307,1.0109710693359375,-1.3537670373916626,-0.0715857669711113,0.003,0.0,0.0,0.0,0.0,0.0,0.0,-3.1,3.1,-1.571,1.571,-1.571,1.571,-1.745,1.745,-2.617,2.617,0.003,0.03,-0.05000000074505806,-0.02500000037252903,-0.02500000037252903,-0.02500000037252903,-0.05000000074505806,-0.0005000000237487257,0.05000000074505806,0.02500000037252903,0.02500000037252903,0.02500000037252903,0.05000000074505806,0.0005000000237487257,-0.0035105153555860763,-0.4088378836125576,0.059249602155508826,0.14,0.0,0.26,0.13962697982788086,0.0021420191042125225,0.3192096948623657,0.0,0.0
0.0,50.0,0.0,0.025,0.0,0.0,0.0,0.0,0.015339807607233524,-0.6931463479995728,1.0109710693359375,-1.3537670373916626,-0.0715857669711113,0.0,0.015339807607233524,-0.6681463718414307,1.0109710693359375,-1.3537670373916626,-0.0715857669711113,0.003,0.0,0.0,0.0,0.0,0.0,0.0,-3.1,3.1,-1.571,1.571,-1.571,1.571,-1.745,1.745,-2.617,2.617,0.003,0.03,-0.05000000074505806,-0.02500000037252903,-0.02500000037252903,-0.02500000037252903,-0.05000000074505806,-0.0005000000237487257,0.05000000074505806,0.02500000037252903,0.02500000037252903,0.02500000037252903,0.05000000074505806,0.0005000000237487257,-0.0035105153555860763,-0.4123483989681436,0.059249602155508826,0.14,0.0,0.26,0.13962697982788086,0.0021420191042125225,0.3192096948623657,0.0,0.0
0.0,51.0,0.0,0.025,0.0,0.0,0.0,0.0,0.015339807607233524,-0.6931463479995728,1.0109710693359375,-1.3537670373916626,-0.0715857669711113,0.0,0.015339807607233524,-0.6681463718414307,1.0109710693359375,-1.3537670373916626,-0.0715857669711113,0.003,0.0,0.0,0.0,0.0,0.0,0.0,-3.1,3.1,-1.571,1.571,-1.571,1.571,-1.745,1.745,-2.617,2.617,0.003,0.03,-0.05000000074505806,-0.02500000037252903,-0.02500000037252903,-0.02500000037252903,-0.05000000074505806,-0.0005000000237487257,0.05000000074505806,0.02500000037252903,0.02500000037252903,0.02500000037252903,0.05000000074505806,0.0005000000237487257,-0.0035105153555860763,-0.4158589143237297,0.059249602155508826,0.14,0.0,0.26,0.13962697982788086,0.0021420191042125225,0.3192096948623657,0.0,0.0
0.0,52.0,0.0,0.025,0.0,0.0,0.0,0.0,0.015339807607233524,-0.6931463479995728,1.0109710693359375,-1.3537670373916626,-0.0715857669711113,0.0,0.015339807607233524,-0.6681463718414307,1.0109710693359375,-1.3537670373916626,-0.0715857669711113,0.003,0.0,0.0,0.0,0.0,0.0,0.0,-3.1,3.1,-1.571,1.571,-1.571,1.571,-1.745,1.745,-2.617,2.617,0.003,0.03,-0.05000000074505806,-0.02500000037252903,-0.02500000037252903,-0.02500000037252903,-0.05000000074505806,-0.0005000000237487257,0.05000000074505806,0.02500000037252903,0.02500000037252903,0.02500000037252903,0.05000000074505806,0.0005000000237487257,-0.0035105153555860763,-0.41936942967931573,0.059249602155508826,0.14,0.0,0.26,0.13962697982788086,0.0021420191042125225,0.3192096948623657,0.0,0.0
0.0,53.0,0.0,0.025,0.0,0.0,0.0,0.0,0.015339807607233524,-0.6931463479995728,1.0109710693359375,-1.3537670373916626,-0.0715857669711113,0.0,0.015339807607233524,-0.6681463718414307,1.0109710693359375,-1.3537670373916626,-0.0715857669711113,0.003,0.0,0.0,0.0,0.0,0.0,0.0,-3.1,3.1,-1.571,1.571,-1.571,1.571,-1.745,1.745,-2.617,2.617,0.003,0.03,-0.05000000074505806,-0.02500000037252903,-0.02500000037252903,-0.02500000037252903,-0.05000000074505806,-0.0005000000237487257,0.05000000074505806,0.02500000037252903,0.02500000037252903,0.02500000037252903,0.05000000074505806,0.0005000000237487257,-0.0035105153555860763,-0.4228799450349018,0.059249602155508826,0.14,0.0,0.26,0.13962697982788086,0.0021420191042125225,0.3192096948623657,0.0,0.0
0.0,54.0,0.0,0.025,0.0,0.0,0.0,0.0,0.015339807607233524,-0.6931463479995728,1.0109710693359375,-1.3537670373916626,-0.0715857669711113,0.0,0.015339807607233524,-0.6681463718414307,1.0109710693359375,-1.3537670373916626,-0.0715857669711113,0.003,0.0,0.0,0.0,0.0,0.0,0.0,-3.1,3.1,-1.571,1.571,-1.571,1.571,-1.745,1.745,-2.617,2.617,0.003,0.03,-0.05000000074505806,-0.02500000037252903,-0.02500000037252903,-0.02500000037252903,-0.05000000074505806,-0.0005000000237487257,0.05000000074505806,0.02500000037252903,0.02500000037252903,0.02500000037252903,0.05000000074505806,0.0005000000237487257,-0.0035105153555860763,-0.42639046039048784,0.059249602155508826,0.14,0.0,0.26,0.13962697982788086,0.0021420191042125225,0.3192096948623657,0.0,0.0
0.0,55.0,0.0,0.025,0.0,0.0,0.0,0.0,0.015339807607233524,-0.6931463479995728,1.0109710693359375,-1.3537670373916626,-0.0715857669711113,0.0,0.015339807607233524,-0.6681463718414307,1.0109710693359375,-1.3537670373916626,-0.0715857669711113,0.003,0.0,0.0,0.0,0.0,0.0,0.0,-3.1,3.1,-1.571,1.571,-1.571,1.571,-1.745,1.745,-2.617,2.617,0.003,0.03,-0.05000000074505806,-0.02500000037252903,-0.02500000037252903,-0.02500000037252903,-0.05000000074505806,-0.0005000000237487257,0.05000000074505806,0.02500000037252903,0.02500000037252903,0.02500000037252903,0.05000000074505806,0.0005000000237487257,-0.0035105153555860763,-0.4299009757460739,0.059249602155508826,0.14,0.0,0.26,0.13962697982788086,0.0021420191042125225,0.3192096948623657,0.0,0.0
0.0,56.0,0.0,0.025,0.0,0.0,0.0,0.0,0.015339807607233524,-0.6931463479995728,1.0109710693359375,-1.3537670373916626,-0.0715857669711113,0.0,0.015339807607233524,-0.6681463718414307,1.0109710693359375,-1.3537670373916626,-0.0715857669711113,0.003,0.0,0.0,0.0,0.0,0.0,0.0,-3.1,3.1,-1.571,1.571,-1.571,1.571,-1.745,1.745,-2.617,2.617,0.003,0.03,-0.05000000074505806,-0.02500000037252903,-0.02500000037252903,-0.02500000037252903,-0.05000000074505806,-0.0005000000237487257,0.05000000074505806,0.02500000037252903,0.02500000037252903,0.02500000037252903,0.05000000074505806,0.0005000000237487257,-0.0035105153555860763,-0.43341149110165994,0.059249602155508826,0.14,0.0,0.26,0.13962697982788086,0.0021420191042125225,0.3192096948623657,0.0,0.0
0.0,57.0,0.0,0.025,0.0,0.0,0.0,0.0,0.015339807607233524,-0.6931463479995728,1.0109710693359375,-1.3537670373916626,-0.0715857669711113,0.0,0.015339807607233524,-0.6681463718414307,1.0109710693359375,-1.3537670373916626,-0.0715857669711113,0.003,0.0,0.0,0.0,0.0,0.0,0.0,-3.1,3.1,-1.571,1.571,-1.571,1.571,-1.745,1.745,-2.617,2.617,0.003,0.03,-0.05000000074505806,-0.02500000037252903,-0.02500000037252903,-0.02500000037252903,-0.05000000074505806,-0.0005000000237487257,0.05000000074505806,0.02500000037252903,0.02500000037252903,0.02500000037252903,0.05000000074505806,0.0005000000237487257,-0.0035105153555860763,-0.436922006457246,0.059249602155508826,0.14,0.0,0.26,0.13962697982788086,0.0021420191042125225,0.3192096948623657,0.0,0.0
0.0,58.0,0.0,0.025,0.0,0.0,0.0,0.0,0.015339807607233524,-0.6931463479995728,1.0109710693359375,-1.3537670373916626,-0.0715857669711113,0.0,0.015339807607233524,-0.6681463718414307,1.0109710693359375,-1.3537670373916626,-0.0715857669711113,0.003,0.0,0.0,0.0,0.0,0.0,0.0,-3.1,3.1,-1.571,1.571,-1.571,1.571,-1.745,1.745,-2.617,2.617,0.003,0.03,-0.05000000074505806,-0.02500000037252903,-0.02500000037252903,-0.02500000037252903,-0.05000000074505806,-0.0005000000237487257,0.05000000074505806,0.02500000037252903,0.02500000037252903,0.02500000037252903,0.05000000074505806,0.0005000000237487257,-0.0035105153555860763,-0.44043252181283205,0.059249602155508826,0.14,0.0,0.26,0.13962697982788086,0.0021420191042125225,0.3192096948623657,0.0,0.0
0.0,59.0,0.0,0.025,0.0,0.0,0.0,0.0,0.015339807607233524,-0.6931463479995728,1.0109710693359375,-1.3537670373916626,-0.0715857669711113,0.0,0.015339807607233524,-0.6681463718414307,1.0109710693359375,-1.3537670373916626,-0.0715857669711113,0.003,0.0,0.0,0.0,0.0,0.0,0.0,-3.1,3.1,-1.571,1.571,-1.571,1.571,-1.745,1.745,-2.617,2.617,0.003,0.03,-0.05000000074505806,-0.02500000037252903,-0.02500000037252903,-0.02500000037252903,-0.05000000074505806,-0.0005000000237487257,0.05000000074505806,0.02500000037252903,0.02500000037252903,0.02500000037252903,0.05000000074505806,0.0005000000237487257,-0.0035105153555860763,-0.4439430371684181,0.059249602155508826,0.14,0.0,0.26,0.13962697982788086,0.0021420191042125225,0.3192096948623657,0.0,0.0
0.0,60.0,0.0,0.025,0.0,0.0,0.0,0.0,0.015339807607233524,-0.6931463479995728,1.0109710693359375,-1.3537670373916626,-0.0715857669711113,0.0,0.015339807607233524,-0.6681463718414307,1.0109710693359375,-1.3537670373916626,-0.0715857669711113,0.003,0.0,0.0,0.0,0.0,0.0,0.0,-3.1,3.1,-1.571,1.571,-1.571,1.571,-1.745,1.745,-2.617,2.617,0.003,0.03,-0.05000000074505806,-0.02500000037252903,-0.02500000037252903,-0.02500000037252903,-0.05000000074505806,-0.0005000000237487257,0.05000000074505806,0.02500000037252903,0.02500000037252903,0.02500000037252903,0.05000000074505806,0.0005000000237487257,-0.0035105153555860763,-0.44745355252400415,0.059249602155508826,0.14,0.0,0.26,0.13962697982788086,0.0021420191042125225,0.3192096948623657,0.0,0.0
0.0,61.0,0.0,0.025,0.0,0.0,0.0,0.0,0.015339807607233524,-0.6931463479995728,1.0109710693359375,-1.3537670373916626,-0.0715857669711113,0.0,0.015339807607233524,-0.6681463718414307,1.0109710693359375,-1.3537670373916626,-0.0715857669711113,0.003,0.0,0.0,0.0,0.0,0.0,0.0,-3.1,3.1,-1.571,1.571,-1.571,1.571,-1.745,1.745,-2.617,2.617,0.003,0.03,-0.05000000074505806,-0.02500000037252903,-0.02500000037252903,-0.02500000037252903,-0.05000000074505806,-0.0005000000237487257,0.05000000074505806,0.02500000037252903,0.02500000037252903,0.02500000037252903,0.05000000074505806,0.0005000000237487257,-0.0035105153555860763,-0.4509640678795902,0.059249602155508826,0.14,0.0,0.26,0.13962697982788086,0.0021420191042125225,0.3192096948623657,0.0,0.0
0.0,62.0,0.0,0.025,0.0,0.0,0.0,0.0,0.015339807607233524,-0.6931463479995728,1.0109710693359375,-1.3537670373916626,-0.0715857669711113,0.0,0.015339807607233524,-0.6681463718414307,1.0109710693359375,-1.3537670373916626,-0.0715857669711113,0.003,0.0,0.0,0.0,0.0,0.0,0.0,-3.1,3.1,-1.571,1.571,-1.571,1.571,-1.745,1.745,-2.617,2.617,0.003,0.03,-0.05000000074505806,-0.02500000037252903,-0.02500000037252903,-0.02500000037252903,-0.05000000074505806,-0.0005000000237487257,0.05000000074505806,0.02500000037252903,0.02500000037252903,0.02500000037252903,0.05000000074505806,0.0005000000237487257,-0.0035105153555860763,-0.45447458323517625,0.059249602155508826,0.14,0.0,0.26,0.13962697982788086,0.0021420191042125225,0.3192096948623657,0.0,0.0
0.0,63.0,0.0,0.025,0.0,0.0,0.0,0.0,0.015339807607233524,-0.6931463479995728,1.0109710693359375,-1.3537670373916626,-0.0715857669711113,0.0,0.015339807607233524,-0.6681463718414307,1.0109710693359375,-1.3537670373916626,-0.0715857669711113,0.003,0.0,0.0,0.0,0.0,0.0,0.0,-3.1,3.1,-1.571,1.571,-1.571,1.571,-1.745,1.745,-2.617,2.617,0.003,0.03,-0.05000000074505806,-0.02500000037252903,-0.02500000037252903,-0.02500000037252903,-0.05000000074505806,-0.0005000000237487257,0.05000000074505806,0.02500000037252903,0.02500000037252903,0.02500000037252903,0.05000000074505806,0.0005000000237487257,-0.0035105153555860763,-0.4579850985907623,0.059249602155508826,0.14,0.0,0.26,0.13962697982788086,0.0021420191042125225,0.3192096948623657,0.0,0.0
0.0,64.0,0.0,0.025,0.0,0.0,0.0,0.0,0.015339807607233524,-0.6931463479995728,1.0109710693359375,-1.3537670373916626,-0.0715857669711113,0.0,0.015339807607233524,-0.6681463718414307,1.0109710693359375,-1.3537670373916626,-0.0715857669711113,0.003,0.0,0.0,0.0,0.0,0.0,0.0,-3.1,3.1,-1.571,1.571,-1.571,1.571,-1.745,1.745,-2.617,2.617,0.003,0.03,-0.05000000074505806,-0.02500000037252903,-0.02500000037252903,-0.02500000037252903,-0.05000000074505806,-0.0005000000237487257,0.05000000074505806,0.02500000037252903,0.02500000037252903,0.02500000037252903,0.05000000074505806,0.0005000000237487257,-0.0035105153555860763,-0.46149561394634836,0.059249602155508826,0.14,0.0,0.26,0.13962697982788086,0.0021420191042125225,0.3192096948623657,0.0,0.0
0.0,65.0,0.0,0.025,0.0,0.0,0.0,0.0,0.015339807607233524,-0.6931463479995728,1.0109710693359375,-1.3537670373916626,-0.0715857669711113,0.0,0.015339807607233524,-0.6681463718414307,1.0109710693359375,-1.3537670373916626,-0.0715857669711113,0.003,0.0,0.0,0.0,0.0,0.0,0.0,-3.1,3.1,-1.571,1.571,-1.571,1.571,-1.745,1.745,-2.617,2.617,0.003,0.03,-0.05000000074505806,-0.02500000037252903,-0.02500000037252903,-0.02500000037252903,-0.05000000074505806,-0.0005000000237487257,0.05000000074505806,0.02500000037252903,0.02500000037252903,0.02500000037252903,0.05000000074505806,0.0005000000237487257,-0.0035105153555860763,-0.4650061293019344,0.059249602155508826,0.14,0.0,0.26,0.13962697982788086,0.0021420191042125225,0.3192096948623657,0.0,0.0
0.0,66.0,0.0,0.025,0.0,0.0,0.0,0.0,0.015339807607233524,-0.6931463479995728,1.0109710693359375,-1.3537670373916626,-0.0715857669711113,0.0,0.015339807607233524,-0.6681463718414307,1.0109710693359375,-1.3537670373916626,-0.0715857669711113,0.003,0.0,0.0,0.0,0.0,0.0,0.0,-3.1,3.1,-1.571,1.571,-1.571,1.571,-1.745,1.745,-2.617,2.617,0.003,0.03,-0.05000000074505806,-0.02500000037252903,-0.02500000037252903,-0.02500000037252903,-0.05000000074505806,-0.0005000000237487257,0.05000000074505806,0.02500000037252903,0.02500000037252903,0.02500000037252903,0.05000000074505806,0.0005000000237487257,-0.0035105153555860763,-0.46851664465752046,0.059249602155508826,0.14,0.0,0.26,0.13962697982788086,0.0021420191042125225,0.3192096948623657,0.0,0.0
0.0,67.0,0.0,0.025,0.0,0.0,0.0,0.0,0.015339807607233524,-0.6931463479995728,1.0109710693359375,-1.3537670373916626,-0.0715857669711113,0.0,0.015339807607233524,-0.6681463718414307,1.0109710693359375,-1.3537670373916626,-0.0715857669711113,0.003,0.0,0.0,0.0,0.0,0.0,0.0,-3.1,3.1,-1.571,1.571,-1.571,1.571,-1.745,1.745,-2.617,2.617,0.003,0.03,-0.05000000074505806,-0.02500000037252903,-0.02500000037252903,-0.02500000037252903,-0.05000000074505806,-0.0005000000237487257,0.05000000074505806,0.02500000037252903,0.02500000037252903,0.02500000037252903,0.05000000074505806,0.0005000000237487257,-0.0035105153555860763,-0.4720271600131065,0.059249602155508826,0.14,0.0,0.26,0.13962697982788086,0.0021420191042125225,0.3192096948623657,0.0,0.0
0.0,68.0,0.0,0.025,0.0,0.0,0.0,0.0,0.015339807607233524,-0.6931463479995728,1.0109710693359375,-1.3537670373916626,-0.0715857669711113,0.0,0.015339807607233524,-0.6681463718414307,1.0109710693359375,-1.3537670373916626,-0.0715857669711113,0.003,0.0,0.0,0.0,0.0,0.0,0.0,-3.1,3.1,-1.571,1.571,-1.571,1.571,-1.745,1.745,-2.617,2.617,0.003,0.03,-0.05000000074505806,-0.02500000037252903,-0.02500000037252903,-0.02500000037252903,-0.05000000074505806,-0.0005000000237487257,0.05000000074505806,0.02500000037252903,0.02500000037252903,0.02500000037252903,0.05000000074505806,0.0005000000237487257,-0.0035105153555860763,-0.47553767536869257,0.059249602155508826,0.14,0.0,0.26,0.13962697982788086,0.0021420191042125225,0.3192096948623657,0.0,0.0
0.0,69.0,0.0,0.025,0.0,0.0,0.0,0.0,0.015339807607233524,-0.6931463479995728,1.0109710693359375,-1.3537670373916626,-0.0715857669711113,0.0,0.015339807607233524,-0.6681463718414307,1.0109710693359375,-1.3537670373916626,-0.0715857669711113,0.003,0.0,0.0,0.0,0.0,0.0,0.0,-3.1,3.1,-1.571,1.571,-1.571,1.571,-1.745,1.745,-2.617,2.617,0.003,0.03,-0.05000000074505806,-0.02500000037252903,-0.02500000037252903,-0.02500000037252903,-0.05000000074505806,-0.0005000000237487257,0.05000000074505806,0.02500000037252903,0.02500000037252903,0.02500000037252903,0.05000000074505806,0.0005000000237487257,-0.0035105153555860763,-0.4790481907242786,0.059249602155508826,0.14,0.0,0.26,0.13962697982788086,0.0021420191042125225,0.3192096948623657,0.0,0.0
0.0,70.0,0.0,0.025,0.0,0.0,0.0,0.0,0.015339807607233524,-0.6931463479995728,1.0109710693359375,-1.3537670373916626,-0.0715857669711113,0.0,0.015339807607233524,-0.6681463718414307,1.0109710693359375,-1.3537670373916626,-0.0715857669711113,0.003,0.0,0.0,0.0,0.0,0.0,0.0,-3.1,3.1,-1.571,1.571,-1.571,1.571,-1.745,1.745,-2.617,2.617,0.003,0.03,-0.05000000074505806,-0.02500000037252903,-0.02500000037252903,-0.02500000037252903,-0.05000000074505806,-0.0005000000237487257,0.05000000074505806,0.02500000037252903,0.02500000037252903,0.02500000037252903,0.05000000074505806,0.0005000000237487257,-0.0035105153555860763,-0.4825587060798647,0.059249602155508826,0.14,0.0,0.26,0.13962697982788086,0.0021420191042125225,0.3192096948623657,0.0,0.0
0.0,71.0,0.0,0.025,0.0,0.0,0.0,0.0,0.015339807607233524,-0.6931463479995728,1.0109710693359375,-1.3537670373916626,-0.0715857669711113,0.0,0.015339807607233524,-0.6681463718414307,1.0109710693359375,-1.3537670373916626,-0.0715857669711113,0.003,0.0,0.0,0.0,0.0,0.0,0.0,-3.1,3.1,-1.571,1.571,-1.571,1.571,-1.745,1.745,-2.617,2.617,0.003,0.03,-0.05000000074505806,-0.02500000037252903,-0.02500000037252903,-0.02500000037252903,-0.05000000074505806,-0.0005000000237487257,0.05000000074505806,0.02500000037252903,0.02500000037252903,0.02500000037252903,0.05000000074505806,0.0005000000237487257,-0.0035105153555860763,-0.4860692214354507,0.059249602155508826,0.14,0.0,0.26,0.13962697982788086,0.0021420191042125225,0.3192096948623657,0.0,0.0
0.0,72.0,0.0,0.025,0.0,0.0,0.0,0.0,0.015339807607233524,-0.6931463479995728,1.0109710693359375,-1.3537670373916626,-0.0715857669711113,0.0,0.015339807607233524,-0.6681463718414307,1.0109710693359375,-1.3537670373916626,-0.0715857669711113,0.003,0.0,0.0,0.0,0.0,0.0,0.0,-3.1,3.1,-1.571,1.571,-1.571,1.571,-1.745,1.745,-2.617,2.617,0.003,0.03,-0.05000000074505806,-0.02500000037252903,-0.02500000037252903,-0.02500000037252903,-0.05000000074505806,-0.0005000000237487257,0.05000000074505806,0.02500000037252903,0.02500000037252903,0.02500000037252903,0.05000000074505806,0.0005000000237487257,-0.0035105153555860763,-0.4895797367910368,0.059249602155508826,0.14,0.0,0.26,0.13962697982788086,0.0021420191042125225,0.3192096948623657,0.0,0.0
0.0,73.0,0.0,0.025,0.0,0.0,0.0,0.0,0.015339807607233524,-0.6931463479995728,1.0109710693359375,-1.3537670373916626,-0.0715857669711113,0.0,0.015339807607233524,-0.6681463718414307,1.0109710693359375,-1.3537670373916626,-0.0715857669711113,0.003,0.0,0.0,0.0,0.0,0.0,0.0,-3.1,3.1,-1.571,1.571,-1.571,1.571,-1.745,1.745,-2.617,2.617,0.003,0.03,-0.05000000074505806,-0.02500000037252903,-0.02500000037252903,-0.02500000037252903,-0.05000000074505806,-0.0005000000237487257,0.05000000074505806,0.02500000037252903,0.02500000037252903,0.02500000037252903,0.05000000074505806,0.0005000000237487257,-0.0035105153555860763,-0.49309025214662283,0.059249602155508826,0.14,0.0,0.26,0.13962697982788086,0.0021420191042125225,0.3192096948623657,0.0,0.0
0.0,74.0,0.0,0.025,0.0,0.0,0.0,0.0,0.015339807607233524,-0.6931463479995728,1.0109710693359375,-1.3537670373916626,-0.0715857669711113,0.0,0.015339807607233524,-0.6681463718414307,1.0109710693359375,-1.3537670373916626,-0.0715857669711113,0.003,0.0,0.0,0.0,0.0,0.0,0.0,-3.1,3.1,-1.571,1.571,-1.571,1.571,-1.745,1.745,-2.617,2.617,0.003,0.03,-0.05000000074505806,-0.02500000037252903,-0.02500000037252903,-0.02500000037252903,-0.05000000074505806,-0.0005000000237487257,0.05000000074505806,0.02500000037252903,0.02500000037252903,0.02500000037252903,0.05000000074505806,0.0005000000237487257,-0.0035105153555860763,-0.4966007675022089,0.059249602155508826,0.14,0.0,0.26,0.13962697982788086,0.0021420191042125225,0.3192096948623657,0.0,0.0
0.0,75.0,0.0,0.025,0.0,0.0,0.0,0.0,0.015339807607233524,-0.6931463479995728,1.0109710693359375,-1.3537670373916626,-0.0715857669711113,0.0,0.015339807607233524,-0.6681463718414307,1.0109710693359375,-1.3537670373916626,-0.0715857669711113,0.003,0.0,0.0,0.0,0.0,0.0,0.0,-3.1,3.1,-1.571,1.571,-1.571,1.571,-1.745,1.745,-2.617,2.617,0.003,0.03,-0.05000000074505806,-0.02500000037252903,-0.02500000037252903,-0.02500000037252903,-0.05000000074505806,-0.0005000000237487257,0.05000000074505806,0.02500000037252903,0.02500000037252903,0.02500000037252903,0.05000000074505806,0.0005000000237487257,-0.0035105153555860763,-0.5001112828577949,0.059249602155508826,0.14,0.0,0.26,0.13962697982788086,0.0021420191042125225,0.3192096948623657,0.0,0.0
0.0,76.0,0.0,0.025,0.0,0.0,0.0,0.0,0.015339807607233524,-0.6931463479995728,1.0109710693359375,-1.3537670373916626,-0.0715857669711113,0.0,0.015339807607233524,-0.6681463718414307,1.0109710693359375,-1.3537670373916626,-0.0715857669711113,0.003,0.0,0.0,0.0,0.0,0.0,0.0,-3.1,3.1,-1.571,1.571,-1.571,1.571,-1.745,1.745,-2.617,2.617,0.003,0.03,-0.05000000074505806,-0.02500000037252903,-0.02500000037252903,-0.02500000037252903,-0.05000000074505806,-0.0005000000237487257,0.05000000074505806,0.02500000037252903,0.02500000037252903,0.02500000037252903,0.05000000074505806,0.0005000000237487257,-0.0035105153555860763,-0.503621798213381,0.059249602155508826,0.14,0.0,0.26,0.13962697982788086,0.0021420191042125225,0.3192096948623657,0.0,0.0
0.0,77.0,0.0,0.025,0.0,0.0,0.0,0.0,0.015339807607233524,-0.6931463479995728,1.0109710693359375,-1.3537670373916626,-0.0715857669711113,0.0,0.015339807607233524,-0.6681463718414307,1.0109710693359375,-1.3537670373916626,-0.0715857669711113,0.003,0.0,0.0,0.0,0.0,0.0,0.0,-3.1,3.1,-1.571,1.571,-1.571,1.571,-1.745,1.745,-2.617,2.617,0.003,0.03,-0.05000000074505806,-0.02500000037252903,-0.02500000037252903,-0.02500000037252903,-0.05000000074505806,-0.0005000000237487257,0.05000000074505806,0.02500000037252903,0.02500000037252903,0.02500000037252903,0.05000000074505806,0.0005000000237487257,-0.0035105153555860763,-0.5071323135689672,0.059249602155508826,0.14,0.0,0.26,0.13962697982788086,0.0021420191042125225,0.3192096948623657,0.0,0.0
0.0,78.0,0.0,0.025,0.0,0.0,0.0,0.0,0.015339807607233524,-0.6931463479995728,1.0109710693359375,-1.3537670373916626,-0.0715857669711113,0.0,0.015339807607233524,-0.6681463718414307,1.0109710693359375,-1.3537670373916626,-0.0715857669711113,0.003,0.0,0.0,0.0,0.0,0.0,0.0,-3.1,3.1,-1.571,1.571,-1.571,1.571,-1.745,1.745,-2.617,2.617,0.003,0.03,-0.05000000074505806,-0.02500000037252903,-0.02500000037252903,-0.02500000037252903,-0.05000000074505806,-0.0005000000237487257,0.05000000074505806,0.02500000037252903,0.02500000037252903,0.02500000037252903,0.05000000074505806,0.0005000000237487257,-0.0035105153555860763,-0.5106428289245533,0.059249602155508826,0.14,0.0,0.26,0.13962697982788086,0.0021420191042125225,0.3192096948623657,0.0,0.0
0.0,79.0,0.0,0.025,0.0,0.0,0.0,0.0,0.015339807607233524,-0.6931463479995728,1.0109710693359375,-1.3537670373916626,-0.0715857669711113,0.0,0.015339807607233524,-0.6681463718414307,1.0109710693359375,-1.3537670373916626,-0.0715857669711113,0.003,0.0,0.0,0.0,0.0,0.0,0.0,-3.1,3.1,-1.571,1.571,-1.571,1.571,-1.745,1.745,-2.617,2.617,0.003,0.03,-0.05000000074505806,-0.02500000037252903,-0.02500000037252903,-0.02500000037252903,-0.05000000074505806,-0.0005000000237487257,0.05000000074505806,0.02500000037252903,0.02500000037252903,0.02500000037252903,0.05000000074505806,0.0005000000237487257,-0.0035105153555860763,-0.5141533442801394,0.059249602155508826,0.14,0.0,0.26,0.13962697982788086,0.0021420191042125225,0.3192096948623657,0.0,0.0
0.0,80.0,0.0,0.025,0.0,0.0,0.0,0.0,0.015339807607233524,-0.6931463479995728,1.0109710693359375,-1.3537670373916626,-0.0715857669711113,0.0,0.015339807607233524,-0.6681463718414307,1.0109710693359375,-1.3537670373916626,-0.0715857669711113,0.003,0.0,0.0,0.0,0.0,0.0,0.0,-3.1,3.1,-1.571,1.571,-1.571,1.571,-1.745,1.745,-2.617,2.617,0.003,0.03,-0.05000000074505806,-0.02500000037252903,-0.02500000037252903,-0.02500000037252903,-0.05000000074505806,-0.0005000000237487257,0.05000000074505806,0.02500000037252903,0.02500000037252903,0.02500000037252903,0.05000000074505806,0.0005000000237487257,-0.0035105153555860763,-0.5176638596357255,0.059249602155508826,0.14,0.0,0.26,0.13962697982788086,0.0021420191042125225,0.3192096948623657,0.0,0.0
0.0,81.0,0.0,0.025,0.0,0.0,0.0,0.0,0.015339807607233524,-0.6931463479995728,1.0109710693359375,-1.3537670373916626,-0.0715857669711113,0.0,0.015339807607233524,-0.6681463718414307,1.0109710693359375,-1.3537670373916626,-0.0715857669711113,0.003,0.0,0.0,0.0,0.0,0.0,0.0,-3.1,3.1,-1.571,1.571,-1.571,1.571,-1.745,1.745,-2.617,2.617,0.003,0.03,-0.05000000074505806,-0.02500000037252903,-0.02500000037252903,-0.02500000037252903,-0.05000000074505806,-0.0005000000237487257,0.05000000074505806,0.02500000037252903,0.02500000037252903,0.02500000037252903,0.05000000074505806,0.0005000000237487257,-0.0035105153555860763,-0.5211743749913116,0.059249602155508826,0.14,0.0,0.26,0.13962697982788086,0.0021420191042125225,0.3192096948623657,0.0,0.0
0.0,82.0,0.0,0.025,0.0,0.0,0.0,0.0,0.015339807607233524,-0.6931463479995728,1.0109710693359375,-1.3537670373916626,-0.0715857669711113,0.0,0.015339807607233524,-0.6681463718414307,1.0109710693359375,-1.3537670373916626,-0.0715857669711113,0.003,0.0,0.0,0.0,0.0,0.0,0.0,-3.1,3.1,-1.571,1.571,-1.571,1.571,-1.745,1.745,-2.617,2.617,0.003,0.03,-0.05000000074505806,-0.02500000037252903,-0.02500000037252903,-0.02500000037252903,-0.05000000074505806,-0.0005000000237487257,0.05000000074505806,0.02500000037252903,0.02500000037252903,0.02500000037252903,0.05000000074505806,0.0005000000237487257,-0.0035105153555860763,-0.5246848903468977,0.059249602155508826,0.14,0.0,0.26,0.13962697982788086,0.0021420191042125225,0.3192096948623657,0.0,0.0
0.0,83.0,0.0,0.025,0.0,0.0,0.0,0.0,0.015339807607233524,-0.6931463479995728,1.0109710693359375,-1.3537670373916626,-0.0715857669711113,0.0,0.015339807607233524,-0.6681463718414307,1.0109710693359375,-1.3537670373916626,-0.0715857669711113,0.003,0.0,0.0,0.0,0.0,0.0,0.0,-3.1,3.1,-1.571,1.571,-1.571,1.571,-1.745,1.745,-2.617,2.617,0.003,0.03,-0.05000000074505806,-0.02500000037252903,-0.02500000037252903,-0.02500000037252903,-0.05000000074505806,-0.0005000000237487257,0.05000000074505806,0.02500000037252903,0.02500000037252903,0.02500000037252903,0.05000000074505806,0.0005000000237487257,-0.0035105153555860763,-0.5281954057024838,0.059249602155508826,0.14,0.0,0.26,0.13962697982788086,0.0021420191042125225,0.3192096948623657,0.0,0.0
0.0,84.0,0.0,0.025,0.0,0.0,0.0,0.0,0.015339807607233524,-0.6931463479995728,1.0109710693359375,-1.3537670373916626,-0.0715857669711113,0.0,0.015339807607233524,-0.6681463718414307,1.0109710693359375,-1.3537670373916626,-0.0715857669711113,0.003,0.0,0.0,0.0,0.0,0.0,0.0,-3.1,3.1,-1.571,1.571,-1.571,1.571,-1.745,1.745,-2.617,2.617,0.003,0.03,-0.05000000074505806,-0.02500000037252903,-0.02500000037252903,-0.02500000037252903,-0.05000000074505806,-0.0005000000237487257,0.05000000074505806,0.02500000037252903,0.02500000037252903,0.02500000037252903,0.05000000074505806,0.0005000000237487257,-0.0035105153555860763,-0.5317059210580699,0.059249602155508826,0.14,0.0,0.26,0.13962697982788086,0.0021420191042125225,0.3192096948623657,0.0,0.0
0.0,85.0,0.0,0.025,0.0,0.0,0.0,0.0,0.015339807607233524,-0.6931463479995728,1.0109710693359375,-1.3537670373916626,-0.0715857669711113,0.0,0.015339807607233524,-0.6681463718414307,1.0109710693359375,-1.3537670373916626,-0.0715857669711113,0.003,0.0,0.0,0.0,0.0,0.0,0.0,-3.1,3.1,-1.571,1.571,-1.571,1.571,-1.745,1.745,-2.617,2.617,0.003,0.03,-0.05000000074505806,-0.02500000037252903,-0.02500000037252903,-0.02500000037252903,-0.05000000074505806,-0.0005000000237487257,0.05000000074505806,0.02500000037252903,0.02500000037252903,0.02500000037252903,0.05000000074505806,0.0005000000237487257,-0.0035105153555860763,-0.535216436413656,0.059249602155508826,0.14,0.0,0.26,0.13962697982788086,0.0021420191042125225,0.3192096948623657,0.0,0.0
0.0,86.0,0.0,0.025,0.0,0.0,0.0,0.0,0.015339807607233524,-0.6931463479995728,1.0109710693359375,-1.3537670373916626,-0.0715857669711113,0.0,0.015339807607233524,-0.6681463718414307,1.0109710693359375,-1.3537670373916626,-0.0715857669711113,0.003,0.0,0.0,0.0,0.0,0.0,0.0,-3.1,3.1,-1.571,1.571,-1.571,1.571,-1.745,1.745,-2.617,2.617,0.003,0.03,-0.05000000074505806,-0.02500000037252903,-0.02500000037252903,-0.02500000037252903,-0.05000000074505806,-0.0005000000237487257,0.05000000074505806,0.02500000037252903,0.02500000037252903,0.02500000037252903,0.05000000074505806,0.0005000000237487257,-0.0035105153555860763,-0.5387269517692421,0.059249602155508826,0.14,0.0,0.26,0.13962697982788086,0.0021420191042125225,0.3192096948623657,0.0,0.0
0.0,87.0,0.0,0.025,0.0,0.0,0.0,0.0,0.015339807607233524,-0.6931463479995728,1.0109710693359375,-1.3537670373916626,-0.0715857669711113,0.0,0.015339807607233524,-0.6681463718414307,1.0109710693359375,-1.3537670373916626,-0.0715857669711113,0.003,0.0,0.0,0.0,0.0,0.0,0.0,-3.1,3.1,-1.571,1.571,-1.571,1.571,-1.745,1.745,-2.617,2.617,0.003,0.03,-0.05000000074505806,-0.02500000037252903,-0.02500000037252903,-0.02500000037252903,-0.05000000074505806,-0.0005000000237487257,0.05000000074505806,0.02500000037252903,0.02500000037252903,0.02500000037252903,0.05000000074505806,0.0005000000237487257,-0.0035105153555860763,-0.5422374671248282,0.059249602155508826,0.14,0.0,0.26,0.13962697982788086,0.0021420191042125225,0.3192096948623657,0.0,0.0
0.0,88.0,0.0,0.025,0.0,0.0,0.0,0.0,0.015339807607233524,-0.6931463479995728,1.0109710693359375,-1.3537670373916626,-0.0715857669711113,0.0,0.015339807607233524,-0.6681463718414307,1.0109710693359375,-1.3537670373916626,-0.0715857669711113,0.003,0.0,0.0,0.0,0.0,0.0,0.0,-3.1,3.1,-1.571,1.571,-1.571,1.571,-1.745,1.745,-2.617,2.617,0.003,0.03,-0.05000000074505806,-0.02500000037252903,-0.02500000037252903,-0.02500000037252903,-0.05000000074505806,-0.0005000000237487257,0.05000000074505806,0.02500000037252903,0.02500000037252903,0.02500000037252903,0.05000000074505806,0.0005000000237487257,-0.0035105153555860763,-0.5457479824804143,0.059249602155508826,0.14,0.0,0.26,0.13962697982788086,0.0021420191042125225,0.3192096948623657,0.0,0.0
0.0,89.0,0.0,0.025,0.0,0.0,0.0,0.0,0.015339807607233524,-0.6931463479995728,1.0109710693359375,-1.3537670373916626,-0.0715857669711113,0.0,0.015339807607233524,-0.6681463718414307,1.0109710693359375,-1.3537670373916626,-0.0715857669711113,0.003,0.0,0.0,0.0,0.0,0.0,0.0,-3.1,3.1,-1.571,1.571,-1.571,1.571,-1.745,1.745,-2.617,2.617,0.003,0.03,-0.05000000074505806,-0.02500000037252903,-0.02500000037252903,-0.02500000037252903,-0.05000000074505806,-0.0005000000237487257,0.05000000074505806,0.02500000037252903,0.02500000037252903,0.02500000037252903,0.05000000074505806,0.0005000000237487257,-0.0035105153555860763,-0.5492584978360004,0.059249602155508826,0.14,0.0,0.26,0.13962697982788086,0.0021420191042125225,0.3192096948623657,0.0,0.0
0.0,90.0,0.0,0.025,0.0,0.0,0.0,0.0,0.015339807607233524,-0.6931463479995728,1.0109710693359375,-1.3537670373916626,-0.0715857669711113,0.0,0.015339807607233524,-0.6681463718414307,1.0109710693359375,-1.3537670373916626,-0.0715857669711113,0.003,0.0,0.0,0.0,0.0,0.0,0.0,-3.1,3.1,-1.571,1.571,-1.571,1.571,-1.745,1.745,-2.617,2.617,0.003,0.03,-0.05000000074505806,-0.02500000037252903,-0.02500000037252903,-0.02500000037252903,-0.05000000074505806,-0.0005000000237487257,0.05000000074505806,0.02500000037252903,0.02500000037252903,0.02500000037252903,0.05000000074505806,0.0005000000237487257,-0.0035105153555860763,-0.5527690131915866,0.059249602155508826,0.14,0.0,0.26,0.13962697982788086,0.0021420191042125225,0.3192096948623657,0.0,0.0
0.0,91.0,0.0,0.025,0.0,0.0,0.0,0.0,0.015339807607233524,-0.6931463479995728,1.0109710693359375,-1.3537670373916626,-0.0715857669711113,0.0,0.015339807607233524,-0.6681463718414307,1.0109710693359375,-1.3537670373916626,-0.0715857669711113,0.003,0.0,0.0,0.0,0.0,0.0,0.0,-3.1,3.1,-1.571,1.571,-1.571,1.571,-1.745,1.745,-2.617,2.617,0.003,0.03,-0.05000000074505806,-0.02500000037252903,-0.02500000037252903,-0.02500000037252903,-0.05000000074505806,-0.0005000000237487257,0.05000000074505806,0.02500000037252903,0.02500000037252903,0.02500000037252903,0.05000000074505806,0.0005000000237487257,-0.0035105153555860763,-0.5562795285471727,0.059249602155508826,0.14,0.0,0.26,0.13962697982788086,0.0021420191042125225,0.3192096948623657,0.0,0.0
0.0,92.0,0.0,0.025,0.0,0.0,0.0,0.0,0.015339807607233524,-0.6931463479995728,1.0109710693359375,-1.3537670373916626,-0.0715857669711113,0.0,0.015339807607233524,-0.6681463718414307,1.0109710693359375,-1.3537670373916626,-0.0715857669711113,0.003,0.0,0.0,0.0,0.0,0.0,0.0,-3.1,3.1,-1.571,1.571,-1.571,1.571,-1.745,1.745,-2.617,2.617,0.003,0.03,-0.05000000074505806,-0.02500000037252903,-0.02500000037252903,-0.02500000037252903,-0.05000000074505806,-0.0005000000237487257,0.05000000074505806,0.02500000037252903,0.02500000037252903,0.02500000037252903,0.05000000074505806,0.0005000000237487257,-0.0035105153555860763,-0.5597900439027588,0.059249602155508826,0.14,0.0,0.26,0.13962697982788086,0.0021420191042125225,0.3192096948623657,0.0,0.0
0.0,93.0,0.0,0.025,0.0,0.0,0.0,0.0,0.015339807607233524,-0.6931463479995728,1.0109710693359375,-1.3537670373916626,-0.0715857669711113,0.0,0.015339807607233524,-0.6681463718414307,1.0109710693359375,-1.3537670373916626,-0.0715857669711113,0.003,0.0,0.0,0.0,0.0,0.0,0.0,-3.1,3.1,-1.571,1.571,-1.571,1.571,-1.745,1.745,-2.617,2.617,0.003,0.03,-0.05000000074505806,-0.02500000037252903,-0.02500000037252903,-0.02500000037252903,-0.05000000074505806,-0.0005000000237487257,0.05000000074505806,0.02500000037252903,0.02500000037252903,0.02500000037252903,0.05000000074505806,0.0005000000237487257,-0.0035105153555860763,-0.5633005592583449,0.059249602155508826,0.14,0.0,0.26,0.13962697982788086,0.0021420191042125225,0.3192096948623657,0.0,0.0
0.0,94.0,0.0,0.025,0.0,0.0,0.0,0.0,0.015339807607233524,-0.6931463479995728,1.0109710693359375,-1.3537670373916626,-0.0715857669711113,0.0,0.015339807607233524,-0.6681463718414307,1.0109710693359375,-1.3537670373916626,-0.0715857669711113,0.003,0.0,0.0,0.0,0.0,0.0,0.0,-3.1,3.1,-1.571,1.571,-1.571,1.571,-1.745,1.745,-2.617,2.617,0.003,0.03,-0.05000000074505806,-0.02500000037252903,-0.02500000037252903,-0.02500000037252903,-0.05000000074505806,-0.0005000000237487257,0.05000000074505806,0.02500000037252903,0.02500000037252903,0.02500000037252903,0.05000000074505806,0.0005000000237487257,-0.0035105153555860763,-0.566811074613931,0.059249602155508826,0.14,0.0,0.26,0.13962697982788086,0.0021420191042125225,0.3192096948623657,0.0,0.0
0.0,95.0,0.0,0.025,0.0,0.0,0.0,0.0,0.015339807607233524,-0.6931463479995728,1.0109710693359375,-1.3537670373916626,-0.0715857669711113,0.0,0.015339807607233524,-0.6681463718414307,1.0109710693359375,-1.3537670373916626,-0.0715857669711113,0.003,0.0,0.0,0.0,0.0,0.0,0.0,-3.1,3.1,-1.571,1.571,-1.571,1.571,-1.745,1.745,-2.617,2.617,0.003,0.03,-0.05000000074505806,-0.02500000037252903,-0.02500000037252903,-0.02500000037252903,-0.05000000074505806,-0.0005000000237487257,0.05000000074505806,0.02500000037252903,0.02500000037252903,0.02500000037252903,0.05000000074505806,0.0005000000237487257,-0.0035105153555860763,-0.5703215899695171,0.059249602155508826,0.14,0.0,0.26,0.13962697982788086,0.0021420191042125225,0.3192096948623657,0.0,0.0
0.0,96.0,0.0,0.025,0.0,0.0,0.0,0.0,0.015339807607233524,-0.6931463479995728,1.0109710693359375,-1.3537670373916626,-0.0715857669711113,0.0,0.015339807607233524,-0.6681463718414307,1.0109710693359375,-1.3537670373916626,-0.0715857669711113,0.003,0.0,0.0,0.0,0.0,0.0,0.0,-3.1,3.1,-1.571,1.571,-1.571,1.571,-1.745,1.745,-2.617,2.617,0.003,0.03,-0.05000000074505806,-0.02500000037252903,-0.02500000037252903,-0.02500000037252903,-0.05000000074505806,-0.0005000000237487257,0.05000000074505806,0.02500000037252903,0.02500000037252903,0.02500000037252903,0.05000000074505806,0.0005000000237487257,-0.0035105153555860763,-0.5738321053251032,0.059249602155508826,0.14,0.0,0.26,0.13962697982788086,0.0021420191042125225,0.3192096948623657,0.0,0.0
0.0,97.0,0.0,0.025,0.0,0.0,0.0,0.0,0.015339807607233524,-0.6931463479995728,1.0109710693359375,-1.3537670373916626,-0.0715857669711113,0.0,0.015339807607233524,-0.6681463718414307,1.0109710693359375,-1.3537670373916626,-0.0715857669711113,0.003,0.0,0.0,0.0,0.0,0.0,0.0,-3.1,3.1,-1.571,1.571,-1.571,1.571,-1.745,1.745,-2.617,2.617,0.003,0.03,-0.05000000074505806,-0.02500000037252903,-0.02500000037252903,-0.02500000037252903,-0.05000000074505806,-0.0005000000237487257,0.05000000074505806,0.02500000037252903,0.02500000037252903,0.02500000037252903,0.05000000074505806,0.0005000000237487257,-0.0035105153555860763,-0.5773426206806893,0.059249602155508826,0.14,0.0,0.26,0.13962697982788086,0.0021420191042125225,0.3192096948623657,0.0,0.0
0.0,98.0,0.0,0.025,0.0,0.0,0.0,0.0,0.015339807607233524,-0.6931463479995728,1.0109710693359375,-1.3537670373916626,-0.0715857669711113,0.0,0.015339807607233524,-0.6681463718414307,1.0109710693359375,-1.3537670373916626,-0.0715857669711113,0.003,0.0,0.0,0.0,0.0,0.0,0.0,-3.1,3.1,-1.571,1.571,-1.571,1.571,-1.745,1.745,-2.617,2.617,0.003,0.03,-0.05000000074505806,-0.02500000037252903,-0.02500000037252903,-0.02500000037252903,-0.05000000074505806,-0.0005000000237487257,0.05000000074505806,0.02500000037252903,0.02500000037252903,0.02500000037252903,0.05000000074505806,0.0005000000237487257,-0.0035105153555860763,-0.5808531360362754,0.059249602155508826,0.14,0.0,0.26,0.13962697982788086,0.0021420191042125225,0.3192096948623657,0.0,0.0
0.0,99.0,0.0,0.025,0.0,0.0,0.0,0.0,0.015339807607233524,-0.6931463479995728,1.0109710693359375,-1.3537670373916626,-0.0715857669711113,0.0,0.015339807607233524,-0.6681463718414307,1.0109710693359375,-1.3537670373916626,-0.0715857669711113,0.003,0.0,0.0,0.0,0.0,0.0,0.0,-3.1,3.1,-1.571,1.571,-1.571,1.571,-1.745,1.745,-2.617,2.617,0.003,0.03,-0.05000000074505806,-0.02500000037252903,-0.02500000037252903,-0.02500000037252903,-0.05000000074505806,-0.0005000000237487257,0.05000000074505806,0.02500000037252903,0.02500000037252903,0.02500000037252903,0.05000000074505806,0.0005000000237487257,-0.0035105153555860763,-0.5843636513918615,0.059249602155508826,0.14,0.0,0.26,0.13962697982788086,0.0021420191042125225,0.3192096948623657,1.0,0.0
