PierreExeter/WidowX-reacher/tests/Check_env_consistency/logs/8_action2_-0.0025.csv
episode,timestep,action_1,action_2,action_3,action_4,action_5,action_6,current_joint_pos_1,current_joint_pos_2,current_joint_pos_3,current_joint_pos_4,current_joint_pos_5,current_joint_pos_6,new_joint_pos_1,new_joint_pos_2,new_joint_pos_3,new_joint_pos_4,new_joint_pos_5,new_joint_pos_6,joint_vel_1,joint_vel_2,joint_vel_3,joint_vel_4,joint_vel_5,joint_vel_6,joint1_min,joint1_max,joint2_min,joint2_max,joint3_min,joint3_max,joint4_min,joint4_max,joint5_min,joint5_max,joint6_min,joint6_max,action_low1,action_low2,action_low3,action_low4,action_low5,action_low6,action_high1,action_high2,action_high3,action_high4,action_high5,action_high6,reward,return,dist,target_x,target_y,target_z,tip_x,tip_y,tip_z,done,est_vel
0.0,0.0,0.0,-0.025,0.0,0.0,0.0,0.0,0.015339807607233524,-1.293145775794983,1.0109710693359375,-1.3537670373916626,-0.0715857669711113,0.0,0.015339807607233524,-1.318145751953125,1.0109710693359375,-1.3537670373916626,-0.0715857669711113,0.003,0.0,0.0,0.0,0.0,0.0,0.0,-3.1,3.1,-1.571,1.571,-1.571,1.571,-1.745,1.745,-2.617,2.617,0.003,0.03,-0.05000000074505806,-0.02500000037252903,-0.02500000037252903,-0.02500000037252903,-0.05000000074505806,-0.0005000000237487257,0.05000000074505806,0.02500000037252903,0.02500000037252903,0.02500000037252903,0.05000000074505806,0.0005000000237487257,-0.03056617926859916,-0.03056617926859916,0.1748318599929634,0.14,0.0,0.26,-0.0003857143165078014,-5.917247563047567e-06,0.3642018735408783,0.0,
0.0,1.0,0.0,-0.025,0.0,0.0,0.0,0.0,0.015339807607233524,-1.318145751953125,1.0109710693359375,-1.3537670373916626,-0.0715857669711113,0.0,0.015339807607233524,-1.343145728111267,1.0109710693359375,-1.3537670373916626,-0.0715857669711113,0.003,0.0,0.0,0.0,0.0,0.0,0.0,-3.1,3.1,-1.571,1.571,-1.571,1.571,-1.745,1.745,-2.617,2.617,0.003,0.03,-0.05000000074505806,-0.02500000037252903,-0.02500000037252903,-0.02500000037252903,-0.05000000074505806,-0.0005000000237487257,0.05000000074505806,0.02500000037252903,0.02500000037252903,0.02500000037252903,0.05000000074505806,0.0005000000237487257,-0.0322629748779008,-0.06282915414649996,0.1796189713752442,0.14,0.0,0.26,-0.006364308763295412,-9.763493289938197e-05,0.36411750316619873,0.0,1.1489067317473922
0.0,2.0,0.0,-0.025,0.0,0.0,0.0,0.0,0.015339807607233524,-1.343145728111267,1.0109710693359375,-1.3537670373916626,-0.0715857669711113,0.0,0.015339807607233524,-1.3681457042694092,1.0109710693359375,-1.3537670373916626,-0.0715857669711113,0.003,0.0,0.0,0.0,0.0,0.0,0.0,-3.1,3.1,-1.571,1.571,-1.571,1.571,-1.745,1.745,-2.617,2.617,0.003,0.03,-0.05000000074505806,-0.02500000037252903,-0.02500000037252903,-0.02500000037252903,-0.05000000074505806,-0.0005000000237487257,0.05000000074505806,0.02500000037252903,0.02500000037252903,0.02500000037252903,0.05000000074505806,0.0005000000237487257,-0.033999001985647384,-0.09682815613214735,0.1843881828796178,0.14,0.0,0.26,-0.012338926084339619,-0.00018929158977698535,0.3638836741447449,0.0,1.1446107610496625
0.0,3.0,0.0,-0.025,0.0,0.0,0.0,0.0,0.015339807607233524,-1.3681457042694092,1.0109710693359375,-1.3537670373916626,-0.0715857669711113,0.0,0.015339807607233524,-1.3931456804275513,1.0109710693359375,-1.3537670373916626,-0.0715857669711113,0.003,0.0,0.0,0.0,0.0,0.0,0.0,-3.1,3.1,-1.571,1.571,-1.571,1.571,-1.745,1.745,-2.617,2.617,0.003,0.03,-0.05000000074505806,-0.02500000037252903,-0.02500000037252903,-0.02500000037252903,-0.05000000074505806,-0.0005000000237487257,0.05000000074505806,0.02500000037252903,0.02500000037252903,0.02500000037252903,0.05000000074505806,0.0005000000237487257,-0.03577317573195203,-0.1326013318640994,0.18913798067007068,0.14,0.0,0.26,-0.018305830657482147,-0.00028082996141165495,0.36350053548812866,0.0,1.1399514697086888
0.0,4.0,0.0,-0.025,0.0,0.0,0.0,0.0,0.015339807607233524,-1.3931456804275513,1.0109710693359375,-1.3537670373916626,-0.0715857669711113,0.0,0.015339807607233524,-1.4181456565856934,1.0109710693359375,-1.3537670373916626,-0.0715857669711113,0.003,0.0,0.0,0.0,0.0,0.0,0.0,-3.1,3.1,-1.571,1.571,-1.571,1.571,-1.745,1.745,-2.617,2.617,0.003,0.03,-0.05000000074505806,-0.02500000037252903,-0.02500000037252903,-0.02500000037252903,-0.05000000074505806,-0.0005000000237487257,0.05000000074505806,0.02500000037252903,0.02500000037252903,0.02500000037252903,0.05000000074505806,0.0005000000237487257,-0.03758439404122775,-0.17018572590532716,0.19386694932666515,0.14,0.0,0.26,-0.024261295795440674,-0.0003721928223967552,0.3629683554172516,0.0,1.1349524775826736
0.0,5.0,0.0,-0.025,0.0,0.0,0.0,0.0,0.015339807607233524,-1.4181456565856934,1.0109710693359375,-1.3537670373916626,-0.0715857669711113,0.0,0.015339807607233524,-1.4431456327438354,1.0109710693359375,-1.3537670373916626,-0.0715857669711113,0.003,0.0,0.0,0.0,0.0,0.0,0.0,-3.1,3.1,-1.571,1.571,-1.571,1.571,-1.745,1.745,-2.617,2.617,0.003,0.03,-0.05000000074505806,-0.02500000037252903,-0.02500000037252903,-0.02500000037252903,-0.05000000074505806,-0.0005000000237487257,0.05000000074505806,0.02500000037252903,0.02500000037252903,0.02500000037252903,0.05000000074505806,0.0005000000237487257,-0.03943152380387766,-0.2096172497092048,0.198573723850558,0.14,0.0,0.26,-0.03020159900188446,-0.0004633230564650148,0.3622874617576599,0.0,1.1296258857342822
0.0,6.0,0.0,-0.025,0.0,0.0,0.0,0.0,0.015339807607233524,-1.4431456327438354,1.0109710693359375,-1.3537670373916626,-0.0715857669711113,0.0,0.015339807607233524,-1.4681456089019775,1.0109710693359375,-1.3537670373916626,-0.0715857669711113,0.003,0.0,0.0,0.0,0.0,0.0,0.0,-3.1,3.1,-1.571,1.571,-1.571,1.571,-1.745,1.745,-2.617,2.617,0.003,0.03,-0.05000000074505806,-0.02500000037252903,-0.02500000037252903,-0.02500000037252903,-0.05000000074505806,-0.0005000000237487257,0.05000000074505806,0.02500000037252903,0.02500000037252903,0.02500000037252903,0.05000000074505806,0.0005000000237487257,-0.041313408346922154,-0.25093065805612697,0.2032570007328706,0.14,0.0,0.26,-0.03612302616238594,-0.0005541637656278908,0.36145827174186707,0.0,1.1239864517550235
0.0,7.0,0.0,-0.025,0.0,0.0,0.0,0.0,0.015339807607233524,-1.4681456089019775,1.0109710693359375,-1.3537670373916626,-0.0715857669711113,0.0,0.015339807607233524,-1.4931455850601196,1.0109710693359375,-1.3537670373916626,-0.0715857669711113,0.003,0.0,0.0,0.0,0.0,0.0,0.0,-3.1,3.1,-1.571,1.571,-1.571,1.571,-1.745,1.745,-2.617,2.617,0.003,0.03,-0.05000000074505806,-0.02500000037252903,-0.02500000037252903,-0.02500000037252903,-0.05000000074505806,-0.0005000000237487257,0.05000000074505806,0.02500000037252903,0.02500000037252903,0.02500000037252903,0.05000000074505806,0.0005000000237487257,-0.043228869721776655,-0.2941595277779036,0.20791553506598937,0.14,0.0,0.26,-0.04202187806367874,-0.0006446581101045012,0.36048129200935364,0.0,1.1180482399485059
0.0,8.0,0.0,-0.025,0.0,0.0,0.0,0.0,0.015339807607233524,-1.4931455850601196,1.0109710693359375,-1.3537670373916626,-0.0715857669711113,0.0,0.015339807607233524,-1.5181455612182617,1.0109710693359375,-1.3537670373916626,-0.0715857669711113,0.003,0.0,0.0,0.0,0.0,0.0,0.0,-3.1,3.1,-1.571,1.571,-1.571,1.571,-1.745,1.745,-2.617,2.617,0.003,0.03,-0.05000000074505806,-0.02500000037252903,-0.02500000037252903,-0.02500000037252903,-0.05000000074505806,-0.0005000000237487257,0.05000000074505806,0.02500000037252903,0.02500000037252903,0.02500000037252903,0.05000000074505806,0.0005000000237487257,-0.0451767134014246,-0.3393362411793282,0.21254814372613232,0.14,0.0,0.26,-0.047894466668367386,-0.0007347495411522686,0.35935714840888977,0.0,1.1118260784343081
0.0,9.0,0.0,-0.025,0.0,0.0,0.0,0.0,0.015339807607233524,-1.5181455612182617,1.0109710693359375,-1.3537670373916626,-0.0715857669711113,0.0,0.015339807607233524,-1.5431455373764038,1.0109710693359375,-1.3537670373916626,-0.0715857669711113,0.003,0.0,0.0,0.0,0.0,0.0,0.0,-3.1,3.1,-1.571,1.571,-1.571,1.571,-1.745,1.745,-2.617,2.617,0.003,0.03,-0.05000000074505806,-0.02500000037252903,-0.02500000037252903,-0.02500000037252903,-0.05000000074505806,-0.0005000000237487257,0.05000000074505806,0.02500000037252903,0.02500000037252903,0.02500000037252903,0.05000000074505806,0.0005000000237487257,-0.04715572036883796,-0.3864919615481662,0.21715367915105183,0.14,0.0,0.26,-0.05373712629079819,-0.0008243818301707506,0.3580865263938904,0.0,1.1053285019806824
0.0,10.0,0.0,-0.025,0.0,0.0,0.0,0.0,0.015339807607233524,-1.5431455373764038,1.0109710693359375,-1.3537670373916626,-0.0715857669711113,0.0,0.015339807607233524,-1.568145513534546,1.0109710693359375,-1.3537670373916626,-0.0715857669711113,0.003,0.0,0.0,0.0,0.0,0.0,0.0,-3.1,3.1,-1.571,1.571,-1.571,1.571,-1.745,1.745,-2.617,2.617,0.003,0.03,-0.05000000074505806,-0.02500000037252903,-0.02500000037252903,-0.02500000037252903,-0.05000000074505806,-0.0005000000237487257,0.05000000074505806,0.02500000037252903,0.02500000037252903,0.02500000037252903,0.05000000074505806,0.0005000000237487257,-0.049164659145643747,-0.43565662069380995,0.2217310513790158,0.14,0.0,0.26,-0.059546198695898056,-0.0009134988649748266,0.3566702604293823,0.0,1.0985693347113545
0.0,11.0,0.0,-0.025,0.0,0.0,0.0,0.0,0.015339807607233524,-1.568145513534546,1.0109710693359375,-1.3537670373916626,-0.0715857669711113,0.0,0.015339807607233524,-1.571,1.0109710693359375,-1.3537670373916626,-0.0715857669711113,0.003,0.0,0.0,0.0,0.0,0.0,0.0,-3.1,3.1,-1.571,1.571,-1.571,1.571,-1.745,1.745,-2.617,2.617,0.003,0.03,-0.05000000074505806,-0.02500000037252903,-0.02500000037252903,-0.02500000037252903,-0.05000000074505806,-0.0005000000237487257,0.05000000074505806,0.02500000037252903,0.02500000037252903,0.02500000037252903,0.05000000074505806,0.0005000000237487257,-0.049395884474532074,-0.48505250516834203,0.22225184920385269,0.14,0.0,0.26,-0.06020717695355415,-0.0009236389305442572,0.3564993143081665,0.0,0.12499147796085186
0.0,12.0,0.0,-0.025,0.0,0.0,0.0,0.0,0.015339807607233524,-1.5709999799728394,1.0109710693359375,-1.3537670373916626,-0.0715857669711113,0.0,0.015339807607233524,-1.571,1.0109710693359375,-1.3537670373916626,-0.0715857669711113,0.003,0.0,0.0,0.0,0.0,0.0,0.0,-3.1,3.1,-1.571,1.571,-1.571,1.571,-1.745,1.745,-2.617,2.617,0.003,0.03,-0.05000000074505806,-0.02500000037252903,-0.02500000037252903,-0.02500000037252903,-0.05000000074505806,-0.0005000000237487257,0.05000000074505806,0.02500000037252903,0.02500000037252903,0.02500000037252903,0.05000000074505806,0.0005000000237487257,-0.049395884474532074,-0.5344483896428741,0.22225184920385269,0.14,0.0,0.26,-0.06020717695355415,-0.0009236389305442572,0.3564993143081665,0.0,0.0
0.0,13.0,0.0,-0.025,0.0,0.0,0.0,0.0,0.015339807607233524,-1.5709999799728394,1.0109710693359375,-1.3537670373916626,-0.0715857669711113,0.0,0.015339807607233524,-1.571,1.0109710693359375,-1.3537670373916626,-0.0715857669711113,0.003,0.0,0.0,0.0,0.0,0.0,0.0,-3.1,3.1,-1.571,1.571,-1.571,1.571,-1.745,1.745,-2.617,2.617,0.003,0.03,-0.05000000074505806,-0.02500000037252903,-0.02500000037252903,-0.02500000037252903,-0.05000000074505806,-0.0005000000237487257,0.05000000074505806,0.02500000037252903,0.02500000037252903,0.02500000037252903,0.05000000074505806,0.0005000000237487257,-0.049395884474532074,-0.5838442741174061,0.22225184920385269,0.14,0.0,0.26,-0.06020717695355415,-0.0009236389305442572,0.3564993143081665,0.0,0.0
0.0,14.0,0.0,-0.025,0.0,0.0,0.0,0.0,0.015339807607233524,-1.5709999799728394,1.0109710693359375,-1.3537670373916626,-0.0715857669711113,0.0,0.015339807607233524,-1.571,1.0109710693359375,-1.3537670373916626,-0.0715857669711113,0.003,0.0,0.0,0.0,0.0,0.0,0.0,-3.1,3.1,-1.571,1.571,-1.571,1.571,-1.745,1.745,-2.617,2.617,0.003,0.03,-0.05000000074505806,-0.02500000037252903,-0.02500000037252903,-0.02500000037252903,-0.05000000074505806,-0.0005000000237487257,0.05000000074505806,0.02500000037252903,0.02500000037252903,0.02500000037252903,0.05000000074505806,0.0005000000237487257,-0.049395884474532074,-0.6332401585919382,0.22225184920385269,0.14,0.0,0.26,-0.06020717695355415,-0.0009236389305442572,0.3564993143081665,0.0,0.0
0.0,15.0,0.0,-0.025,0.0,0.0,0.0,0.0,0.015339807607233524,-1.5709999799728394,1.0109710693359375,-1.3537670373916626,-0.0715857669711113,0.0,0.015339807607233524,-1.571,1.0109710693359375,-1.3537670373916626,-0.0715857669711113,0.003,0.0,0.0,0.0,0.0,0.0,0.0,-3.1,3.1,-1.571,1.571,-1.571,1.571,-1.745,1.745,-2.617,2.617,0.003,0.03,-0.05000000074505806,-0.02500000037252903,-0.02500000037252903,-0.02500000037252903,-0.05000000074505806,-0.0005000000237487257,0.05000000074505806,0.02500000037252903,0.02500000037252903,0.02500000037252903,0.05000000074505806,0.0005000000237487257,-0.049395884474532074,-0.6826360430664702,0.22225184920385269,0.14,0.0,0.26,-0.06020717695355415,-0.0009236389305442572,0.3564993143081665,0.0,0.0
0.0,16.0,0.0,-0.025,0.0,0.0,0.0,0.0,0.015339807607233524,-1.5709999799728394,1.0109710693359375,-1.3537670373916626,-0.0715857669711113,0.0,0.015339807607233524,-1.571,1.0109710693359375,-1.3537670373916626,-0.0715857669711113,0.003,0.0,0.0,0.0,0.0,0.0,0.0,-3.1,3.1,-1.571,1.571,-1.571,1.571,-1.745,1.745,-2.617,2.617,0.003,0.03,-0.05000000074505806,-0.02500000037252903,-0.02500000037252903,-0.02500000037252903,-0.05000000074505806,-0.0005000000237487257,0.05000000074505806,0.02500000037252903,0.02500000037252903,0.02500000037252903,0.05000000074505806,0.0005000000237487257,-0.049395884474532074,-0.7320319275410022,0.22225184920385269,0.14,0.0,0.26,-0.06020717695355415,-0.0009236389305442572,0.3564993143081665,0.0,0.0
0.0,17.0,0.0,-0.025,0.0,0.0,0.0,0.0,0.015339807607233524,-1.5709999799728394,1.0109710693359375,-1.3537670373916626,-0.0715857669711113,0.0,0.015339807607233524,-1.571,1.0109710693359375,-1.3537670373916626,-0.0715857669711113,0.003,0.0,0.0,0.0,0.0,0.0,0.0,-3.1,3.1,-1.571,1.571,-1.571,1.571,-1.745,1.745,-2.617,2.617,0.003,0.03,-0.05000000074505806,-0.02500000037252903,-0.02500000037252903,-0.02500000037252903,-0.05000000074505806,-0.0005000000237487257,0.05000000074505806,0.02500000037252903,0.02500000037252903,0.02500000037252903,0.05000000074505806,0.0005000000237487257,-0.049395884474532074,-0.7814278120155342,0.22225184920385269,0.14,0.0,0.26,-0.06020717695355415,-0.0009236389305442572,0.3564993143081665,0.0,0.0
0.0,18.0,0.0,-0.025,0.0,0.0,0.0,0.0,0.015339807607233524,-1.5709999799728394,1.0109710693359375,-1.3537670373916626,-0.0715857669711113,0.0,0.015339807607233524,-1.571,1.0109710693359375,-1.3537670373916626,-0.0715857669711113,0.003,0.0,0.0,0.0,0.0,0.0,0.0,-3.1,3.1,-1.571,1.571,-1.571,1.571,-1.745,1.745,-2.617,2.617,0.003,0.03,-0.05000000074505806,-0.02500000037252903,-0.02500000037252903,-0.02500000037252903,-0.05000000074505806,-0.0005000000237487257,0.05000000074505806,0.02500000037252903,0.02500000037252903,0.02500000037252903,0.05000000074505806,0.0005000000237487257,-0.049395884474532074,-0.8308236964900663,0.22225184920385269,0.14,0.0,0.26,-0.06020717695355415,-0.0009236389305442572,0.3564993143081665,0.0,0.0
0.0,19.0,0.0,-0.025,0.0,0.0,0.0,0.0,0.015339807607233524,-1.5709999799728394,1.0109710693359375,-1.3537670373916626,-0.0715857669711113,0.0,0.015339807607233524,-1.571,1.0109710693359375,-1.3537670373916626,-0.0715857669711113,0.003,0.0,0.0,0.0,0.0,0.0,0.0,-3.1,3.1,-1.571,1.571,-1.571,1.571,-1.745,1.745,-2.617,2.617,0.003,0.03,-0.05000000074505806,-0.02500000037252903,-0.02500000037252903,-0.02500000037252903,-0.05000000074505806,-0.0005000000237487257,0.05000000074505806,0.02500000037252903,0.02500000037252903,0.02500000037252903,0.05000000074505806,0.0005000000237487257,-0.049395884474532074,-0.8802195809645983,0.22225184920385269,0.14,0.0,0.26,-0.06020717695355415,-0.0009236389305442572,0.3564993143081665,0.0,0.0
0.0,20.0,0.0,-0.025,0.0,0.0,0.0,0.0,0.015339807607233524,-1.5709999799728394,1.0109710693359375,-1.3537670373916626,-0.0715857669711113,0.0,0.015339807607233524,-1.571,1.0109710693359375,-1.3537670373916626,-0.0715857669711113,0.003,0.0,0.0,0.0,0.0,0.0,0.0,-3.1,3.1,-1.571,1.571,-1.571,1.571,-1.745,1.745,-2.617,2.617,0.003,0.03,-0.05000000074505806,-0.02500000037252903,-0.02500000037252903,-0.02500000037252903,-0.05000000074505806,-0.0005000000237487257,0.05000000074505806,0.02500000037252903,0.02500000037252903,0.02500000037252903,0.05000000074505806,0.0005000000237487257,-0.049395884474532074,-0.9296154654391303,0.22225184920385269,0.14,0.0,0.26,-0.06020717695355415,-0.0009236389305442572,0.3564993143081665,0.0,0.0
0.0,21.0,0.0,-0.025,0.0,0.0,0.0,0.0,0.015339807607233524,-1.5709999799728394,1.0109710693359375,-1.3537670373916626,-0.0715857669711113,0.0,0.015339807607233524,-1.571,1.0109710693359375,-1.3537670373916626,-0.0715857669711113,0.003,0.0,0.0,0.0,0.0,0.0,0.0,-3.1,3.1,-1.571,1.571,-1.571,1.571,-1.745,1.745,-2.617,2.617,0.003,0.03,-0.05000000074505806,-0.02500000037252903,-0.02500000037252903,-0.02500000037252903,-0.05000000074505806,-0.0005000000237487257,0.05000000074505806,0.02500000037252903,0.02500000037252903,0.02500000037252903,0.05000000074505806,0.0005000000237487257,-0.049395884474532074,-0.9790113499136623,0.22225184920385269,0.14,0.0,0.26,-0.06020717695355415,-0.0009236389305442572,0.3564993143081665,0.0,0.0
0.0,22.0,0.0,-0.025,0.0,0.0,0.0,0.0,0.015339807607233524,-1.5709999799728394,1.0109710693359375,-1.3537670373916626,-0.0715857669711113,0.0,0.015339807607233524,-1.571,1.0109710693359375,-1.3537670373916626,-0.0715857669711113,0.003,0.0,0.0,0.0,0.0,0.0,0.0,-3.1,3.1,-1.571,1.571,-1.571,1.571,-1.745,1.745,-2.617,2.617,0.003,0.03,-0.05000000074505806,-0.02500000037252903,-0.02500000037252903,-0.02500000037252903,-0.05000000074505806,-0.0005000000237487257,0.05000000074505806,0.02500000037252903,0.02500000037252903,0.02500000037252903,0.05000000074505806,0.0005000000237487257,-0.049395884474532074,-1.0284072343881945,0.22225184920385269,0.14,0.0,0.26,-0.06020717695355415,-0.0009236389305442572,0.3564993143081665,0.0,0.0
0.0,23.0,0.0,-0.025,0.0,0.0,0.0,0.0,0.015339807607233524,-1.5709999799728394,1.0109710693359375,-1.3537670373916626,-0.0715857669711113,0.0,0.015339807607233524,-1.571,1.0109710693359375,-1.3537670373916626,-0.0715857669711113,0.003,0.0,0.0,0.0,0.0,0.0,0.0,-3.1,3.1,-1.571,1.571,-1.571,1.571,-1.745,1.745,-2.617,2.617,0.003,0.03,-0.05000000074505806,-0.02500000037252903,-0.02500000037252903,-0.02500000037252903,-0.05000000074505806,-0.0005000000237487257,0.05000000074505806,0.02500000037252903,0.02500000037252903,0.02500000037252903,0.05000000074505806,0.0005000000237487257,-0.049395884474532074,-1.0778031188627266,0.22225184920385269,0.14,0.0,0.26,-0.06020717695355415,-0.0009236389305442572,0.3564993143081665,0.0,0.0
0.0,24.0,0.0,-0.025,0.0,0.0,0.0,0.0,0.015339807607233524,-1.5709999799728394,1.0109710693359375,-1.3537670373916626,-0.0715857669711113,0.0,0.015339807607233524,-1.571,1.0109710693359375,-1.3537670373916626,-0.0715857669711113,0.003,0.0,0.0,0.0,0.0,0.0,0.0,-3.1,3.1,-1.571,1.571,-1.571,1.571,-1.745,1.745,-2.617,2.617,0.003,0.03,-0.05000000074505806,-0.02500000037252903,-0.02500000037252903,-0.02500000037252903,-0.05000000074505806,-0.0005000000237487257,0.05000000074505806,0.02500000037252903,0.02500000037252903,0.02500000037252903,0.05000000074505806,0.0005000000237487257,-0.049395884474532074,-1.1271990033372588,0.22225184920385269,0.14,0.0,0.26,-0.06020717695355415,-0.0009236389305442572,0.3564993143081665,0.0,0.0
0.0,25.0,0.0,-0.025,0.0,0.0,0.0,0.0,0.015339807607233524,-1.5709999799728394,1.0109710693359375,-1.3537670373916626,-0.0715857669711113,0.0,0.015339807607233524,-1.571,1.0109710693359375,-1.3537670373916626,-0.0715857669711113,0.003,0.0,0.0,0.0,0.0,0.0,0.0,-3.1,3.1,-1.571,1.571,-1.571,1.571,-1.745,1.745,-2.617,2.617,0.003,0.03,-0.05000000074505806,-0.02500000037252903,-0.02500000037252903,-0.02500000037252903,-0.05000000074505806,-0.0005000000237487257,0.05000000074505806,0.02500000037252903,0.02500000037252903,0.02500000037252903,0.05000000074505806,0.0005000000237487257,-0.049395884474532074,-1.176594887811791,0.22225184920385269,0.14,0.0,0.26,-0.06020717695355415,-0.0009236389305442572,0.3564993143081665,0.0,0.0
0.0,26.0,0.0,-0.025,0.0,0.0,0.0,0.0,0.015339807607233524,-1.5709999799728394,1.0109710693359375,-1.3537670373916626,-0.0715857669711113,0.0,0.015339807607233524,-1.571,1.0109710693359375,-1.3537670373916626,-0.0715857669711113,0.003,0.0,0.0,0.0,0.0,0.0,0.0,-3.1,3.1,-1.571,1.571,-1.571,1.571,-1.745,1.745,-2.617,2.617,0.003,0.03,-0.05000000074505806,-0.02500000037252903,-0.02500000037252903,-0.02500000037252903,-0.05000000074505806,-0.0005000000237487257,0.05000000074505806,0.02500000037252903,0.02500000037252903,0.02500000037252903,0.05000000074505806,0.0005000000237487257,-0.049395884474532074,-1.225990772286323,0.22225184920385269,0.14,0.0,0.26,-0.06020717695355415,-0.0009236389305442572,0.3564993143081665,0.0,0.0
0.0,27.0,0.0,-0.025,0.0,0.0,0.0,0.0,0.015339807607233524,-1.5709999799728394,1.0109710693359375,-1.3537670373916626,-0.0715857669711113,0.0,0.015339807607233524,-1.571,1.0109710693359375,-1.3537670373916626,-0.0715857669711113,0.003,0.0,0.0,0.0,0.0,0.0,0.0,-3.1,3.1,-1.571,1.571,-1.571,1.571,-1.745,1.745,-2.617,2.617,0.003,0.03,-0.05000000074505806,-0.02500000037252903,-0.02500000037252903,-0.02500000037252903,-0.05000000074505806,-0.0005000000237487257,0.05000000074505806,0.02500000037252903,0.02500000037252903,0.02500000037252903,0.05000000074505806,0.0005000000237487257,-0.049395884474532074,-1.2753866567608552,0.22225184920385269,0.14,0.0,0.26,-0.06020717695355415,-0.0009236389305442572,0.3564993143081665,0.0,0.0
0.0,28.0,0.0,-0.025,0.0,0.0,0.0,0.0,0.015339807607233524,-1.5709999799728394,1.0109710693359375,-1.3537670373916626,-0.0715857669711113,0.0,0.015339807607233524,-1.571,1.0109710693359375,-1.3537670373916626,-0.0715857669711113,0.003,0.0,0.0,0.0,0.0,0.0,0.0,-3.1,3.1,-1.571,1.571,-1.571,1.571,-1.745,1.745,-2.617,2.617,0.003,0.03,-0.05000000074505806,-0.02500000037252903,-0.02500000037252903,-0.02500000037252903,-0.05000000074505806,-0.0005000000237487257,0.05000000074505806,0.02500000037252903,0.02500000037252903,0.02500000037252903,0.05000000074505806,0.0005000000237487257,-0.049395884474532074,-1.3247825412353873,0.22225184920385269,0.14,0.0,0.26,-0.06020717695355415,-0.0009236389305442572,0.3564993143081665,0.0,0.0
0.0,29.0,0.0,-0.025,0.0,0.0,0.0,0.0,0.015339807607233524,-1.5709999799728394,1.0109710693359375,-1.3537670373916626,-0.0715857669711113,0.0,0.015339807607233524,-1.571,1.0109710693359375,-1.3537670373916626,-0.0715857669711113,0.003,0.0,0.0,0.0,0.0,0.0,0.0,-3.1,3.1,-1.571,1.571,-1.571,1.571,-1.745,1.745,-2.617,2.617,0.003,0.03,-0.05000000074505806,-0.02500000037252903,-0.02500000037252903,-0.02500000037252903,-0.05000000074505806,-0.0005000000237487257,0.05000000074505806,0.02500000037252903,0.02500000037252903,0.02500000037252903,0.05000000074505806,0.0005000000237487257,-0.049395884474532074,-1.3741784257099194,0.22225184920385269,0.14,0.0,0.26,-0.06020717695355415,-0.0009236389305442572,0.3564993143081665,0.0,0.0
0.0,30.0,0.0,-0.025,0.0,0.0,0.0,0.0,0.015339807607233524,-1.5709999799728394,1.0109710693359375,-1.3537670373916626,-0.0715857669711113,0.0,0.015339807607233524,-1.571,1.0109710693359375,-1.3537670373916626,-0.0715857669711113,0.003,0.0,0.0,0.0,0.0,0.0,0.0,-3.1,3.1,-1.571,1.571,-1.571,1.571,-1.745,1.745,-2.617,2.617,0.003,0.03,-0.05000000074505806,-0.02500000037252903,-0.02500000037252903,-0.02500000037252903,-0.05000000074505806,-0.0005000000237487257,0.05000000074505806,0.02500000037252903,0.02500000037252903,0.02500000037252903,0.05000000074505806,0.0005000000237487257,-0.049395884474532074,-1.4235743101844516,0.22225184920385269,0.14,0.0,0.26,-0.06020717695355415,-0.0009236389305442572,0.3564993143081665,0.0,0.0
0.0,31.0,0.0,-0.025,0.0,0.0,0.0,0.0,0.015339807607233524,-1.5709999799728394,1.0109710693359375,-1.3537670373916626,-0.0715857669711113,0.0,0.015339807607233524,-1.571,1.0109710693359375,-1.3537670373916626,-0.0715857669711113,0.003,0.0,0.0,0.0,0.0,0.0,0.0,-3.1,3.1,-1.571,1.571,-1.571,1.571,-1.745,1.745,-2.617,2.617,0.003,0.03,-0.05000000074505806,-0.02500000037252903,-0.02500000037252903,-0.02500000037252903,-0.05000000074505806,-0.0005000000237487257,0.05000000074505806,0.02500000037252903,0.02500000037252903,0.02500000037252903,0.05000000074505806,0.0005000000237487257,-0.049395884474532074,-1.4729701946589837,0.22225184920385269,0.14,0.0,0.26,-0.06020717695355415,-0.0009236389305442572,0.3564993143081665,0.0,0.0
0.0,32.0,0.0,-0.025,0.0,0.0,0.0,0.0,0.015339807607233524,-1.5709999799728394,1.0109710693359375,-1.3537670373916626,-0.0715857669711113,0.0,0.015339807607233524,-1.571,1.0109710693359375,-1.3537670373916626,-0.0715857669711113,0.003,0.0,0.0,0.0,0.0,0.0,0.0,-3.1,3.1,-1.571,1.571,-1.571,1.571,-1.745,1.745,-2.617,2.617,0.003,0.03,-0.05000000074505806,-0.02500000037252903,-0.02500000037252903,-0.02500000037252903,-0.05000000074505806,-0.0005000000237487257,0.05000000074505806,0.02500000037252903,0.02500000037252903,0.02500000037252903,0.05000000074505806,0.0005000000237487257,-0.049395884474532074,-1.5223660791335158,0.22225184920385269,0.14,0.0,0.26,-0.06020717695355415,-0.0009236389305442572,0.3564993143081665,0.0,0.0
0.0,33.0,0.0,-0.025,0.0,0.0,0.0,0.0,0.015339807607233524,-1.5709999799728394,1.0109710693359375,-1.3537670373916626,-0.0715857669711113,0.0,0.015339807607233524,-1.571,1.0109710693359375,-1.3537670373916626,-0.0715857669711113,0.003,0.0,0.0,0.0,0.0,0.0,0.0,-3.1,3.1,-1.571,1.571,-1.571,1.571,-1.745,1.745,-2.617,2.617,0.003,0.03,-0.05000000074505806,-0.02500000037252903,-0.02500000037252903,-0.02500000037252903,-0.05000000074505806,-0.0005000000237487257,0.05000000074505806,0.02500000037252903,0.02500000037252903,0.02500000037252903,0.05000000074505806,0.0005000000237487257,-0.049395884474532074,-1.571761963608048,0.22225184920385269,0.14,0.0,0.26,-0.06020717695355415,-0.0009236389305442572,0.3564993143081665,0.0,0.0
0.0,34.0,0.0,-0.025,0.0,0.0,0.0,0.0,0.015339807607233524,-1.5709999799728394,1.0109710693359375,-1.3537670373916626,-0.0715857669711113,0.0,0.015339807607233524,-1.571,1.0109710693359375,-1.3537670373916626,-0.0715857669711113,0.003,0.0,0.0,0.0,0.0,0.0,0.0,-3.1,3.1,-1.571,1.571,-1.571,1.571,-1.745,1.745,-2.617,2.617,0.003,0.03,-0.05000000074505806,-0.02500000037252903,-0.02500000037252903,-0.02500000037252903,-0.05000000074505806,-0.0005000000237487257,0.05000000074505806,0.02500000037252903,0.02500000037252903,0.02500000037252903,0.05000000074505806,0.0005000000237487257,-0.049395884474532074,-1.6211578480825801,0.22225184920385269,0.14,0.0,0.26,-0.06020717695355415,-0.0009236389305442572,0.3564993143081665,0.0,0.0
0.0,35.0,0.0,-0.025,0.0,0.0,0.0,0.0,0.015339807607233524,-1.5709999799728394,1.0109710693359375,-1.3537670373916626,-0.0715857669711113,0.0,0.015339807607233524,-1.571,1.0109710693359375,-1.3537670373916626,-0.0715857669711113,0.003,0.0,0.0,0.0,0.0,0.0,0.0,-3.1,3.1,-1.571,1.571,-1.571,1.571,-1.745,1.745,-2.617,2.617,0.003,0.03,-0.05000000074505806,-0.02500000037252903,-0.02500000037252903,-0.02500000037252903,-0.05000000074505806,-0.0005000000237487257,0.05000000074505806,0.02500000037252903,0.02500000037252903,0.02500000037252903,0.05000000074505806,0.0005000000237487257,-0.049395884474532074,-1.6705537325571123,0.22225184920385269,0.14,0.0,0.26,-0.06020717695355415,-0.0009236389305442572,0.3564993143081665,0.0,0.0
0.0,36.0,0.0,-0.025,0.0,0.0,0.0,0.0,0.015339807607233524,-1.5709999799728394,1.0109710693359375,-1.3537670373916626,-0.0715857669711113,0.0,0.015339807607233524,-1.571,1.0109710693359375,-1.3537670373916626,-0.0715857669711113,0.003,0.0,0.0,0.0,0.0,0.0,0.0,-3.1,3.1,-1.571,1.571,-1.571,1.571,-1.745,1.745,-2.617,2.617,0.003,0.03,-0.05000000074505806,-0.02500000037252903,-0.02500000037252903,-0.02500000037252903,-0.05000000074505806,-0.0005000000237487257,0.05000000074505806,0.02500000037252903,0.02500000037252903,0.02500000037252903,0.05000000074505806,0.0005000000237487257,-0.049395884474532074,-1.7199496170316444,0.22225184920385269,0.14,0.0,0.26,-0.06020717695355415,-0.0009236389305442572,0.3564993143081665,0.0,0.0
0.0,37.0,0.0,-0.025,0.0,0.0,0.0,0.0,0.015339807607233524,-1.5709999799728394,1.0109710693359375,-1.3537670373916626,-0.0715857669711113,0.0,0.015339807607233524,-1.571,1.0109710693359375,-1.3537670373916626,-0.0715857669711113,0.003,0.0,0.0,0.0,0.0,0.0,0.0,-3.1,3.1,-1.571,1.571,-1.571,1.571,-1.745,1.745,-2.617,2.617,0.003,0.03,-0.05000000074505806,-0.02500000037252903,-0.02500000037252903,-0.02500000037252903,-0.05000000074505806,-0.0005000000237487257,0.05000000074505806,0.02500000037252903,0.02500000037252903,0.02500000037252903,0.05000000074505806,0.0005000000237487257,-0.049395884474532074,-1.7693455015061765,0.22225184920385269,0.14,0.0,0.26,-0.06020717695355415,-0.0009236389305442572,0.3564993143081665,0.0,0.0
0.0,38.0,0.0,-0.025,0.0,0.0,0.0,0.0,0.015339807607233524,-1.5709999799728394,1.0109710693359375,-1.3537670373916626,-0.0715857669711113,0.0,0.015339807607233524,-1.571,1.0109710693359375,-1.3537670373916626,-0.0715857669711113,0.003,0.0,0.0,0.0,0.0,0.0,0.0,-3.1,3.1,-1.571,1.571,-1.571,1.571,-1.745,1.745,-2.617,2.617,0.003,0.03,-0.05000000074505806,-0.02500000037252903,-0.02500000037252903,-0.02500000037252903,-0.05000000074505806,-0.0005000000237487257,0.05000000074505806,0.02500000037252903,0.02500000037252903,0.02500000037252903,0.05000000074505806,0.0005000000237487257,-0.049395884474532074,-1.8187413859807087,0.22225184920385269,0.14,0.0,0.26,-0.06020717695355415,-0.0009236389305442572,0.3564993143081665,0.0,0.0
0.0,39.0,0.0,-0.025,0.0,0.0,0.0,0.0,0.015339807607233524,-1.5709999799728394,1.0109710693359375,-1.3537670373916626,-0.0715857669711113,0.0,0.015339807607233524,-1.571,1.0109710693359375,-1.3537670373916626,-0.0715857669711113,0.003,0.0,0.0,0.0,0.0,0.0,0.0,-3.1,3.1,-1.571,1.571,-1.571,1.571,-1.745,1.745,-2.617,2.617,0.003,0.03,-0.05000000074505806,-0.02500000037252903,-0.02500000037252903,-0.02500000037252903,-0.05000000074505806,-0.0005000000237487257,0.05000000074505806,0.02500000037252903,0.02500000037252903,0.02500000037252903,0.05000000074505806,0.0005000000237487257,-0.049395884474532074,-1.8681372704552408,0.22225184920385269,0.14,0.0,0.26,-0.06020717695355415,-0.0009236389305442572,0.3564993143081665,0.0,0.0
0.0,40.0,0.0,-0.025,0.0,0.0,0.0,0.0,0.015339807607233524,-1.5709999799728394,1.0109710693359375,-1.3537670373916626,-0.0715857669711113,0.0,0.015339807607233524,-1.571,1.0109710693359375,-1.3537670373916626,-0.0715857669711113,0.003,0.0,0.0,0.0,0.0,0.0,0.0,-3.1,3.1,-1.571,1.571,-1.571,1.571,-1.745,1.745,-2.617,2.617,0.003,0.03,-0.05000000074505806,-0.02500000037252903,-0.02500000037252903,-0.02500000037252903,-0.05000000074505806,-0.0005000000237487257,0.05000000074505806,0.02500000037252903,0.02500000037252903,0.02500000037252903,0.05000000074505806,0.0005000000237487257,-0.049395884474532074,-1.917533154929773,0.22225184920385269,0.14,0.0,0.26,-0.06020717695355415,-0.0009236389305442572,0.3564993143081665,0.0,0.0
0.0,41.0,0.0,-0.025,0.0,0.0,0.0,0.0,0.015339807607233524,-1.5709999799728394,1.0109710693359375,-1.3537670373916626,-0.0715857669711113,0.0,0.015339807607233524,-1.571,1.0109710693359375,-1.3537670373916626,-0.0715857669711113,0.003,0.0,0.0,0.0,0.0,0.0,0.0,-3.1,3.1,-1.571,1.571,-1.571,1.571,-1.745,1.745,-2.617,2.617,0.003,0.03,-0.05000000074505806,-0.02500000037252903,-0.02500000037252903,-0.02500000037252903,-0.05000000074505806,-0.0005000000237487257,0.05000000074505806,0.02500000037252903,0.02500000037252903,0.02500000037252903,0.05000000074505806,0.0005000000237487257,-0.049395884474532074,-1.966929039404305,0.22225184920385269,0.14,0.0,0.26,-0.06020717695355415,-0.0009236389305442572,0.3564993143081665,0.0,0.0
0.0,42.0,0.0,-0.025,0.0,0.0,0.0,0.0,0.015339807607233524,-1.5709999799728394,1.0109710693359375,-1.3537670373916626,-0.0715857669711113,0.0,0.015339807607233524,-1.571,1.0109710693359375,-1.3537670373916626,-0.0715857669711113,0.003,0.0,0.0,0.0,0.0,0.0,0.0,-3.1,3.1,-1.571,1.571,-1.571,1.571,-1.745,1.745,-2.617,2.617,0.003,0.03,-0.05000000074505806,-0.02500000037252903,-0.02500000037252903,-0.02500000037252903,-0.05000000074505806,-0.0005000000237487257,0.05000000074505806,0.02500000037252903,0.02500000037252903,0.02500000037252903,0.05000000074505806,0.0005000000237487257,-0.049395884474532074,-2.016324923878837,0.22225184920385269,0.14,0.0,0.26,-0.06020717695355415,-0.0009236389305442572,0.3564993143081665,0.0,0.0
0.0,43.0,0.0,-0.025,0.0,0.0,0.0,0.0,0.015339807607233524,-1.5709999799728394,1.0109710693359375,-1.3537670373916626,-0.0715857669711113,0.0,0.015339807607233524,-1.571,1.0109710693359375,-1.3537670373916626,-0.0715857669711113,0.003,0.0,0.0,0.0,0.0,0.0,0.0,-3.1,3.1,-1.571,1.571,-1.571,1.571,-1.745,1.745,-2.617,2.617,0.003,0.03,-0.05000000074505806,-0.02500000037252903,-0.02500000037252903,-0.02500000037252903,-0.05000000074505806,-0.0005000000237487257,0.05000000074505806,0.02500000037252903,0.02500000037252903,0.02500000037252903,0.05000000074505806,0.0005000000237487257,-0.049395884474532074,-2.065720808353369,0.22225184920385269,0.14,0.0,0.26,-0.06020717695355415,-0.0009236389305442572,0.3564993143081665,0.0,0.0
0.0,44.0,0.0,-0.025,0.0,0.0,0.0,0.0,0.015339807607233524,-1.5709999799728394,1.0109710693359375,-1.3537670373916626,-0.0715857669711113,0.0,0.015339807607233524,-1.571,1.0109710693359375,-1.3537670373916626,-0.0715857669711113,0.003,0.0,0.0,0.0,0.0,0.0,0.0,-3.1,3.1,-1.571,1.571,-1.571,1.571,-1.745,1.745,-2.617,2.617,0.003,0.03,-0.05000000074505806,-0.02500000037252903,-0.02500000037252903,-0.02500000037252903,-0.05000000074505806,-0.0005000000237487257,0.05000000074505806,0.02500000037252903,0.02500000037252903,0.02500000037252903,0.05000000074505806,0.0005000000237487257,-0.049395884474532074,-2.115116692827901,0.22225184920385269,0.14,0.0,0.26,-0.06020717695355415,-0.0009236389305442572,0.3564993143081665,0.0,0.0
0.0,45.0,0.0,-0.025,0.0,0.0,0.0,0.0,0.015339807607233524,-1.5709999799728394,1.0109710693359375,-1.3537670373916626,-0.0715857669711113,0.0,0.015339807607233524,-1.571,1.0109710693359375,-1.3537670373916626,-0.0715857669711113,0.003,0.0,0.0,0.0,0.0,0.0,0.0,-3.1,3.1,-1.571,1.571,-1.571,1.571,-1.745,1.745,-2.617,2.617,0.003,0.03,-0.05000000074505806,-0.02500000037252903,-0.02500000037252903,-0.02500000037252903,-0.05000000074505806,-0.0005000000237487257,0.05000000074505806,0.02500000037252903,0.02500000037252903,0.02500000037252903,0.05000000074505806,0.0005000000237487257,-0.049395884474532074,-2.1645125773024327,0.22225184920385269,0.14,0.0,0.26,-0.06020717695355415,-0.0009236389305442572,0.3564993143081665,0.0,0.0
0.0,46.0,0.0,-0.025,0.0,0.0,0.0,0.0,0.015339807607233524,-1.5709999799728394,1.0109710693359375,-1.3537670373916626,-0.0715857669711113,0.0,0.015339807607233524,-1.571,1.0109710693359375,-1.3537670373916626,-0.0715857669711113,0.003,0.0,0.0,0.0,0.0,0.0,0.0,-3.1,3.1,-1.571,1.571,-1.571,1.571,-1.745,1.745,-2.617,2.617,0.003,0.03,-0.05000000074505806,-0.02500000037252903,-0.02500000037252903,-0.02500000037252903,-0.05000000074505806,-0.0005000000237487257,0.05000000074505806,0.02500000037252903,0.02500000037252903,0.02500000037252903,0.05000000074505806,0.0005000000237487257,-0.049395884474532074,-2.2139084617769647,0.22225184920385269,0.14,0.0,0.26,-0.06020717695355415,-0.0009236389305442572,0.3564993143081665,0.0,0.0
0.0,47.0,0.0,-0.025,0.0,0.0,0.0,0.0,0.015339807607233524,-1.5709999799728394,1.0109710693359375,-1.3537670373916626,-0.0715857669711113,0.0,0.015339807607233524,-1.571,1.0109710693359375,-1.3537670373916626,-0.0715857669711113,0.003,0.0,0.0,0.0,0.0,0.0,0.0,-3.1,3.1,-1.571,1.571,-1.571,1.571,-1.745,1.745,-2.617,2.617,0.003,0.03,-0.05000000074505806,-0.02500000037252903,-0.02500000037252903,-0.02500000037252903,-0.05000000074505806,-0.0005000000237487257,0.05000000074505806,0.02500000037252903,0.02500000037252903,0.02500000037252903,0.05000000074505806,0.0005000000237487257,-0.049395884474532074,-2.2633043462514966,0.22225184920385269,0.14,0.0,0.26,-0.06020717695355415,-0.0009236389305442572,0.3564993143081665,0.0,0.0
0.0,48.0,0.0,-0.025,0.0,0.0,0.0,0.0,0.015339807607233524,-1.5709999799728394,1.0109710693359375,-1.3537670373916626,-0.0715857669711113,0.0,0.015339807607233524,-1.571,1.0109710693359375,-1.3537670373916626,-0.0715857669711113,0.003,0.0,0.0,0.0,0.0,0.0,0.0,-3.1,3.1,-1.571,1.571,-1.571,1.571,-1.745,1.745,-2.617,2.617,0.003,0.03,-0.05000000074505806,-0.02500000037252903,-0.02500000037252903,-0.02500000037252903,-0.05000000074505806,-0.0005000000237487257,0.05000000074505806,0.02500000037252903,0.02500000037252903,0.02500000037252903,0.05000000074505806,0.0005000000237487257,-0.049395884474532074,-2.3127002307260285,0.22225184920385269,0.14,0.0,0.26,-0.06020717695355415,-0.0009236389305442572,0.3564993143081665,0.0,0.0
0.0,49.0,0.0,-0.025,0.0,0.0,0.0,0.0,0.015339807607233524,-1.5709999799728394,1.0109710693359375,-1.3537670373916626,-0.0715857669711113,0.0,0.015339807607233524,-1.571,1.0109710693359375,-1.3537670373916626,-0.0715857669711113,0.003,0.0,0.0,0.0,0.0,0.0,0.0,-3.1,3.1,-1.571,1.571,-1.571,1.571,-1.745,1.745,-2.617,2.617,0.003,0.03,-0.05000000074505806,-0.02500000037252903,-0.02500000037252903,-0.02500000037252903,-0.05000000074505806,-0.0005000000237487257,0.05000000074505806,0.02500000037252903,0.02500000037252903,0.02500000037252903,0.05000000074505806,0.0005000000237487257,-0.049395884474532074,-2.3620961152005604,0.22225184920385269,0.14,0.0,0.26,-0.06020717695355415,-0.0009236389305442572,0.3564993143081665,0.0,0.0
0.0,50.0,0.0,-0.025,0.0,0.0,0.0,0.0,0.015339807607233524,-1.5709999799728394,1.0109710693359375,-1.3537670373916626,-0.0715857669711113,0.0,0.015339807607233524,-1.571,1.0109710693359375,-1.3537670373916626,-0.0715857669711113,0.003,0.0,0.0,0.0,0.0,0.0,0.0,-3.1,3.1,-1.571,1.571,-1.571,1.571,-1.745,1.745,-2.617,2.617,0.003,0.03,-0.05000000074505806,-0.02500000037252903,-0.02500000037252903,-0.02500000037252903,-0.05000000074505806,-0.0005000000237487257,0.05000000074505806,0.02500000037252903,0.02500000037252903,0.02500000037252903,0.05000000074505806,0.0005000000237487257,-0.049395884474532074,-2.4114919996750923,0.22225184920385269,0.14,0.0,0.26,-0.06020717695355415,-0.0009236389305442572,0.3564993143081665,0.0,0.0
0.0,51.0,0.0,-0.025,0.0,0.0,0.0,0.0,0.015339807607233524,-1.5709999799728394,1.0109710693359375,-1.3537670373916626,-0.0715857669711113,0.0,0.015339807607233524,-1.571,1.0109710693359375,-1.3537670373916626,-0.0715857669711113,0.003,0.0,0.0,0.0,0.0,0.0,0.0,-3.1,3.1,-1.571,1.571,-1.571,1.571,-1.745,1.745,-2.617,2.617,0.003,0.03,-0.05000000074505806,-0.02500000037252903,-0.02500000037252903,-0.02500000037252903,-0.05000000074505806,-0.0005000000237487257,0.05000000074505806,0.02500000037252903,0.02500000037252903,0.02500000037252903,0.05000000074505806,0.0005000000237487257,-0.049395884474532074,-2.4608878841496242,0.22225184920385269,0.14,0.0,0.26,-0.06020717695355415,-0.0009236389305442572,0.3564993143081665,0.0,0.0
0.0,52.0,0.0,-0.025,0.0,0.0,0.0,0.0,0.015339807607233524,-1.5709999799728394,1.0109710693359375,-1.3537670373916626,-0.0715857669711113,0.0,0.015339807607233524,-1.571,1.0109710693359375,-1.3537670373916626,-0.0715857669711113,0.003,0.0,0.0,0.0,0.0,0.0,0.0,-3.1,3.1,-1.571,1.571,-1.571,1.571,-1.745,1.745,-2.617,2.617,0.003,0.03,-0.05000000074505806,-0.02500000037252903,-0.02500000037252903,-0.02500000037252903,-0.05000000074505806,-0.0005000000237487257,0.05000000074505806,0.02500000037252903,0.02500000037252903,0.02500000037252903,0.05000000074505806,0.0005000000237487257,-0.049395884474532074,-2.510283768624156,0.22225184920385269,0.14,0.0,0.26,-0.06020717695355415,-0.0009236389305442572,0.3564993143081665,0.0,0.0
0.0,53.0,0.0,-0.025,0.0,0.0,0.0,0.0,0.015339807607233524,-1.5709999799728394,1.0109710693359375,-1.3537670373916626,-0.0715857669711113,0.0,0.015339807607233524,-1.571,1.0109710693359375,-1.3537670373916626,-0.0715857669711113,0.003,0.0,0.0,0.0,0.0,0.0,0.0,-3.1,3.1,-1.571,1.571,-1.571,1.571,-1.745,1.745,-2.617,2.617,0.003,0.03,-0.05000000074505806,-0.02500000037252903,-0.02500000037252903,-0.02500000037252903,-0.05000000074505806,-0.0005000000237487257,0.05000000074505806,0.02500000037252903,0.02500000037252903,0.02500000037252903,0.05000000074505806,0.0005000000237487257,-0.049395884474532074,-2.559679653098688,0.22225184920385269,0.14,0.0,0.26,-0.06020717695355415,-0.0009236389305442572,0.3564993143081665,0.0,0.0
0.0,54.0,0.0,-0.025,0.0,0.0,0.0,0.0,0.015339807607233524,-1.5709999799728394,1.0109710693359375,-1.3537670373916626,-0.0715857669711113,0.0,0.015339807607233524,-1.571,1.0109710693359375,-1.3537670373916626,-0.0715857669711113,0.003,0.0,0.0,0.0,0.0,0.0,0.0,-3.1,3.1,-1.571,1.571,-1.571,1.571,-1.745,1.745,-2.617,2.617,0.003,0.03,-0.05000000074505806,-0.02500000037252903,-0.02500000037252903,-0.02500000037252903,-0.05000000074505806,-0.0005000000237487257,0.05000000074505806,0.02500000037252903,0.02500000037252903,0.02500000037252903,0.05000000074505806,0.0005000000237487257,-0.049395884474532074,-2.60907553757322,0.22225184920385269,0.14,0.0,0.26,-0.06020717695355415,-0.0009236389305442572,0.3564993143081665,0.0,0.0
0.0,55.0,0.0,-0.025,0.0,0.0,0.0,0.0,0.015339807607233524,-1.5709999799728394,1.0109710693359375,-1.3537670373916626,-0.0715857669711113,0.0,0.015339807607233524,-1.571,1.0109710693359375,-1.3537670373916626,-0.0715857669711113,0.003,0.0,0.0,0.0,0.0,0.0,0.0,-3.1,3.1,-1.571,1.571,-1.571,1.571,-1.745,1.745,-2.617,2.617,0.003,0.03,-0.05000000074505806,-0.02500000037252903,-0.02500000037252903,-0.02500000037252903,-0.05000000074505806,-0.0005000000237487257,0.05000000074505806,0.02500000037252903,0.02500000037252903,0.02500000037252903,0.05000000074505806,0.0005000000237487257,-0.049395884474532074,-2.658471422047752,0.22225184920385269,0.14,0.0,0.26,-0.06020717695355415,-0.0009236389305442572,0.3564993143081665,0.0,0.0
0.0,56.0,0.0,-0.025,0.0,0.0,0.0,0.0,0.015339807607233524,-1.5709999799728394,1.0109710693359375,-1.3537670373916626,-0.0715857669711113,0.0,0.015339807607233524,-1.571,1.0109710693359375,-1.3537670373916626,-0.0715857669711113,0.003,0.0,0.0,0.0,0.0,0.0,0.0,-3.1,3.1,-1.571,1.571,-1.571,1.571,-1.745,1.745,-2.617,2.617,0.003,0.03,-0.05000000074505806,-0.02500000037252903,-0.02500000037252903,-0.02500000037252903,-0.05000000074505806,-0.0005000000237487257,0.05000000074505806,0.02500000037252903,0.02500000037252903,0.02500000037252903,0.05000000074505806,0.0005000000237487257,-0.049395884474532074,-2.707867306522284,0.22225184920385269,0.14,0.0,0.26,-0.06020717695355415,-0.0009236389305442572,0.3564993143081665,0.0,0.0
0.0,57.0,0.0,-0.025,0.0,0.0,0.0,0.0,0.015339807607233524,-1.5709999799728394,1.0109710693359375,-1.3537670373916626,-0.0715857669711113,0.0,0.015339807607233524,-1.571,1.0109710693359375,-1.3537670373916626,-0.0715857669711113,0.003,0.0,0.0,0.0,0.0,0.0,0.0,-3.1,3.1,-1.571,1.571,-1.571,1.571,-1.745,1.745,-2.617,2.617,0.003,0.03,-0.05000000074505806,-0.02500000037252903,-0.02500000037252903,-0.02500000037252903,-0.05000000074505806,-0.0005000000237487257,0.05000000074505806,0.02500000037252903,0.02500000037252903,0.02500000037252903,0.05000000074505806,0.0005000000237487257,-0.049395884474532074,-2.7572631909968157,0.22225184920385269,0.14,0.0,0.26,-0.06020717695355415,-0.0009236389305442572,0.3564993143081665,0.0,0.0
0.0,58.0,0.0,-0.025,0.0,0.0,0.0,0.0,0.015339807607233524,-1.5709999799728394,1.0109710693359375,-1.3537670373916626,-0.0715857669711113,0.0,0.015339807607233524,-1.571,1.0109710693359375,-1.3537670373916626,-0.0715857669711113,0.003,0.0,0.0,0.0,0.0,0.0,0.0,-3.1,3.1,-1.571,1.571,-1.571,1.571,-1.745,1.745,-2.617,2.617,0.003,0.03,-0.05000000074505806,-0.02500000037252903,-0.02500000037252903,-0.02500000037252903,-0.05000000074505806,-0.0005000000237487257,0.05000000074505806,0.02500000037252903,0.02500000037252903,0.02500000037252903,0.05000000074505806,0.0005000000237487257,-0.049395884474532074,-2.8066590754713476,0.22225184920385269,0.14,0.0,0.26,-0.06020717695355415,-0.0009236389305442572,0.3564993143081665,0.0,0.0
0.0,59.0,0.0,-0.025,0.0,0.0,0.0,0.0,0.015339807607233524,-1.5709999799728394,1.0109710693359375,-1.3537670373916626,-0.0715857669711113,0.0,0.015339807607233524,-1.571,1.0109710693359375,-1.3537670373916626,-0.0715857669711113,0.003,0.0,0.0,0.0,0.0,0.0,0.0,-3.1,3.1,-1.571,1.571,-1.571,1.571,-1.745,1.745,-2.617,2.617,0.003,0.03,-0.05000000074505806,-0.02500000037252903,-0.02500000037252903,-0.02500000037252903,-0.05000000074505806,-0.0005000000237487257,0.05000000074505806,0.02500000037252903,0.02500000037252903,0.02500000037252903,0.05000000074505806,0.0005000000237487257,-0.049395884474532074,-2.8560549599458795,0.22225184920385269,0.14,0.0,0.26,-0.06020717695355415,-0.0009236389305442572,0.3564993143081665,0.0,0.0
0.0,60.0,0.0,-0.025,0.0,0.0,0.0,0.0,0.015339807607233524,-1.5709999799728394,1.0109710693359375,-1.3537670373916626,-0.0715857669711113,0.0,0.015339807607233524,-1.571,1.0109710693359375,-1.3537670373916626,-0.0715857669711113,0.003,0.0,0.0,0.0,0.0,0.0,0.0,-3.1,3.1,-1.571,1.571,-1.571,1.571,-1.745,1.745,-2.617,2.617,0.003,0.03,-0.05000000074505806,-0.02500000037252903,-0.02500000037252903,-0.02500000037252903,-0.05000000074505806,-0.0005000000237487257,0.05000000074505806,0.02500000037252903,0.02500000037252903,0.02500000037252903,0.05000000074505806,0.0005000000237487257,-0.049395884474532074,-2.9054508444204115,0.22225184920385269,0.14,0.0,0.26,-0.06020717695355415,-0.0009236389305442572,0.3564993143081665,0.0,0.0
0.0,61.0,0.0,-0.025,0.0,0.0,0.0,0.0,0.015339807607233524,-1.5709999799728394,1.0109710693359375,-1.3537670373916626,-0.0715857669711113,0.0,0.015339807607233524,-1.571,1.0109710693359375,-1.3537670373916626,-0.0715857669711113,0.003,0.0,0.0,0.0,0.0,0.0,0.0,-3.1,3.1,-1.571,1.571,-1.571,1.571,-1.745,1.745,-2.617,2.617,0.003,0.03,-0.05000000074505806,-0.02500000037252903,-0.02500000037252903,-0.02500000037252903,-0.05000000074505806,-0.0005000000237487257,0.05000000074505806,0.02500000037252903,0.02500000037252903,0.02500000037252903,0.05000000074505806,0.0005000000237487257,-0.049395884474532074,-2.9548467288949434,0.22225184920385269,0.14,0.0,0.26,-0.06020717695355415,-0.0009236389305442572,0.3564993143081665,0.0,0.0
0.0,62.0,0.0,-0.025,0.0,0.0,0.0,0.0,0.015339807607233524,-1.5709999799728394,1.0109710693359375,-1.3537670373916626,-0.0715857669711113,0.0,0.015339807607233524,-1.571,1.0109710693359375,-1.3537670373916626,-0.0715857669711113,0.003,0.0,0.0,0.0,0.0,0.0,0.0,-3.1,3.1,-1.571,1.571,-1.571,1.571,-1.745,1.745,-2.617,2.617,0.003,0.03,-0.05000000074505806,-0.02500000037252903,-0.02500000037252903,-0.02500000037252903,-0.05000000074505806,-0.0005000000237487257,0.05000000074505806,0.02500000037252903,0.02500000037252903,0.02500000037252903,0.05000000074505806,0.0005000000237487257,-0.049395884474532074,-3.0042426133694753,0.22225184920385269,0.14,0.0,0.26,-0.06020717695355415,-0.0009236389305442572,0.3564993143081665,0.0,0.0
0.0,63.0,0.0,-0.025,0.0,0.0,0.0,0.0,0.015339807607233524,-1.5709999799728394,1.0109710693359375,-1.3537670373916626,-0.0715857669711113,0.0,0.015339807607233524,-1.571,1.0109710693359375,-1.3537670373916626,-0.0715857669711113,0.003,0.0,0.0,0.0,0.0,0.0,0.0,-3.1,3.1,-1.571,1.571,-1.571,1.571,-1.745,1.745,-2.617,2.617,0.003,0.03,-0.05000000074505806,-0.02500000037252903,-0.02500000037252903,-0.02500000037252903,-0.05000000074505806,-0.0005000000237487257,0.05000000074505806,0.02500000037252903,0.02500000037252903,0.02500000037252903,0.05000000074505806,0.0005000000237487257,-0.049395884474532074,-3.053638497844007,0.22225184920385269,0.14,0.0,0.26,-0.06020717695355415,-0.0009236389305442572,0.3564993143081665,0.0,0.0
0.0,64.0,0.0,-0.025,0.0,0.0,0.0,0.0,0.015339807607233524,-1.5709999799728394,1.0109710693359375,-1.3537670373916626,-0.0715857669711113,0.0,0.015339807607233524,-1.571,1.0109710693359375,-1.3537670373916626,-0.0715857669711113,0.003,0.0,0.0,0.0,0.0,0.0,0.0,-3.1,3.1,-1.571,1.571,-1.571,1.571,-1.745,1.745,-2.617,2.617,0.003,0.03,-0.05000000074505806,-0.02500000037252903,-0.02500000037252903,-0.02500000037252903,-0.05000000074505806,-0.0005000000237487257,0.05000000074505806,0.02500000037252903,0.02500000037252903,0.02500000037252903,0.05000000074505806,0.0005000000237487257,-0.049395884474532074,-3.103034382318539,0.22225184920385269,0.14,0.0,0.26,-0.06020717695355415,-0.0009236389305442572,0.3564993143081665,0.0,0.0
0.0,65.0,0.0,-0.025,0.0,0.0,0.0,0.0,0.015339807607233524,-1.5709999799728394,1.0109710693359375,-1.3537670373916626,-0.0715857669711113,0.0,0.015339807607233524,-1.571,1.0109710693359375,-1.3537670373916626,-0.0715857669711113,0.003,0.0,0.0,0.0,0.0,0.0,0.0,-3.1,3.1,-1.571,1.571,-1.571,1.571,-1.745,1.745,-2.617,2.617,0.003,0.03,-0.05000000074505806,-0.02500000037252903,-0.02500000037252903,-0.02500000037252903,-0.05000000074505806,-0.0005000000237487257,0.05000000074505806,0.02500000037252903,0.02500000037252903,0.02500000037252903,0.05000000074505806,0.0005000000237487257,-0.049395884474532074,-3.152430266793071,0.22225184920385269,0.14,0.0,0.26,-0.06020717695355415,-0.0009236389305442572,0.3564993143081665,0.0,0.0
0.0,66.0,0.0,-0.025,0.0,0.0,0.0,0.0,0.015339807607233524,-1.5709999799728394,1.0109710693359375,-1.3537670373916626,-0.0715857669711113,0.0,0.015339807607233524,-1.571,1.0109710693359375,-1.3537670373916626,-0.0715857669711113,0.003,0.0,0.0,0.0,0.0,0.0,0.0,-3.1,3.1,-1.571,1.571,-1.571,1.571,-1.745,1.745,-2.617,2.617,0.003,0.03,-0.05000000074505806,-0.02500000037252903,-0.02500000037252903,-0.02500000037252903,-0.05000000074505806,-0.0005000000237487257,0.05000000074505806,0.02500000037252903,0.02500000037252903,0.02500000037252903,0.05000000074505806,0.0005000000237487257,-0.049395884474532074,-3.201826151267603,0.22225184920385269,0.14,0.0,0.26,-0.06020717695355415,-0.0009236389305442572,0.3564993143081665,0.0,0.0
0.0,67.0,0.0,-0.025,0.0,0.0,0.0,0.0,0.015339807607233524,-1.5709999799728394,1.0109710693359375,-1.3537670373916626,-0.0715857669711113,0.0,0.015339807607233524,-1.571,1.0109710693359375,-1.3537670373916626,-0.0715857669711113,0.003,0.0,0.0,0.0,0.0,0.0,0.0,-3.1,3.1,-1.571,1.571,-1.571,1.571,-1.745,1.745,-2.617,2.617,0.003,0.03,-0.05000000074505806,-0.02500000037252903,-0.02500000037252903,-0.02500000037252903,-0.05000000074505806,-0.0005000000237487257,0.05000000074505806,0.02500000037252903,0.02500000037252903,0.02500000037252903,0.05000000074505806,0.0005000000237487257,-0.049395884474532074,-3.251222035742135,0.22225184920385269,0.14,0.0,0.26,-0.06020717695355415,-0.0009236389305442572,0.3564993143081665,0.0,0.0
0.0,68.0,0.0,-0.025,0.0,0.0,0.0,0.0,0.015339807607233524,-1.5709999799728394,1.0109710693359375,-1.3537670373916626,-0.0715857669711113,0.0,0.015339807607233524,-1.571,1.0109710693359375,-1.3537670373916626,-0.0715857669711113,0.003,0.0,0.0,0.0,0.0,0.0,0.0,-3.1,3.1,-1.571,1.571,-1.571,1.571,-1.745,1.745,-2.617,2.617,0.003,0.03,-0.05000000074505806,-0.02500000037252903,-0.02500000037252903,-0.02500000037252903,-0.05000000074505806,-0.0005000000237487257,0.05000000074505806,0.02500000037252903,0.02500000037252903,0.02500000037252903,0.05000000074505806,0.0005000000237487257,-0.049395884474532074,-3.300617920216667,0.22225184920385269,0.14,0.0,0.26,-0.06020717695355415,-0.0009236389305442572,0.3564993143081665,0.0,0.0
0.0,69.0,0.0,-0.025,0.0,0.0,0.0,0.0,0.015339807607233524,-1.5709999799728394,1.0109710693359375,-1.3537670373916626,-0.0715857669711113,0.0,0.015339807607233524,-1.571,1.0109710693359375,-1.3537670373916626,-0.0715857669711113,0.003,0.0,0.0,0.0,0.0,0.0,0.0,-3.1,3.1,-1.571,1.571,-1.571,1.571,-1.745,1.745,-2.617,2.617,0.003,0.03,-0.05000000074505806,-0.02500000037252903,-0.02500000037252903,-0.02500000037252903,-0.05000000074505806,-0.0005000000237487257,0.05000000074505806,0.02500000037252903,0.02500000037252903,0.02500000037252903,0.05000000074505806,0.0005000000237487257,-0.049395884474532074,-3.3500138046911987,0.22225184920385269,0.14,0.0,0.26,-0.06020717695355415,-0.0009236389305442572,0.3564993143081665,0.0,0.0
0.0,70.0,0.0,-0.025,0.0,0.0,0.0,0.0,0.015339807607233524,-1.5709999799728394,1.0109710693359375,-1.3537670373916626,-0.0715857669711113,0.0,0.015339807607233524,-1.571,1.0109710693359375,-1.3537670373916626,-0.0715857669711113,0.003,0.0,0.0,0.0,0.0,0.0,0.0,-3.1,3.1,-1.571,1.571,-1.571,1.571,-1.745,1.745,-2.617,2.617,0.003,0.03,-0.05000000074505806,-0.02500000037252903,-0.02500000037252903,-0.02500000037252903,-0.05000000074505806,-0.0005000000237487257,0.05000000074505806,0.02500000037252903,0.02500000037252903,0.02500000037252903,0.05000000074505806,0.0005000000237487257,-0.049395884474532074,-3.3994096891657306,0.22225184920385269,0.14,0.0,0.26,-0.06020717695355415,-0.0009236389305442572,0.3564993143081665,0.0,0.0
0.0,71.0,0.0,-0.025,0.0,0.0,0.0,0.0,0.015339807607233524,-1.5709999799728394,1.0109710693359375,-1.3537670373916626,-0.0715857669711113,0.0,0.015339807607233524,-1.571,1.0109710693359375,-1.3537670373916626,-0.0715857669711113,0.003,0.0,0.0,0.0,0.0,0.0,0.0,-3.1,3.1,-1.571,1.571,-1.571,1.571,-1.745,1.745,-2.617,2.617,0.003,0.03,-0.05000000074505806,-0.02500000037252903,-0.02500000037252903,-0.02500000037252903,-0.05000000074505806,-0.0005000000237487257,0.05000000074505806,0.02500000037252903,0.02500000037252903,0.02500000037252903,0.05000000074505806,0.0005000000237487257,-0.049395884474532074,-3.4488055736402625,0.22225184920385269,0.14,0.0,0.26,-0.06020717695355415,-0.0009236389305442572,0.3564993143081665,0.0,0.0
0.0,72.0,0.0,-0.025,0.0,0.0,0.0,0.0,0.015339807607233524,-1.5709999799728394,1.0109710693359375,-1.3537670373916626,-0.0715857669711113,0.0,0.015339807607233524,-1.571,1.0109710693359375,-1.3537670373916626,-0.0715857669711113,0.003,0.0,0.0,0.0,0.0,0.0,0.0,-3.1,3.1,-1.571,1.571,-1.571,1.571,-1.745,1.745,-2.617,2.617,0.003,0.03,-0.05000000074505806,-0.02500000037252903,-0.02500000037252903,-0.02500000037252903,-0.05000000074505806,-0.0005000000237487257,0.05000000074505806,0.02500000037252903,0.02500000037252903,0.02500000037252903,0.05000000074505806,0.0005000000237487257,-0.049395884474532074,-3.4982014581147944,0.22225184920385269,0.14,0.0,0.26,-0.06020717695355415,-0.0009236389305442572,0.3564993143081665,0.0,0.0
0.0,73.0,0.0,-0.025,0.0,0.0,0.0,0.0,0.015339807607233524,-1.5709999799728394,1.0109710693359375,-1.3537670373916626,-0.0715857669711113,0.0,0.015339807607233524,-1.571,1.0109710693359375,-1.3537670373916626,-0.0715857669711113,0.003,0.0,0.0,0.0,0.0,0.0,0.0,-3.1,3.1,-1.571,1.571,-1.571,1.571,-1.745,1.745,-2.617,2.617,0.003,0.03,-0.05000000074505806,-0.02500000037252903,-0.02500000037252903,-0.02500000037252903,-0.05000000074505806,-0.0005000000237487257,0.05000000074505806,0.02500000037252903,0.02500000037252903,0.02500000037252903,0.05000000074505806,0.0005000000237487257,-0.049395884474532074,-3.5475973425893264,0.22225184920385269,0.14,0.0,0.26,-0.06020717695355415,-0.0009236389305442572,0.3564993143081665,0.0,0.0
0.0,74.0,0.0,-0.025,0.0,0.0,0.0,0.0,0.015339807607233524,-1.5709999799728394,1.0109710693359375,-1.3537670373916626,-0.0715857669711113,0.0,0.015339807607233524,-1.571,1.0109710693359375,-1.3537670373916626,-0.0715857669711113,0.003,0.0,0.0,0.0,0.0,0.0,0.0,-3.1,3.1,-1.571,1.571,-1.571,1.571,-1.745,1.745,-2.617,2.617,0.003,0.03,-0.05000000074505806,-0.02500000037252903,-0.02500000037252903,-0.02500000037252903,-0.05000000074505806,-0.0005000000237487257,0.05000000074505806,0.02500000037252903,0.02500000037252903,0.02500000037252903,0.05000000074505806,0.0005000000237487257,-0.049395884474532074,-3.5969932270638583,0.22225184920385269,0.14,0.0,0.26,-0.06020717695355415,-0.0009236389305442572,0.3564993143081665,0.0,0.0
0.0,75.0,0.0,-0.025,0.0,0.0,0.0,0.0,0.015339807607233524,-1.5709999799728394,1.0109710693359375,-1.3537670373916626,-0.0715857669711113,0.0,0.015339807607233524,-1.571,1.0109710693359375,-1.3537670373916626,-0.0715857669711113,0.003,0.0,0.0,0.0,0.0,0.0,0.0,-3.1,3.1,-1.571,1.571,-1.571,1.571,-1.745,1.745,-2.617,2.617,0.003,0.03,-0.05000000074505806,-0.02500000037252903,-0.02500000037252903,-0.02500000037252903,-0.05000000074505806,-0.0005000000237487257,0.05000000074505806,0.02500000037252903,0.02500000037252903,0.02500000037252903,0.05000000074505806,0.0005000000237487257,-0.049395884474532074,-3.64638911153839,0.22225184920385269,0.14,0.0,0.26,-0.06020717695355415,-0.0009236389305442572,0.3564993143081665,0.0,0.0
0.0,76.0,0.0,-0.025,0.0,0.0,0.0,0.0,0.015339807607233524,-1.5709999799728394,1.0109710693359375,-1.3537670373916626,-0.0715857669711113,0.0,0.015339807607233524,-1.571,1.0109710693359375,-1.3537670373916626,-0.0715857669711113,0.003,0.0,0.0,0.0,0.0,0.0,0.0,-3.1,3.1,-1.571,1.571,-1.571,1.571,-1.745,1.745,-2.617,2.617,0.003,0.03,-0.05000000074505806,-0.02500000037252903,-0.02500000037252903,-0.02500000037252903,-0.05000000074505806,-0.0005000000237487257,0.05000000074505806,0.02500000037252903,0.02500000037252903,0.02500000037252903,0.05000000074505806,0.0005000000237487257,-0.049395884474532074,-3.695784996012922,0.22225184920385269,0.14,0.0,0.26,-0.06020717695355415,-0.0009236389305442572,0.3564993143081665,0.0,0.0
0.0,77.0,0.0,-0.025,0.0,0.0,0.0,0.0,0.015339807607233524,-1.5709999799728394,1.0109710693359375,-1.3537670373916626,-0.0715857669711113,0.0,0.015339807607233524,-1.571,1.0109710693359375,-1.3537670373916626,-0.0715857669711113,0.003,0.0,0.0,0.0,0.0,0.0,0.0,-3.1,3.1,-1.571,1.571,-1.571,1.571,-1.745,1.745,-2.617,2.617,0.003,0.03,-0.05000000074505806,-0.02500000037252903,-0.02500000037252903,-0.02500000037252903,-0.05000000074505806,-0.0005000000237487257,0.05000000074505806,0.02500000037252903,0.02500000037252903,0.02500000037252903,0.05000000074505806,0.0005000000237487257,-0.049395884474532074,-3.745180880487454,0.22225184920385269,0.14,0.0,0.26,-0.06020717695355415,-0.0009236389305442572,0.3564993143081665,0.0,0.0
0.0,78.0,0.0,-0.025,0.0,0.0,0.0,0.0,0.015339807607233524,-1.5709999799728394,1.0109710693359375,-1.3537670373916626,-0.0715857669711113,0.0,0.015339807607233524,-1.571,1.0109710693359375,-1.3537670373916626,-0.0715857669711113,0.003,0.0,0.0,0.0,0.0,0.0,0.0,-3.1,3.1,-1.571,1.571,-1.571,1.571,-1.745,1.745,-2.617,2.617,0.003,0.03,-0.05000000074505806,-0.02500000037252903,-0.02500000037252903,-0.02500000037252903,-0.05000000074505806,-0.0005000000237487257,0.05000000074505806,0.02500000037252903,0.02500000037252903,0.02500000037252903,0.05000000074505806,0.0005000000237487257,-0.049395884474532074,-3.794576764961986,0.22225184920385269,0.14,0.0,0.26,-0.06020717695355415,-0.0009236389305442572,0.3564993143081665,0.0,0.0
0.0,79.0,0.0,-0.025,0.0,0.0,0.0,0.0,0.015339807607233524,-1.5709999799728394,1.0109710693359375,-1.3537670373916626,-0.0715857669711113,0.0,0.015339807607233524,-1.571,1.0109710693359375,-1.3537670373916626,-0.0715857669711113,0.003,0.0,0.0,0.0,0.0,0.0,0.0,-3.1,3.1,-1.571,1.571,-1.571,1.571,-1.745,1.745,-2.617,2.617,0.003,0.03,-0.05000000074505806,-0.02500000037252903,-0.02500000037252903,-0.02500000037252903,-0.05000000074505806,-0.0005000000237487257,0.05000000074505806,0.02500000037252903,0.02500000037252903,0.02500000037252903,0.05000000074505806,0.0005000000237487257,-0.049395884474532074,-3.843972649436518,0.22225184920385269,0.14,0.0,0.26,-0.06020717695355415,-0.0009236389305442572,0.3564993143081665,0.0,0.0
0.0,80.0,0.0,-0.025,0.0,0.0,0.0,0.0,0.015339807607233524,-1.5709999799728394,1.0109710693359375,-1.3537670373916626,-0.0715857669711113,0.0,0.015339807607233524,-1.571,1.0109710693359375,-1.3537670373916626,-0.0715857669711113,0.003,0.0,0.0,0.0,0.0,0.0,0.0,-3.1,3.1,-1.571,1.571,-1.571,1.571,-1.745,1.745,-2.617,2.617,0.003,0.03,-0.05000000074505806,-0.02500000037252903,-0.02500000037252903,-0.02500000037252903,-0.05000000074505806,-0.0005000000237487257,0.05000000074505806,0.02500000037252903,0.02500000037252903,0.02500000037252903,0.05000000074505806,0.0005000000237487257,-0.049395884474532074,-3.8933685339110498,0.22225184920385269,0.14,0.0,0.26,-0.06020717695355415,-0.0009236389305442572,0.3564993143081665,0.0,0.0
0.0,81.0,0.0,-0.025,0.0,0.0,0.0,0.0,0.015339807607233524,-1.5709999799728394,1.0109710693359375,-1.3537670373916626,-0.0715857669711113,0.0,0.015339807607233524,-1.571,1.0109710693359375,-1.3537670373916626,-0.0715857669711113,0.003,0.0,0.0,0.0,0.0,0.0,0.0,-3.1,3.1,-1.571,1.571,-1.571,1.571,-1.745,1.745,-2.617,2.617,0.003,0.03,-0.05000000074505806,-0.02500000037252903,-0.02500000037252903,-0.02500000037252903,-0.05000000074505806,-0.0005000000237487257,0.05000000074505806,0.02500000037252903,0.02500000037252903,0.02500000037252903,0.05000000074505806,0.0005000000237487257,-0.049395884474532074,-3.9427644183855817,0.22225184920385269,0.14,0.0,0.26,-0.06020717695355415,-0.0009236389305442572,0.3564993143081665,0.0,0.0
0.0,82.0,0.0,-0.025,0.0,0.0,0.0,0.0,0.015339807607233524,-1.5709999799728394,1.0109710693359375,-1.3537670373916626,-0.0715857669711113,0.0,0.015339807607233524,-1.571,1.0109710693359375,-1.3537670373916626,-0.0715857669711113,0.003,0.0,0.0,0.0,0.0,0.0,0.0,-3.1,3.1,-1.571,1.571,-1.571,1.571,-1.745,1.745,-2.617,2.617,0.003,0.03,-0.05000000074505806,-0.02500000037252903,-0.02500000037252903,-0.02500000037252903,-0.05000000074505806,-0.0005000000237487257,0.05000000074505806,0.02500000037252903,0.02500000037252903,0.02500000037252903,0.05000000074505806,0.0005000000237487257,-0.049395884474532074,-3.9921603028601136,0.22225184920385269,0.14,0.0,0.26,-0.06020717695355415,-0.0009236389305442572,0.3564993143081665,0.0,0.0
0.0,83.0,0.0,-0.025,0.0,0.0,0.0,0.0,0.015339807607233524,-1.5709999799728394,1.0109710693359375,-1.3537670373916626,-0.0715857669711113,0.0,0.015339807607233524,-1.571,1.0109710693359375,-1.3537670373916626,-0.0715857669711113,0.003,0.0,0.0,0.0,0.0,0.0,0.0,-3.1,3.1,-1.571,1.571,-1.571,1.571,-1.745,1.745,-2.617,2.617,0.003,0.03,-0.05000000074505806,-0.02500000037252903,-0.02500000037252903,-0.02500000037252903,-0.05000000074505806,-0.0005000000237487257,0.05000000074505806,0.02500000037252903,0.02500000037252903,0.02500000037252903,0.05000000074505806,0.0005000000237487257,-0.049395884474532074,-4.0415561873346455,0.22225184920385269,0.14,0.0,0.26,-0.06020717695355415,-0.0009236389305442572,0.3564993143081665,0.0,0.0
0.0,84.0,0.0,-0.025,0.0,0.0,0.0,0.0,0.015339807607233524,-1.5709999799728394,1.0109710693359375,-1.3537670373916626,-0.0715857669711113,0.0,0.015339807607233524,-1.571,1.0109710693359375,-1.3537670373916626,-0.0715857669711113,0.003,0.0,0.0,0.0,0.0,0.0,0.0,-3.1,3.1,-1.571,1.571,-1.571,1.571,-1.745,1.745,-2.617,2.617,0.003,0.03,-0.05000000074505806,-0.02500000037252903,-0.02500000037252903,-0.02500000037252903,-0.05000000074505806,-0.0005000000237487257,0.05000000074505806,0.02500000037252903,0.02500000037252903,0.02500000037252903,0.05000000074505806,0.0005000000237487257,-0.049395884474532074,-4.090952071809178,0.22225184920385269,0.14,0.0,0.26,-0.06020717695355415,-0.0009236389305442572,0.3564993143081665,0.0,0.0
0.0,85.0,0.0,-0.025,0.0,0.0,0.0,0.0,0.015339807607233524,-1.5709999799728394,1.0109710693359375,-1.3537670373916626,-0.0715857669711113,0.0,0.015339807607233524,-1.571,1.0109710693359375,-1.3537670373916626,-0.0715857669711113,0.003,0.0,0.0,0.0,0.0,0.0,0.0,-3.1,3.1,-1.571,1.571,-1.571,1.571,-1.745,1.745,-2.617,2.617,0.003,0.03,-0.05000000074505806,-0.02500000037252903,-0.02500000037252903,-0.02500000037252903,-0.05000000074505806,-0.0005000000237487257,0.05000000074505806,0.02500000037252903,0.02500000037252903,0.02500000037252903,0.05000000074505806,0.0005000000237487257,-0.049395884474532074,-4.14034795628371,0.22225184920385269,0.14,0.0,0.26,-0.06020717695355415,-0.0009236389305442572,0.3564993143081665,0.0,0.0
0.0,86.0,0.0,-0.025,0.0,0.0,0.0,0.0,0.015339807607233524,-1.5709999799728394,1.0109710693359375,-1.3537670373916626,-0.0715857669711113,0.0,0.015339807607233524,-1.571,1.0109710693359375,-1.3537670373916626,-0.0715857669711113,0.003,0.0,0.0,0.0,0.0,0.0,0.0,-3.1,3.1,-1.571,1.571,-1.571,1.571,-1.745,1.745,-2.617,2.617,0.003,0.03,-0.05000000074505806,-0.02500000037252903,-0.02500000037252903,-0.02500000037252903,-0.05000000074505806,-0.0005000000237487257,0.05000000074505806,0.02500000037252903,0.02500000037252903,0.02500000037252903,0.05000000074505806,0.0005000000237487257,-0.049395884474532074,-4.189743840758243,0.22225184920385269,0.14,0.0,0.26,-0.06020717695355415,-0.0009236389305442572,0.3564993143081665,0.0,0.0
0.0,87.0,0.0,-0.025,0.0,0.0,0.0,0.0,0.015339807607233524,-1.5709999799728394,1.0109710693359375,-1.3537670373916626,-0.0715857669711113,0.0,0.015339807607233524,-1.571,1.0109710693359375,-1.3537670373916626,-0.0715857669711113,0.003,0.0,0.0,0.0,0.0,0.0,0.0,-3.1,3.1,-1.571,1.571,-1.571,1.571,-1.745,1.745,-2.617,2.617,0.003,0.03,-0.05000000074505806,-0.02500000037252903,-0.02500000037252903,-0.02500000037252903,-0.05000000074505806,-0.0005000000237487257,0.05000000074505806,0.02500000037252903,0.02500000037252903,0.02500000037252903,0.05000000074505806,0.0005000000237487257,-0.049395884474532074,-4.239139725232775,0.22225184920385269,0.14,0.0,0.26,-0.06020717695355415,-0.0009236389305442572,0.3564993143081665,0.0,0.0
0.0,88.0,0.0,-0.025,0.0,0.0,0.0,0.0,0.015339807607233524,-1.5709999799728394,1.0109710693359375,-1.3537670373916626,-0.0715857669711113,0.0,0.015339807607233524,-1.571,1.0109710693359375,-1.3537670373916626,-0.0715857669711113,0.003,0.0,0.0,0.0,0.0,0.0,0.0,-3.1,3.1,-1.571,1.571,-1.571,1.571,-1.745,1.745,-2.617,2.617,0.003,0.03,-0.05000000074505806,-0.02500000037252903,-0.02500000037252903,-0.02500000037252903,-0.05000000074505806,-0.0005000000237487257,0.05000000074505806,0.02500000037252903,0.02500000037252903,0.02500000037252903,0.05000000074505806,0.0005000000237487257,-0.049395884474532074,-4.288535609707307,0.22225184920385269,0.14,0.0,0.26,-0.06020717695355415,-0.0009236389305442572,0.3564993143081665,0.0,0.0
0.0,89.0,0.0,-0.025,0.0,0.0,0.0,0.0,0.015339807607233524,-1.5709999799728394,1.0109710693359375,-1.3537670373916626,-0.0715857669711113,0.0,0.015339807607233524,-1.571,1.0109710693359375,-1.3537670373916626,-0.0715857669711113,0.003,0.0,0.0,0.0,0.0,0.0,0.0,-3.1,3.1,-1.571,1.571,-1.571,1.571,-1.745,1.745,-2.617,2.617,0.003,0.03,-0.05000000074505806,-0.02500000037252903,-0.02500000037252903,-0.02500000037252903,-0.05000000074505806,-0.0005000000237487257,0.05000000074505806,0.02500000037252903,0.02500000037252903,0.02500000037252903,0.05000000074505806,0.0005000000237487257,-0.049395884474532074,-4.33793149418184,0.22225184920385269,0.14,0.0,0.26,-0.06020717695355415,-0.0009236389305442572,0.3564993143081665,0.0,0.0
0.0,90.0,0.0,-0.025,0.0,0.0,0.0,0.0,0.015339807607233524,-1.5709999799728394,1.0109710693359375,-1.3537670373916626,-0.0715857669711113,0.0,0.015339807607233524,-1.571,1.0109710693359375,-1.3537670373916626,-0.0715857669711113,0.003,0.0,0.0,0.0,0.0,0.0,0.0,-3.1,3.1,-1.571,1.571,-1.571,1.571,-1.745,1.745,-2.617,2.617,0.003,0.03,-0.05000000074505806,-0.02500000037252903,-0.02500000037252903,-0.02500000037252903,-0.05000000074505806,-0.0005000000237487257,0.05000000074505806,0.02500000037252903,0.02500000037252903,0.02500000037252903,0.05000000074505806,0.0005000000237487257,-0.049395884474532074,-4.387327378656372,0.22225184920385269,0.14,0.0,0.26,-0.06020717695355415,-0.0009236389305442572,0.3564993143081665,0.0,0.0
0.0,91.0,0.0,-0.025,0.0,0.0,0.0,0.0,0.015339807607233524,-1.5709999799728394,1.0109710693359375,-1.3537670373916626,-0.0715857669711113,0.0,0.015339807607233524,-1.571,1.0109710693359375,-1.3537670373916626,-0.0715857669711113,0.003,0.0,0.0,0.0,0.0,0.0,0.0,-3.1,3.1,-1.571,1.571,-1.571,1.571,-1.745,1.745,-2.617,2.617,0.003,0.03,-0.05000000074505806,-0.02500000037252903,-0.02500000037252903,-0.02500000037252903,-0.05000000074505806,-0.0005000000237487257,0.05000000074505806,0.02500000037252903,0.02500000037252903,0.02500000037252903,0.05000000074505806,0.0005000000237487257,-0.049395884474532074,-4.436723263130904,0.22225184920385269,0.14,0.0,0.26,-0.06020717695355415,-0.0009236389305442572,0.3564993143081665,0.0,0.0
0.0,92.0,0.0,-0.025,0.0,0.0,0.0,0.0,0.015339807607233524,-1.5709999799728394,1.0109710693359375,-1.3537670373916626,-0.0715857669711113,0.0,0.015339807607233524,-1.571,1.0109710693359375,-1.3537670373916626,-0.0715857669711113,0.003,0.0,0.0,0.0,0.0,0.0,0.0,-3.1,3.1,-1.571,1.571,-1.571,1.571,-1.745,1.745,-2.617,2.617,0.003,0.03,-0.05000000074505806,-0.02500000037252903,-0.02500000037252903,-0.02500000037252903,-0.05000000074505806,-0.0005000000237487257,0.05000000074505806,0.02500000037252903,0.02500000037252903,0.02500000037252903,0.05000000074505806,0.0005000000237487257,-0.049395884474532074,-4.486119147605437,0.22225184920385269,0.14,0.0,0.26,-0.06020717695355415,-0.0009236389305442572,0.3564993143081665,0.0,0.0
0.0,93.0,0.0,-0.025,0.0,0.0,0.0,0.0,0.015339807607233524,-1.5709999799728394,1.0109710693359375,-1.3537670373916626,-0.0715857669711113,0.0,0.015339807607233524,-1.571,1.0109710693359375,-1.3537670373916626,-0.0715857669711113,0.003,0.0,0.0,0.0,0.0,0.0,0.0,-3.1,3.1,-1.571,1.571,-1.571,1.571,-1.745,1.745,-2.617,2.617,0.003,0.03,-0.05000000074505806,-0.02500000037252903,-0.02500000037252903,-0.02500000037252903,-0.05000000074505806,-0.0005000000237487257,0.05000000074505806,0.02500000037252903,0.02500000037252903,0.02500000037252903,0.05000000074505806,0.0005000000237487257,-0.049395884474532074,-4.535515032079969,0.22225184920385269,0.14,0.0,0.26,-0.06020717695355415,-0.0009236389305442572,0.3564993143081665,0.0,0.0
0.0,94.0,0.0,-0.025,0.0,0.0,0.0,0.0,0.015339807607233524,-1.5709999799728394,1.0109710693359375,-1.3537670373916626,-0.0715857669711113,0.0,0.015339807607233524,-1.571,1.0109710693359375,-1.3537670373916626,-0.0715857669711113,0.003,0.0,0.0,0.0,0.0,0.0,0.0,-3.1,3.1,-1.571,1.571,-1.571,1.571,-1.745,1.745,-2.617,2.617,0.003,0.03,-0.05000000074505806,-0.02500000037252903,-0.02500000037252903,-0.02500000037252903,-0.05000000074505806,-0.0005000000237487257,0.05000000074505806,0.02500000037252903,0.02500000037252903,0.02500000037252903,0.05000000074505806,0.0005000000237487257,-0.049395884474532074,-4.5849109165545014,0.22225184920385269,0.14,0.0,0.26,-0.06020717695355415,-0.0009236389305442572,0.3564993143081665,0.0,0.0
0.0,95.0,0.0,-0.025,0.0,0.0,0.0,0.0,0.015339807607233524,-1.5709999799728394,1.0109710693359375,-1.3537670373916626,-0.0715857669711113,0.0,0.015339807607233524,-1.571,1.0109710693359375,-1.3537670373916626,-0.0715857669711113,0.003,0.0,0.0,0.0,0.0,0.0,0.0,-3.1,3.1,-1.571,1.571,-1.571,1.571,-1.745,1.745,-2.617,2.617,0.003,0.03,-0.05000000074505806,-0.02500000037252903,-0.02500000037252903,-0.02500000037252903,-0.05000000074505806,-0.0005000000237487257,0.05000000074505806,0.02500000037252903,0.02500000037252903,0.02500000037252903,0.05000000074505806,0.0005000000237487257,-0.049395884474532074,-4.634306801029034,0.22225184920385269,0.14,0.0,0.26,-0.06020717695355415,-0.0009236389305442572,0.3564993143081665,0.0,0.0
0.0,96.0,0.0,-0.025,0.0,0.0,0.0,0.0,0.015339807607233524,-1.5709999799728394,1.0109710693359375,-1.3537670373916626,-0.0715857669711113,0.0,0.015339807607233524,-1.571,1.0109710693359375,-1.3537670373916626,-0.0715857669711113,0.003,0.0,0.0,0.0,0.0,0.0,0.0,-3.1,3.1,-1.571,1.571,-1.571,1.571,-1.745,1.745,-2.617,2.617,0.003,0.03,-0.05000000074505806,-0.02500000037252903,-0.02500000037252903,-0.02500000037252903,-0.05000000074505806,-0.0005000000237487257,0.05000000074505806,0.02500000037252903,0.02500000037252903,0.02500000037252903,0.05000000074505806,0.0005000000237487257,-0.049395884474532074,-4.683702685503566,0.22225184920385269,0.14,0.0,0.26,-0.06020717695355415,-0.0009236389305442572,0.3564993143081665,0.0,0.0
0.0,97.0,0.0,-0.025,0.0,0.0,0.0,0.0,0.015339807607233524,-1.5709999799728394,1.0109710693359375,-1.3537670373916626,-0.0715857669711113,0.0,0.015339807607233524,-1.571,1.0109710693359375,-1.3537670373916626,-0.0715857669711113,0.003,0.0,0.0,0.0,0.0,0.0,0.0,-3.1,3.1,-1.571,1.571,-1.571,1.571,-1.745,1.745,-2.617,2.617,0.003,0.03,-0.05000000074505806,-0.02500000037252903,-0.02500000037252903,-0.02500000037252903,-0.05000000074505806,-0.0005000000237487257,0.05000000074505806,0.02500000037252903,0.02500000037252903,0.02500000037252903,0.05000000074505806,0.0005000000237487257,-0.049395884474532074,-4.7330985699780985,0.22225184920385269,0.14,0.0,0.26,-0.06020717695355415,-0.0009236389305442572,0.3564993143081665,0.0,0.0
0.0,98.0,0.0,-0.025,0.0,0.0,0.0,0.0,0.015339807607233524,-1.5709999799728394,1.0109710693359375,-1.3537670373916626,-0.0715857669711113,0.0,0.015339807607233524,-1.571,1.0109710693359375,-1.3537670373916626,-0.0715857669711113,0.003,0.0,0.0,0.0,0.0,0.0,0.0,-3.1,3.1,-1.571,1.571,-1.571,1.571,-1.745,1.745,-2.617,2.617,0.003,0.03,-0.05000000074505806,-0.02500000037252903,-0.02500000037252903,-0.02500000037252903,-0.05000000074505806,-0.0005000000237487257,0.05000000074505806,0.02500000037252903,0.02500000037252903,0.02500000037252903,0.05000000074505806,0.0005000000237487257,-0.049395884474532074,-4.782494454452631,0.22225184920385269,0.14,0.0,0.26,-0.06020717695355415,-0.0009236389305442572,0.3564993143081665,0.0,0.0
0.0,99.0,0.0,-0.025,0.0,0.0,0.0,0.0,0.015339807607233524,-1.5709999799728394,1.0109710693359375,-1.3537670373916626,-0.0715857669711113,0.0,0.015339807607233524,-1.571,1.0109710693359375,-1.3537670373916626,-0.0715857669711113,0.003,0.0,0.0,0.0,0.0,0.0,0.0,-3.1,3.1,-1.571,1.571,-1.571,1.571,-1.745,1.745,-2.617,2.617,0.003,0.03,-0.05000000074505806,-0.02500000037252903,-0.02500000037252903,-0.02500000037252903,-0.05000000074505806,-0.0005000000237487257,0.05000000074505806,0.02500000037252903,0.02500000037252903,0.02500000037252903,0.05000000074505806,0.0005000000237487257,-0.049395884474532074,-4.831890338927163,0.22225184920385269,0.14,0.0,0.26,-0.06020717695355415,-0.0009236389305442572,0.3564993143081665,1.0,0.0
