PierreExeter/WidowX-reacher/tests/Check_env_consistency/logs/9_action3_+0.0025.csv
episode,timestep,action_1,action_2,action_3,action_4,action_5,action_6,current_joint_pos_1,current_joint_pos_2,current_joint_pos_3,current_joint_pos_4,current_joint_pos_5,current_joint_pos_6,new_joint_pos_1,new_joint_pos_2,new_joint_pos_3,new_joint_pos_4,new_joint_pos_5,new_joint_pos_6,joint_vel_1,joint_vel_2,joint_vel_3,joint_vel_4,joint_vel_5,joint_vel_6,joint1_min,joint1_max,joint2_min,joint2_max,joint3_min,joint3_max,joint4_min,joint4_max,joint5_min,joint5_max,joint6_min,joint6_max,action_low1,action_low2,action_low3,action_low4,action_low5,action_low6,action_high1,action_high2,action_high3,action_high4,action_high5,action_high6,reward,return,dist,target_x,target_y,target_z,tip_x,tip_y,tip_z,done,est_vel
0.0,0.0,0.0,0.0,0.025,0.0,0.0,0.0,0.015339807607233524,-1.293145775794983,1.0109710693359375,-1.3537670373916626,-0.0715857669711113,0.0,0.015339807607233524,-1.293145775794983,1.0359710454940796,-1.3537670373916626,-0.0715857669711113,0.003,0.0,0.0,0.0,0.0,0.0,0.0,-3.1,3.1,-1.571,1.571,-1.571,1.571,-1.745,1.745,-2.617,2.617,0.003,0.03,-0.05000000074505806,-0.02500000037252903,-0.02500000037252903,-0.02500000037252903,-0.05000000074505806,-0.0005000000237487257,0.05000000074505806,0.02500000037252903,0.02500000037252903,0.02500000037252903,0.05000000074505806,0.0005000000237487257,-0.027230906899302566,-0.027230906899302566,0.16501789872405528,0.14,0.0,0.26,0.009397088550031185,0.00014416083286050707,0.3608650863170624,0.0,
0.0,1.0,0.0,0.0,0.025,0.0,0.0,0.0,0.015339807607233524,-1.293145775794983,1.0359710454940796,-1.3537670373916626,-0.0715857669711113,0.0,0.015339807607233524,-1.293145775794983,1.0609710216522217,-1.3537670373916626,-0.0715857669711113,0.003,0.0,0.0,0.0,0.0,0.0,0.0,-3.1,3.1,-1.571,1.571,-1.571,1.571,-1.745,1.745,-2.617,2.617,0.003,0.03,-0.05000000074505806,-0.02500000037252903,-0.02500000037252903,-0.02500000037252903,-0.05000000074505806,-0.0005000000237487257,0.05000000074505806,0.02500000037252903,0.02500000037252903,0.02500000037252903,0.05000000074505806,0.0005000000237487257,-0.02560517262833046,-0.05283607952763303,0.1600161636470843,0.14,0.0,0.26,0.013118092902004719,0.00020124480943195522,0.35749930143356323,0.0,-1.2004164184730381
0.0,2.0,0.0,0.0,0.025,0.0,0.0,0.0,0.015339807607233524,-1.293145775794983,1.0609710216522217,-1.3537670373916626,-0.0715857669711113,0.0,0.015339807607233524,-1.293145775794983,1.0859709978103638,-1.3537670373916626,-0.0715857669711113,0.003,0.0,0.0,0.0,0.0,0.0,0.0,-3.1,3.1,-1.571,1.571,-1.571,1.571,-1.745,1.745,-2.617,2.617,0.003,0.03,-0.05000000074505806,-0.02500000037252903,-0.02500000037252903,-0.02500000037252903,-0.05000000074505806,-0.0005000000237487257,0.05000000074505806,0.02500000037252903,0.02500000037252903,0.02500000037252903,0.05000000074505806,0.0005000000237487257,-0.024033502468558825,-0.07686958199619186,0.15502742489172303,0.14,0.0,0.26,0.01675380766391754,0.00025702035054564476,0.35404154658317566,0.0,-1.1972973012867039
0.0,3.0,0.0,0.0,0.025,0.0,0.0,0.0,0.015339807607233524,-1.293145775794983,1.0859709978103638,-1.3537670373916626,-0.0715857669711113,0.0,0.015339807607233524,-1.293145775794983,1.1109709739685059,-1.3537670373916626,-0.0715857669711113,0.003,0.0,0.0,0.0,0.0,0.0,0.0,-3.1,3.1,-1.571,1.571,-1.571,1.571,-1.745,1.745,-2.617,2.617,0.003,0.03,-0.05000000074505806,-0.02500000037252903,-0.02500000037252903,-0.02500000037252903,-0.05000000074505806,-0.0005000000237487257,0.05000000074505806,0.02500000037252903,0.02500000037252903,0.02500000037252903,0.05000000074505806,0.0005000000237487257,-0.02251687495281026,-0.09938645694900211,0.15005623929983805,0.14,0.0,0.26,0.02030196413397789,0.0003114526334684342,0.3504939675331116,0.0,-1.193084542052394
0.0,4.0,0.0,0.0,0.025,0.0,0.0,0.0,0.015339807607233524,-1.293145775794983,1.1109709739685059,-1.3537670373916626,-0.0715857669711113,0.0,0.015339807607233524,-1.293145775794983,1.135970950126648,-1.3537670373916626,-0.0715857669711113,0.003,0.0,0.0,0.0,0.0,0.0,0.0,-3.1,3.1,-1.571,1.571,-1.571,1.571,-1.745,1.745,-2.617,2.617,0.003,0.03,-0.05000000074505806,-0.02500000037252903,-0.02500000037252903,-0.02500000037252903,-0.05000000074505806,-0.0005000000237487257,0.05000000074505806,0.02500000037252903,0.02500000037252903,0.02500000037252903,0.05000000074505806,0.0005000000237487257,-0.021056242208387945,-0.12044269915739006,0.14510769176162905,0.14,0.0,0.26,0.023760341107845306,0.00036450763582251966,0.34685879945755005,0.0,-1.1876514091701607
0.0,5.0,0.0,0.0,0.025,0.0,0.0,0.0,0.015339807607233524,-1.293145775794983,1.135970950126648,-1.3537670373916626,-0.0715857669711113,0.0,0.015339807607233524,-1.293145775794983,1.16097092628479,-1.3537670373916626,-0.0715857669711113,0.003,0.0,0.0,0.0,0.0,0.0,0.0,-3.1,3.1,-1.571,1.571,-1.571,1.571,-1.745,1.745,-2.617,2.617,0.003,0.03,-0.05000000074505806,-0.02500000037252903,-0.02500000037252903,-0.02500000037252903,-0.05000000074505806,-0.0005000000237487257,0.05000000074505806,0.02500000037252903,0.02500000037252903,0.02500000037252903,0.05000000074505806,0.0005000000237487257,-0.019652520547650924,-0.140095219705041,0.14018744789620405,0.14,0.0,0.26,0.027126777917146683,0.0004161522083450109,0.34313833713531494,0.0,-1.180858527702
0.0,6.0,0.0,0.0,0.025,0.0,0.0,0.0,0.015339807607233524,-1.293145775794983,1.16097092628479,-1.3537670373916626,-0.0715857669711113,0.0,0.015339807607233524,-1.293145775794983,1.1859709024429321,-1.3537670373916626,-0.0715857669711113,0.003,0.0,0.0,0.0,0.0,0.0,0.0,-3.1,3.1,-1.571,1.571,-1.571,1.571,-1.745,1.745,-2.617,2.617,0.003,0.03,-0.05000000074505806,-0.02500000037252903,-0.02500000037252903,-0.02500000037252903,-0.05000000074505806,-0.0005000000237487257,0.05000000074505806,0.02500000037252903,0.02500000037252903,0.02500000037252903,0.05000000074505806,0.0005000000237487257,-0.018306576781595765,-0.15840179648663677,0.13530179888529112,0.14,0.0,0.26,0.030399171635508537,0.0004663540457841009,0.3393348455429077,0.0,-1.172555762619103
0.0,7.0,0.0,0.0,0.025,0.0,0.0,0.0,0.015339807607233524,-1.293145775794983,1.1859709024429321,-1.3537670373916626,-0.0715857669711113,0.0,0.015339807607233524,-1.293145775794983,1.2109708786010742,-1.3537670373916626,-0.0715857669711113,0.003,0.0,0.0,0.0,0.0,0.0,0.0,-3.1,3.1,-1.571,1.571,-1.571,1.571,-1.745,1.745,-2.617,2.617,0.003,0.03,-0.05000000074505806,-0.02500000037252903,-0.02500000037252903,-0.02500000037252903,-0.05000000074505806,-0.0005000000237487257,0.05000000074505806,0.02500000037252903,0.02500000037252903,0.02500000037252903,0.05000000074505806,0.0005000000237487257,-0.017019257957412142,-0.1754210544440489,0.13045787809638842,0.14,0.0,0.26,0.033575478941202164,0.0005150817451067269,0.3354507386684418,0.0,-1.1625409893366467
0.0,8.0,0.0,0.0,0.025,0.0,0.0,0.0,0.015339807607233524,-1.293145775794983,1.2109708786010742,-1.3537670373916626,-0.0715857669711113,0.0,0.015339807607233524,-1.293145775794983,1.2359708547592163,-1.3537670373916626,-0.0715857669711113,0.003,0.0,0.0,0.0,0.0,0.0,0.0,-3.1,3.1,-1.571,1.571,-1.571,1.571,-1.745,1.745,-2.617,2.617,0.003,0.03,-0.05000000074505806,-0.02500000037252903,-0.02500000037252903,-0.02500000037252903,-0.05000000074505806,-0.0005000000237487257,0.05000000074505806,0.02500000037252903,0.02500000037252903,0.02500000037252903,0.05000000074505806,0.0005000000237487257,-0.015791367814623994,-0.1912124222586729,0.12566370921878756,0.14,0.0,0.26,0.036653708666563034,0.0005623049801215529,0.3314884305000305,0.0,-1.1506005306242084
0.0,9.0,0.0,0.0,0.025,0.0,0.0,0.0,0.015339807607233524,-1.293145775794983,1.2359708547592163,-1.3537670373916626,-0.0715857669711113,0.0,0.015339807607233524,-1.293145775794983,1.2609708309173584,-1.3537670373916626,-0.0715857669711113,0.003,0.0,0.0,0.0,0.0,0.0,0.0,-3.1,3.1,-1.571,1.571,-1.571,1.571,-1.745,1.745,-2.617,2.617,0.003,0.03,-0.05000000074505806,-0.02500000037252903,-0.02500000037252903,-0.02500000037252903,-0.05000000074505806,-0.0005000000237487257,0.05000000074505806,0.02500000037252903,0.02500000037252903,0.02500000037252903,0.05000000074505806,0.0005000000237487257,-0.014623672027781797,-0.20583609428645472,0.12092837561044883,0.14,0.0,0.26,0.03963194414973259,0.0006079940940253437,0.32745039463043213,0.0,-1.136480066001293
0.0,10.0,0.0,0.0,0.025,0.0,0.0,0.0,0.015339807607233524,-1.293145775794983,1.2609708309173584,-1.3537670373916626,-0.0715857669711113,0.0,0.015339807607233524,-1.293145775794983,1.2859708070755005,-1.3537670373916626,-0.0715857669711113,0.003,0.0,0.0,0.0,0.0,0.0,0.0,-3.1,3.1,-1.571,1.571,-1.571,1.571,-1.745,1.745,-2.617,2.617,0.003,0.03,-0.05000000074505806,-0.02500000037252903,-0.02500000037252903,-0.02500000037252903,-0.05000000074505806,-0.0005000000237487257,0.05000000074505806,0.02500000037252903,0.02500000037252903,0.02500000037252903,0.05000000074505806,0.0005000000237487257,-0.013516906625575354,-0.21935300091203008,0.11626223215462257,0.14,0.0,0.26,0.0425083190202713,0.0006521205650642514,0.32333919405937195,0.0,-1.1198744293983032
0.0,11.0,0.0,0.0,0.025,0.0,0.0,0.0,0.015339807607233524,-1.293145775794983,1.2859708070755005,-1.3537670373916626,-0.0715857669711113,0.0,0.015339807607233524,-1.293145775794983,1.3109707832336426,-1.3537670373916626,-0.0715857669711113,0.003,0.0,0.0,0.0,0.0,0.0,0.0,-3.1,3.1,-1.571,1.571,-1.571,1.571,-1.745,1.745,-2.617,2.617,0.003,0.03,-0.05000000074505806,-0.02500000037252903,-0.02500000037252903,-0.02500000037252903,-0.05000000074505806,-0.0005000000237487257,0.05000000074505806,0.02500000037252903,0.02500000037252903,0.02500000037252903,0.05000000074505806,0.0005000000237487257,-0.012471754320532411,-0.2318247552325625,0.11167700891648384,0.14,0.0,0.26,0.04528103768825531,0.0006946569192223251,0.31915733218193054,0.0,-1.1004535771532953
0.0,12.0,0.0,0.0,0.025,0.0,0.0,0.0,0.015339807607233524,-1.293145775794983,1.3109707832336426,-1.3537670373916626,-0.0715857669711113,0.0,0.015339807607233524,-1.293145775794983,1.3359707593917847,-1.3537670373916626,-0.0715857669711113,0.003,0.0,0.0,0.0,0.0,0.0,0.0,-3.1,3.1,-1.571,1.571,-1.571,1.571,-1.745,1.745,-2.617,2.617,0.003,0.03,-0.05000000074505806,-0.02500000037252903,-0.02500000037252903,-0.02500000037252903,-0.05000000074505806,-0.0005000000237487257,0.05000000074505806,0.02500000037252903,0.02500000037252903,0.02500000037252903,0.05000000074505806,0.0005000000237487257,-0.01148887663679252,-0.243313631869355,0.10718617745209744,0.14,0.0,0.26,0.04794836789369583,0.0007355764391832054,0.3149074912071228,0.0,-1.0777995514527372
0.0,13.0,0.0,0.0,0.025,0.0,0.0,0.0,0.015339807607233524,-1.293145775794983,1.3359707593917847,-1.3537670373916626,-0.0715857669711113,0.0,0.015339807607233524,-1.293145775794983,1.3609707355499268,-1.3537670373916626,-0.0715857669711113,0.003,0.0,0.0,0.0,0.0,0.0,0.0,-3.1,3.1,-1.571,1.571,-1.571,1.571,-1.745,1.745,-2.617,2.617,0.003,0.03,-0.05000000074505806,-0.02500000037252903,-0.02500000037252903,-0.02500000037252903,-0.05000000074505806,-0.0005000000237487257,0.05000000074505806,0.02500000037252903,0.02500000037252903,0.02500000037252903,0.05000000074505806,0.0005000000237487257,-0.010568880956609922,-0.2538825128259649,0.10280506289385714,0.14,0.0,0.26,0.050508640706539154,0.0007748536299914122,0.31059226393699646,0.0,-1.0514674939776703
0.0,14.0,0.0,0.0,0.025,0.0,0.0,0.0,0.015339807607233524,-1.293145775794983,1.3609707355499268,-1.3537670373916626,-0.0715857669711113,0.0,0.015339807607233524,-1.293145775794983,1.3859707117080688,-1.3537670373916626,-0.0715857669711113,0.003,0.0,0.0,0.0,0.0,0.0,0.0,-3.1,3.1,-1.571,1.571,-1.571,1.571,-1.745,1.745,-2.617,2.617,0.003,0.03,-0.05000000074505806,-0.02500000037252903,-0.02500000037252903,-0.02500000037252903,-0.05000000074505806,-0.0005000000237487257,0.05000000074505806,0.02500000037252903,0.02500000037252903,0.02500000037252903,0.05000000074505806,0.0005000000237487257,-0.009712346834070186,-0.2635948596600351,0.09855123963740987,0.14,0.0,0.26,0.05296025797724724,0.00081246392801404,0.3062143921852112,0.0,-1.0209175815473448
0.0,15.0,0.0,0.0,0.025,0.0,0.0,0.0,0.015339807607233524,-1.293145775794983,1.3859707117080688,-1.3537670373916626,-0.0715857669711113,0.0,0.015339807607233524,-1.293145775794983,1.410970687866211,-1.3537670373916626,-0.0715857669711113,0.003,0.0,0.0,0.0,0.0,0.0,0.0,-3.1,3.1,-1.571,1.571,-1.571,1.571,-1.745,1.745,-2.617,2.617,0.003,0.03,-0.05000000074505806,-0.02500000037252903,-0.02500000037252903,-0.02500000037252903,-0.05000000074505806,-0.0005000000237487257,0.05000000074505806,0.02500000037252903,0.02500000037252903,0.02500000037252903,0.05000000074505806,0.0005000000237487257,-0.008919807009002592,-0.2725146666690377,0.09444472991651039,0.14,0.0,0.26,0.055301688611507416,0.0008483838173560798,0.30177658796310425,0.0,-0.9855623330158769
0.0,16.0,0.0,0.0,0.025,0.0,0.0,0.0,0.015339807607233524,-1.293145775794983,1.410970687866211,-1.3537670373916626,-0.0715857669711113,0.0,0.015339807607233524,-1.293145775794983,1.435970664024353,-1.3537670373916626,-0.0715857669711113,0.003,0.0,0.0,0.0,0.0,0.0,0.0,-3.1,3.1,-1.571,1.571,-1.571,1.571,-1.745,1.745,-2.617,2.617,0.003,0.03,-0.05000000074505806,-0.02500000037252903,-0.02500000037252903,-0.02500000037252903,-0.05000000074505806,-0.0005000000237487257,0.05000000074505806,0.02500000037252903,0.02500000037252903,0.02500000037252903,0.05000000074505806,0.0005000000237487257,-0.008191759884415714,-0.2807064265534534,0.09050834151842423,0.14,0.0,0.26,0.05753146484494209,0.000882590829860419,0.2972816526889801,0.0,-0.9447332155406785
0.0,17.0,0.0,0.0,0.025,0.0,0.0,0.0,0.015339807607233524,-1.293145775794983,1.435970664024353,-1.3537670373916626,-0.0715857669711113,0.0,0.015339807607233524,-1.293145775794983,1.4609706401824951,-1.3537670373916626,-0.0715857669711113,0.003,0.0,0.0,0.0,0.0,0.0,0.0,-3.1,3.1,-1.571,1.571,-1.571,1.571,-1.745,1.745,-2.617,2.617,0.003,0.03,-0.05000000074505806,-0.02500000037252903,-0.02500000037252903,-0.02500000037252903,-0.05000000074505806,-0.0005000000237487257,0.05000000074505806,0.02500000037252903,0.02500000037252903,0.02500000037252903,0.05000000074505806,0.0005000000237487257,-0.007528656822524424,-0.2882350833759778,0.0867678328790366,0.14,0.0,0.26,0.05964819714426994,0.0009150636615231633,0.2927323579788208,0.0,-0.8977220734530311
0.0,18.0,0.0,0.0,0.025,0.0,0.0,0.0,0.015339807607233524,-1.293145775794983,1.4609706401824951,-1.3537670373916626,-0.0715857669711113,0.0,0.015339807607233524,-1.293145775794983,1.4859706163406372,-1.3537670373916626,-0.0715857669711113,0.003,0.0,0.0,0.0,0.0,0.0,0.0,-3.1,3.1,-1.571,1.571,-1.571,1.571,-1.745,1.745,-2.617,2.617,0.003,0.03,-0.05000000074505806,-0.02500000037252903,-0.02500000037252903,-0.02500000037252903,-0.05000000074505806,-0.0005000000237487257,0.05000000074505806,0.02500000037252903,0.02500000037252903,0.02500000037252903,0.05000000074505806,0.0005000000237487257,-0.006930915978513615,-0.29516599935449145,0.08325212296700676,0.14,0.0,0.26,0.061650559306144714,0.000945781939662993,0.28813159465789795,0.0,-0.8437703788871598
0.0,19.0,0.0,0.0,0.025,0.0,0.0,0.0,0.015339807607233524,-1.293145775794983,1.4859706163406372,-1.3537670373916626,-0.0715857669711113,0.0,0.015339807607233524,-1.293145775794983,1.5109705924987793,-1.3537670373916626,-0.0715857669711113,0.003,0.0,0.0,0.0,0.0,0.0,0.0,-3.1,3.1,-1.571,1.571,-1.571,1.571,-1.745,1.745,-2.617,2.617,0.003,0.03,-0.05000000074505806,-0.02500000037252903,-0.02500000037252903,-0.02500000037252903,-0.05000000074505806,-0.0005000000237487257,0.05000000074505806,0.02500000037252903,0.02500000037252903,0.02500000037252903,0.05000000074505806,0.0005000000237487257,-0.0063989069322471365,-0.3015649062867386,0.07999316803482118,0.14,0.0,0.26,0.06353730708360672,0.0009747264557518065,0.2834821939468384,0.0,-0.7821491837245409
0.0,20.0,0.0,0.0,0.025,0.0,0.0,0.0,0.015339807607233524,-1.293145775794983,1.5109705924987793,-1.3537670373916626,-0.0715857669711113,0.0,0.015339807607233524,-1.293145775794983,1.5359705686569214,-1.3537670373916626,-0.0715857669711113,0.003,0.0,0.0,0.0,0.0,0.0,0.0,-3.1,3.1,-1.571,1.571,-1.571,1.571,-1.745,1.745,-2.617,2.617,0.003,0.03,-0.05000000074505806,-0.02500000037252903,-0.02500000037252903,-0.02500000037252903,-0.05000000074505806,-0.0005000000237487257,0.05000000074505806,0.02500000037252903,0.02500000037252903,0.02500000037252903,0.05000000074505806,0.0005000000237487257,-0.005932964591890853,-0.30749787087862945,0.07702573980099674,0.14,0.0,0.26,0.06530725210905075,0.0010018792236223817,0.2787870764732361,0.0,-0.7121827761178656
0.0,21.0,0.0,0.0,0.025,0.0,0.0,0.0,0.015339807607233524,-1.293145775794983,1.5359705686569214,-1.3537670373916626,-0.0715857669711113,0.0,0.015339807607233524,-1.293145775794983,1.5609705448150635,-1.3537670373916626,-0.0715857669711113,0.003,0.0,0.0,0.0,0.0,0.0,0.0,-3.1,3.1,-1.571,1.571,-1.571,1.571,-1.745,1.745,-2.617,2.617,0.003,0.03,-0.05000000074505806,-0.02500000037252903,-0.02500000037252903,-0.02500000037252903,-0.05000000074505806,-0.0005000000237487257,0.05000000074505806,0.02500000037252903,0.02500000037252903,0.02500000037252903,0.05000000074505806,0.0005000000237487257,-0.005533379234147189,-0.31303125011277666,0.07438668721046253,0.14,0.0,0.26,0.06695929169654846,0.0010272231884300709,0.27404916286468506,0.0,-0.6333726217282099
0.0,22.0,0.0,0.0,0.025,0.0,0.0,0.0,0.015339807607233524,-1.293145775794983,1.5609705448150635,-1.3537670373916626,-0.0715857669711113,0.0,0.015339807607233524,-1.293145775794983,1.571,-1.3537670373916626,-0.0715857669711113,0.003,0.0,0.0,0.0,0.0,0.0,0.0,-3.1,3.1,-1.571,1.571,-1.571,1.571,-1.745,1.745,-2.617,2.617,0.003,0.03,-0.05000000074505806,-0.02500000037252903,-0.02500000037252903,-0.02500000037252903,-0.05000000074505806,-0.0005000000237487257,0.05000000074505806,0.02500000037252903,0.02500000037252903,0.02500000037252903,0.05000000074505806,0.0005000000237487257,-0.005391782337245641,-0.3184230324500223,0.07342875688206658,0.14,0.0,0.26,0.0675886794924736,0.0010368786752223969,0.2721370458602905,0.0,-0.2299032788150268
0.0,23.0,0.0,0.0,0.025,0.0,0.0,0.0,0.015339807607233524,-1.293145775794983,1.5709999799728394,-1.3537670373916626,-0.0715857669711113,0.0,0.015339807607233524,-1.293145775794983,1.571,-1.3537670373916626,-0.0715857669711113,0.003,0.0,0.0,0.0,0.0,0.0,0.0,-3.1,3.1,-1.571,1.571,-1.571,1.571,-1.745,1.745,-2.617,2.617,0.003,0.03,-0.05000000074505806,-0.02500000037252903,-0.02500000037252903,-0.02500000037252903,-0.05000000074505806,-0.0005000000237487257,0.05000000074505806,0.02500000037252903,0.02500000037252903,0.02500000037252903,0.05000000074505806,0.0005000000237487257,-0.005391782337245641,-0.3238148147872679,0.07342875688206658,0.14,0.0,0.26,0.0675886794924736,0.0010368786752223969,0.2721370458602905,0.0,0.0
0.0,24.0,0.0,0.0,0.025,0.0,0.0,0.0,0.015339807607233524,-1.293145775794983,1.5709999799728394,-1.3537670373916626,-0.0715857669711113,0.0,0.015339807607233524,-1.293145775794983,1.571,-1.3537670373916626,-0.0715857669711113,0.003,0.0,0.0,0.0,0.0,0.0,0.0,-3.1,3.1,-1.571,1.571,-1.571,1.571,-1.745,1.745,-2.617,2.617,0.003,0.03,-0.05000000074505806,-0.02500000037252903,-0.02500000037252903,-0.02500000037252903,-0.05000000074505806,-0.0005000000237487257,0.05000000074505806,0.02500000037252903,0.02500000037252903,0.02500000037252903,0.05000000074505806,0.0005000000237487257,-0.005391782337245641,-0.32920659712451356,0.07342875688206658,0.14,0.0,0.26,0.0675886794924736,0.0010368786752223969,0.2721370458602905,0.0,0.0
0.0,25.0,0.0,0.0,0.025,0.0,0.0,0.0,0.015339807607233524,-1.293145775794983,1.5709999799728394,-1.3537670373916626,-0.0715857669711113,0.0,0.015339807607233524,-1.293145775794983,1.571,-1.3537670373916626,-0.0715857669711113,0.003,0.0,0.0,0.0,0.0,0.0,0.0,-3.1,3.1,-1.571,1.571,-1.571,1.571,-1.745,1.745,-2.617,2.617,0.003,0.03,-0.05000000074505806,-0.02500000037252903,-0.02500000037252903,-0.02500000037252903,-0.05000000074505806,-0.0005000000237487257,0.05000000074505806,0.02500000037252903,0.02500000037252903,0.02500000037252903,0.05000000074505806,0.0005000000237487257,-0.005391782337245641,-0.3345983794617592,0.07342875688206658,0.14,0.0,0.26,0.0675886794924736,0.0010368786752223969,0.2721370458602905,0.0,0.0
0.0,26.0,0.0,0.0,0.025,0.0,0.0,0.0,0.015339807607233524,-1.293145775794983,1.5709999799728394,-1.3537670373916626,-0.0715857669711113,0.0,0.015339807607233524,-1.293145775794983,1.571,-1.3537670373916626,-0.0715857669711113,0.003,0.0,0.0,0.0,0.0,0.0,0.0,-3.1,3.1,-1.571,1.571,-1.571,1.571,-1.745,1.745,-2.617,2.617,0.003,0.03,-0.05000000074505806,-0.02500000037252903,-0.02500000037252903,-0.02500000037252903,-0.05000000074505806,-0.0005000000237487257,0.05000000074505806,0.02500000037252903,0.02500000037252903,0.02500000037252903,0.05000000074505806,0.0005000000237487257,-0.005391782337245641,-0.3399901617990048,0.07342875688206658,0.14,0.0,0.26,0.0675886794924736,0.0010368786752223969,0.2721370458602905,0.0,0.0
0.0,27.0,0.0,0.0,0.025,0.0,0.0,0.0,0.015339807607233524,-1.293145775794983,1.5709999799728394,-1.3537670373916626,-0.0715857669711113,0.0,0.015339807607233524,-1.293145775794983,1.571,-1.3537670373916626,-0.0715857669711113,0.003,0.0,0.0,0.0,0.0,0.0,0.0,-3.1,3.1,-1.571,1.571,-1.571,1.571,-1.745,1.745,-2.617,2.617,0.003,0.03,-0.05000000074505806,-0.02500000037252903,-0.02500000037252903,-0.02500000037252903,-0.05000000074505806,-0.0005000000237487257,0.05000000074505806,0.02500000037252903,0.02500000037252903,0.02500000037252903,0.05000000074505806,0.0005000000237487257,-0.005391782337245641,-0.34538194413625045,0.07342875688206658,0.14,0.0,0.26,0.0675886794924736,0.0010368786752223969,0.2721370458602905,0.0,0.0
0.0,28.0,0.0,0.0,0.025,0.0,0.0,0.0,0.015339807607233524,-1.293145775794983,1.5709999799728394,-1.3537670373916626,-0.0715857669711113,0.0,0.015339807607233524,-1.293145775794983,1.571,-1.3537670373916626,-0.0715857669711113,0.003,0.0,0.0,0.0,0.0,0.0,0.0,-3.1,3.1,-1.571,1.571,-1.571,1.571,-1.745,1.745,-2.617,2.617,0.003,0.03,-0.05000000074505806,-0.02500000037252903,-0.02500000037252903,-0.02500000037252903,-0.05000000074505806,-0.0005000000237487257,0.05000000074505806,0.02500000037252903,0.02500000037252903,0.02500000037252903,0.05000000074505806,0.0005000000237487257,-0.005391782337245641,-0.3507737264734961,0.07342875688206658,0.14,0.0,0.26,0.0675886794924736,0.0010368786752223969,0.2721370458602905,0.0,0.0
0.0,29.0,0.0,0.0,0.025,0.0,0.0,0.0,0.015339807607233524,-1.293145775794983,1.5709999799728394,-1.3537670373916626,-0.0715857669711113,0.0,0.015339807607233524,-1.293145775794983,1.571,-1.3537670373916626,-0.0715857669711113,0.003,0.0,0.0,0.0,0.0,0.0,0.0,-3.1,3.1,-1.571,1.571,-1.571,1.571,-1.745,1.745,-2.617,2.617,0.003,0.03,-0.05000000074505806,-0.02500000037252903,-0.02500000037252903,-0.02500000037252903,-0.05000000074505806,-0.0005000000237487257,0.05000000074505806,0.02500000037252903,0.02500000037252903,0.02500000037252903,0.05000000074505806,0.0005000000237487257,-0.005391782337245641,-0.3561655088107417,0.07342875688206658,0.14,0.0,0.26,0.0675886794924736,0.0010368786752223969,0.2721370458602905,0.0,0.0
0.0,30.0,0.0,0.0,0.025,0.0,0.0,0.0,0.015339807607233524,-1.293145775794983,1.5709999799728394,-1.3537670373916626,-0.0715857669711113,0.0,0.015339807607233524,-1.293145775794983,1.571,-1.3537670373916626,-0.0715857669711113,0.003,0.0,0.0,0.0,0.0,0.0,0.0,-3.1,3.1,-1.571,1.571,-1.571,1.571,-1.745,1.745,-2.617,2.617,0.003,0.03,-0.05000000074505806,-0.02500000037252903,-0.02500000037252903,-0.02500000037252903,-0.05000000074505806,-0.0005000000237487257,0.05000000074505806,0.02500000037252903,0.02500000037252903,0.02500000037252903,0.05000000074505806,0.0005000000237487257,-0.005391782337245641,-0.36155729114798735,0.07342875688206658,0.14,0.0,0.26,0.0675886794924736,0.0010368786752223969,0.2721370458602905,0.0,0.0
0.0,31.0,0.0,0.0,0.025,0.0,0.0,0.0,0.015339807607233524,-1.293145775794983,1.5709999799728394,-1.3537670373916626,-0.0715857669711113,0.0,0.015339807607233524,-1.293145775794983,1.571,-1.3537670373916626,-0.0715857669711113,0.003,0.0,0.0,0.0,0.0,0.0,0.0,-3.1,3.1,-1.571,1.571,-1.571,1.571,-1.745,1.745,-2.617,2.617,0.003,0.03,-0.05000000074505806,-0.02500000037252903,-0.02500000037252903,-0.02500000037252903,-0.05000000074505806,-0.0005000000237487257,0.05000000074505806,0.02500000037252903,0.02500000037252903,0.02500000037252903,0.05000000074505806,0.0005000000237487257,-0.005391782337245641,-0.366949073485233,0.07342875688206658,0.14,0.0,0.26,0.0675886794924736,0.0010368786752223969,0.2721370458602905,0.0,0.0
0.0,32.0,0.0,0.0,0.025,0.0,0.0,0.0,0.015339807607233524,-1.293145775794983,1.5709999799728394,-1.3537670373916626,-0.0715857669711113,0.0,0.015339807607233524,-1.293145775794983,1.571,-1.3537670373916626,-0.0715857669711113,0.003,0.0,0.0,0.0,0.0,0.0,0.0,-3.1,3.1,-1.571,1.571,-1.571,1.571,-1.745,1.745,-2.617,2.617,0.003,0.03,-0.05000000074505806,-0.02500000037252903,-0.02500000037252903,-0.02500000037252903,-0.05000000074505806,-0.0005000000237487257,0.05000000074505806,0.02500000037252903,0.02500000037252903,0.02500000037252903,0.05000000074505806,0.0005000000237487257,-0.005391782337245641,-0.3723408558224786,0.07342875688206658,0.14,0.0,0.26,0.0675886794924736,0.0010368786752223969,0.2721370458602905,0.0,0.0
0.0,33.0,0.0,0.0,0.025,0.0,0.0,0.0,0.015339807607233524,-1.293145775794983,1.5709999799728394,-1.3537670373916626,-0.0715857669711113,0.0,0.015339807607233524,-1.293145775794983,1.571,-1.3537670373916626,-0.0715857669711113,0.003,0.0,0.0,0.0,0.0,0.0,0.0,-3.1,3.1,-1.571,1.571,-1.571,1.571,-1.745,1.745,-2.617,2.617,0.003,0.03,-0.05000000074505806,-0.02500000037252903,-0.02500000037252903,-0.02500000037252903,-0.05000000074505806,-0.0005000000237487257,0.05000000074505806,0.02500000037252903,0.02500000037252903,0.02500000037252903,0.05000000074505806,0.0005000000237487257,-0.005391782337245641,-0.37773263815972424,0.07342875688206658,0.14,0.0,0.26,0.0675886794924736,0.0010368786752223969,0.2721370458602905,0.0,0.0
0.0,34.0,0.0,0.0,0.025,0.0,0.0,0.0,0.015339807607233524,-1.293145775794983,1.5709999799728394,-1.3537670373916626,-0.0715857669711113,0.0,0.015339807607233524,-1.293145775794983,1.571,-1.3537670373916626,-0.0715857669711113,0.003,0.0,0.0,0.0,0.0,0.0,0.0,-3.1,3.1,-1.571,1.571,-1.571,1.571,-1.745,1.745,-2.617,2.617,0.003,0.03,-0.05000000074505806,-0.02500000037252903,-0.02500000037252903,-0.02500000037252903,-0.05000000074505806,-0.0005000000237487257,0.05000000074505806,0.02500000037252903,0.02500000037252903,0.02500000037252903,0.05000000074505806,0.0005000000237487257,-0.005391782337245641,-0.3831244204969699,0.07342875688206658,0.14,0.0,0.26,0.0675886794924736,0.0010368786752223969,0.2721370458602905,0.0,0.0
0.0,35.0,0.0,0.0,0.025,0.0,0.0,0.0,0.015339807607233524,-1.293145775794983,1.5709999799728394,-1.3537670373916626,-0.0715857669711113,0.0,0.015339807607233524,-1.293145775794983,1.571,-1.3537670373916626,-0.0715857669711113,0.003,0.0,0.0,0.0,0.0,0.0,0.0,-3.1,3.1,-1.571,1.571,-1.571,1.571,-1.745,1.745,-2.617,2.617,0.003,0.03,-0.05000000074505806,-0.02500000037252903,-0.02500000037252903,-0.02500000037252903,-0.05000000074505806,-0.0005000000237487257,0.05000000074505806,0.02500000037252903,0.02500000037252903,0.02500000037252903,0.05000000074505806,0.0005000000237487257,-0.005391782337245641,-0.3885162028342155,0.07342875688206658,0.14,0.0,0.26,0.0675886794924736,0.0010368786752223969,0.2721370458602905,0.0,0.0
0.0,36.0,0.0,0.0,0.025,0.0,0.0,0.0,0.015339807607233524,-1.293145775794983,1.5709999799728394,-1.3537670373916626,-0.0715857669711113,0.0,0.015339807607233524,-1.293145775794983,1.571,-1.3537670373916626,-0.0715857669711113,0.003,0.0,0.0,0.0,0.0,0.0,0.0,-3.1,3.1,-1.571,1.571,-1.571,1.571,-1.745,1.745,-2.617,2.617,0.003,0.03,-0.05000000074505806,-0.02500000037252903,-0.02500000037252903,-0.02500000037252903,-0.05000000074505806,-0.0005000000237487257,0.05000000074505806,0.02500000037252903,0.02500000037252903,0.02500000037252903,0.05000000074505806,0.0005000000237487257,-0.005391782337245641,-0.39390798517146114,0.07342875688206658,0.14,0.0,0.26,0.0675886794924736,0.0010368786752223969,0.2721370458602905,0.0,0.0
0.0,37.0,0.0,0.0,0.025,0.0,0.0,0.0,0.015339807607233524,-1.293145775794983,1.5709999799728394,-1.3537670373916626,-0.0715857669711113,0.0,0.015339807607233524,-1.293145775794983,1.571,-1.3537670373916626,-0.0715857669711113,0.003,0.0,0.0,0.0,0.0,0.0,0.0,-3.1,3.1,-1.571,1.571,-1.571,1.571,-1.745,1.745,-2.617,2.617,0.003,0.03,-0.05000000074505806,-0.02500000037252903,-0.02500000037252903,-0.02500000037252903,-0.05000000074505806,-0.0005000000237487257,0.05000000074505806,0.02500000037252903,0.02500000037252903,0.02500000037252903,0.05000000074505806,0.0005000000237487257,-0.005391782337245641,-0.39929976750870677,0.07342875688206658,0.14,0.0,0.26,0.0675886794924736,0.0010368786752223969,0.2721370458602905,0.0,0.0
0.0,38.0,0.0,0.0,0.025,0.0,0.0,0.0,0.015339807607233524,-1.293145775794983,1.5709999799728394,-1.3537670373916626,-0.0715857669711113,0.0,0.015339807607233524,-1.293145775794983,1.571,-1.3537670373916626,-0.0715857669711113,0.003,0.0,0.0,0.0,0.0,0.0,0.0,-3.1,3.1,-1.571,1.571,-1.571,1.571,-1.745,1.745,-2.617,2.617,0.003,0.03,-0.05000000074505806,-0.02500000037252903,-0.02500000037252903,-0.02500000037252903,-0.05000000074505806,-0.0005000000237487257,0.05000000074505806,0.02500000037252903,0.02500000037252903,0.02500000037252903,0.05000000074505806,0.0005000000237487257,-0.005391782337245641,-0.4046915498459524,0.07342875688206658,0.14,0.0,0.26,0.0675886794924736,0.0010368786752223969,0.2721370458602905,0.0,0.0
0.0,39.0,0.0,0.0,0.025,0.0,0.0,0.0,0.015339807607233524,-1.293145775794983,1.5709999799728394,-1.3537670373916626,-0.0715857669711113,0.0,0.015339807607233524,-1.293145775794983,1.571,-1.3537670373916626,-0.0715857669711113,0.003,0.0,0.0,0.0,0.0,0.0,0.0,-3.1,3.1,-1.571,1.571,-1.571,1.571,-1.745,1.745,-2.617,2.617,0.003,0.03,-0.05000000074505806,-0.02500000037252903,-0.02500000037252903,-0.02500000037252903,-0.05000000074505806,-0.0005000000237487257,0.05000000074505806,0.02500000037252903,0.02500000037252903,0.02500000037252903,0.05000000074505806,0.0005000000237487257,-0.005391782337245641,-0.41008333218319803,0.07342875688206658,0.14,0.0,0.26,0.0675886794924736,0.0010368786752223969,0.2721370458602905,0.0,0.0
0.0,40.0,0.0,0.0,0.025,0.0,0.0,0.0,0.015339807607233524,-1.293145775794983,1.5709999799728394,-1.3537670373916626,-0.0715857669711113,0.0,0.015339807607233524,-1.293145775794983,1.571,-1.3537670373916626,-0.0715857669711113,0.003,0.0,0.0,0.0,0.0,0.0,0.0,-3.1,3.1,-1.571,1.571,-1.571,1.571,-1.745,1.745,-2.617,2.617,0.003,0.03,-0.05000000074505806,-0.02500000037252903,-0.02500000037252903,-0.02500000037252903,-0.05000000074505806,-0.0005000000237487257,0.05000000074505806,0.02500000037252903,0.02500000037252903,0.02500000037252903,0.05000000074505806,0.0005000000237487257,-0.005391782337245641,-0.41547511452044367,0.07342875688206658,0.14,0.0,0.26,0.0675886794924736,0.0010368786752223969,0.2721370458602905,0.0,0.0
0.0,41.0,0.0,0.0,0.025,0.0,0.0,0.0,0.015339807607233524,-1.293145775794983,1.5709999799728394,-1.3537670373916626,-0.0715857669711113,0.0,0.015339807607233524,-1.293145775794983,1.571,-1.3537670373916626,-0.0715857669711113,0.003,0.0,0.0,0.0,0.0,0.0,0.0,-3.1,3.1,-1.571,1.571,-1.571,1.571,-1.745,1.745,-2.617,2.617,0.003,0.03,-0.05000000074505806,-0.02500000037252903,-0.02500000037252903,-0.02500000037252903,-0.05000000074505806,-0.0005000000237487257,0.05000000074505806,0.02500000037252903,0.02500000037252903,0.02500000037252903,0.05000000074505806,0.0005000000237487257,-0.005391782337245641,-0.4208668968576893,0.07342875688206658,0.14,0.0,0.26,0.0675886794924736,0.0010368786752223969,0.2721370458602905,0.0,0.0
0.0,42.0,0.0,0.0,0.025,0.0,0.0,0.0,0.015339807607233524,-1.293145775794983,1.5709999799728394,-1.3537670373916626,-0.0715857669711113,0.0,0.015339807607233524,-1.293145775794983,1.571,-1.3537670373916626,-0.0715857669711113,0.003,0.0,0.0,0.0,0.0,0.0,0.0,-3.1,3.1,-1.571,1.571,-1.571,1.571,-1.745,1.745,-2.617,2.617,0.003,0.03,-0.05000000074505806,-0.02500000037252903,-0.02500000037252903,-0.02500000037252903,-0.05000000074505806,-0.0005000000237487257,0.05000000074505806,0.02500000037252903,0.02500000037252903,0.02500000037252903,0.05000000074505806,0.0005000000237487257,-0.005391782337245641,-0.42625867919493493,0.07342875688206658,0.14,0.0,0.26,0.0675886794924736,0.0010368786752223969,0.2721370458602905,0.0,0.0
0.0,43.0,0.0,0.0,0.025,0.0,0.0,0.0,0.015339807607233524,-1.293145775794983,1.5709999799728394,-1.3537670373916626,-0.0715857669711113,0.0,0.015339807607233524,-1.293145775794983,1.571,-1.3537670373916626,-0.0715857669711113,0.003,0.0,0.0,0.0,0.0,0.0,0.0,-3.1,3.1,-1.571,1.571,-1.571,1.571,-1.745,1.745,-2.617,2.617,0.003,0.03,-0.05000000074505806,-0.02500000037252903,-0.02500000037252903,-0.02500000037252903,-0.05000000074505806,-0.0005000000237487257,0.05000000074505806,0.02500000037252903,0.02500000037252903,0.02500000037252903,0.05000000074505806,0.0005000000237487257,-0.005391782337245641,-0.43165046153218056,0.07342875688206658,0.14,0.0,0.26,0.0675886794924736,0.0010368786752223969,0.2721370458602905,0.0,0.0
0.0,44.0,0.0,0.0,0.025,0.0,0.0,0.0,0.015339807607233524,-1.293145775794983,1.5709999799728394,-1.3537670373916626,-0.0715857669711113,0.0,0.015339807607233524,-1.293145775794983,1.571,-1.3537670373916626,-0.0715857669711113,0.003,0.0,0.0,0.0,0.0,0.0,0.0,-3.1,3.1,-1.571,1.571,-1.571,1.571,-1.745,1.745,-2.617,2.617,0.003,0.03,-0.05000000074505806,-0.02500000037252903,-0.02500000037252903,-0.02500000037252903,-0.05000000074505806,-0.0005000000237487257,0.05000000074505806,0.02500000037252903,0.02500000037252903,0.02500000037252903,0.05000000074505806,0.0005000000237487257,-0.005391782337245641,-0.4370422438694262,0.07342875688206658,0.14,0.0,0.26,0.0675886794924736,0.0010368786752223969,0.2721370458602905,0.0,0.0
0.0,45.0,0.0,0.0,0.025,0.0,0.0,0.0,0.015339807607233524,-1.293145775794983,1.5709999799728394,-1.3537670373916626,-0.0715857669711113,0.0,0.015339807607233524,-1.293145775794983,1.571,-1.3537670373916626,-0.0715857669711113,0.003,0.0,0.0,0.0,0.0,0.0,0.0,-3.1,3.1,-1.571,1.571,-1.571,1.571,-1.745,1.745,-2.617,2.617,0.003,0.03,-0.05000000074505806,-0.02500000037252903,-0.02500000037252903,-0.02500000037252903,-0.05000000074505806,-0.0005000000237487257,0.05000000074505806,0.02500000037252903,0.02500000037252903,0.02500000037252903,0.05000000074505806,0.0005000000237487257,-0.005391782337245641,-0.4424340262066718,0.07342875688206658,0.14,0.0,0.26,0.0675886794924736,0.0010368786752223969,0.2721370458602905,0.0,0.0
0.0,46.0,0.0,0.0,0.025,0.0,0.0,0.0,0.015339807607233524,-1.293145775794983,1.5709999799728394,-1.3537670373916626,-0.0715857669711113,0.0,0.015339807607233524,-1.293145775794983,1.571,-1.3537670373916626,-0.0715857669711113,0.003,0.0,0.0,0.0,0.0,0.0,0.0,-3.1,3.1,-1.571,1.571,-1.571,1.571,-1.745,1.745,-2.617,2.617,0.003,0.03,-0.05000000074505806,-0.02500000037252903,-0.02500000037252903,-0.02500000037252903,-0.05000000074505806,-0.0005000000237487257,0.05000000074505806,0.02500000037252903,0.02500000037252903,0.02500000037252903,0.05000000074505806,0.0005000000237487257,-0.005391782337245641,-0.44782580854391746,0.07342875688206658,0.14,0.0,0.26,0.0675886794924736,0.0010368786752223969,0.2721370458602905,0.0,0.0
0.0,47.0,0.0,0.0,0.025,0.0,0.0,0.0,0.015339807607233524,-1.293145775794983,1.5709999799728394,-1.3537670373916626,-0.0715857669711113,0.0,0.015339807607233524,-1.293145775794983,1.571,-1.3537670373916626,-0.0715857669711113,0.003,0.0,0.0,0.0,0.0,0.0,0.0,-3.1,3.1,-1.571,1.571,-1.571,1.571,-1.745,1.745,-2.617,2.617,0.003,0.03,-0.05000000074505806,-0.02500000037252903,-0.02500000037252903,-0.02500000037252903,-0.05000000074505806,-0.0005000000237487257,0.05000000074505806,0.02500000037252903,0.02500000037252903,0.02500000037252903,0.05000000074505806,0.0005000000237487257,-0.005391782337245641,-0.4532175908811631,0.07342875688206658,0.14,0.0,0.26,0.0675886794924736,0.0010368786752223969,0.2721370458602905,0.0,0.0
0.0,48.0,0.0,0.0,0.025,0.0,0.0,0.0,0.015339807607233524,-1.293145775794983,1.5709999799728394,-1.3537670373916626,-0.0715857669711113,0.0,0.015339807607233524,-1.293145775794983,1.571,-1.3537670373916626,-0.0715857669711113,0.003,0.0,0.0,0.0,0.0,0.0,0.0,-3.1,3.1,-1.571,1.571,-1.571,1.571,-1.745,1.745,-2.617,2.617,0.003,0.03,-0.05000000074505806,-0.02500000037252903,-0.02500000037252903,-0.02500000037252903,-0.05000000074505806,-0.0005000000237487257,0.05000000074505806,0.02500000037252903,0.02500000037252903,0.02500000037252903,0.05000000074505806,0.0005000000237487257,-0.005391782337245641,-0.4586093732184087,0.07342875688206658,0.14,0.0,0.26,0.0675886794924736,0.0010368786752223969,0.2721370458602905,0.0,0.0
0.0,49.0,0.0,0.0,0.025,0.0,0.0,0.0,0.015339807607233524,-1.293145775794983,1.5709999799728394,-1.3537670373916626,-0.0715857669711113,0.0,0.015339807607233524,-1.293145775794983,1.571,-1.3537670373916626,-0.0715857669711113,0.003,0.0,0.0,0.0,0.0,0.0,0.0,-3.1,3.1,-1.571,1.571,-1.571,1.571,-1.745,1.745,-2.617,2.617,0.003,0.03,-0.05000000074505806,-0.02500000037252903,-0.02500000037252903,-0.02500000037252903,-0.05000000074505806,-0.0005000000237487257,0.05000000074505806,0.02500000037252903,0.02500000037252903,0.02500000037252903,0.05000000074505806,0.0005000000237487257,-0.005391782337245641,-0.46400115555565435,0.07342875688206658,0.14,0.0,0.26,0.0675886794924736,0.0010368786752223969,0.2721370458602905,0.0,0.0
0.0,50.0,0.0,0.0,0.025,0.0,0.0,0.0,0.015339807607233524,-1.293145775794983,1.5709999799728394,-1.3537670373916626,-0.0715857669711113,0.0,0.015339807607233524,-1.293145775794983,1.571,-1.3537670373916626,-0.0715857669711113,0.003,0.0,0.0,0.0,0.0,0.0,0.0,-3.1,3.1,-1.571,1.571,-1.571,1.571,-1.745,1.745,-2.617,2.617,0.003,0.03,-0.05000000074505806,-0.02500000037252903,-0.02500000037252903,-0.02500000037252903,-0.05000000074505806,-0.0005000000237487257,0.05000000074505806,0.02500000037252903,0.02500000037252903,0.02500000037252903,0.05000000074505806,0.0005000000237487257,-0.005391782337245641,-0.4693929378929,0.07342875688206658,0.14,0.0,0.26,0.0675886794924736,0.0010368786752223969,0.2721370458602905,0.0,0.0
0.0,51.0,0.0,0.0,0.025,0.0,0.0,0.0,0.015339807607233524,-1.293145775794983,1.5709999799728394,-1.3537670373916626,-0.0715857669711113,0.0,0.015339807607233524,-1.293145775794983,1.571,-1.3537670373916626,-0.0715857669711113,0.003,0.0,0.0,0.0,0.0,0.0,0.0,-3.1,3.1,-1.571,1.571,-1.571,1.571,-1.745,1.745,-2.617,2.617,0.003,0.03,-0.05000000074505806,-0.02500000037252903,-0.02500000037252903,-0.02500000037252903,-0.05000000074505806,-0.0005000000237487257,0.05000000074505806,0.02500000037252903,0.02500000037252903,0.02500000037252903,0.05000000074505806,0.0005000000237487257,-0.005391782337245641,-0.4747847202301456,0.07342875688206658,0.14,0.0,0.26,0.0675886794924736,0.0010368786752223969,0.2721370458602905,0.0,0.0
0.0,52.0,0.0,0.0,0.025,0.0,0.0,0.0,0.015339807607233524,-1.293145775794983,1.5709999799728394,-1.3537670373916626,-0.0715857669711113,0.0,0.015339807607233524,-1.293145775794983,1.571,-1.3537670373916626,-0.0715857669711113,0.003,0.0,0.0,0.0,0.0,0.0,0.0,-3.1,3.1,-1.571,1.571,-1.571,1.571,-1.745,1.745,-2.617,2.617,0.003,0.03,-0.05000000074505806,-0.02500000037252903,-0.02500000037252903,-0.02500000037252903,-0.05000000074505806,-0.0005000000237487257,0.05000000074505806,0.02500000037252903,0.02500000037252903,0.02500000037252903,0.05000000074505806,0.0005000000237487257,-0.005391782337245641,-0.48017650256739125,0.07342875688206658,0.14,0.0,0.26,0.0675886794924736,0.0010368786752223969,0.2721370458602905,0.0,0.0
0.0,53.0,0.0,0.0,0.025,0.0,0.0,0.0,0.015339807607233524,-1.293145775794983,1.5709999799728394,-1.3537670373916626,-0.0715857669711113,0.0,0.015339807607233524,-1.293145775794983,1.571,-1.3537670373916626,-0.0715857669711113,0.003,0.0,0.0,0.0,0.0,0.0,0.0,-3.1,3.1,-1.571,1.571,-1.571,1.571,-1.745,1.745,-2.617,2.617,0.003,0.03,-0.05000000074505806,-0.02500000037252903,-0.02500000037252903,-0.02500000037252903,-0.05000000074505806,-0.0005000000237487257,0.05000000074505806,0.02500000037252903,0.02500000037252903,0.02500000037252903,0.05000000074505806,0.0005000000237487257,-0.005391782337245641,-0.4855682849046369,0.07342875688206658,0.14,0.0,0.26,0.0675886794924736,0.0010368786752223969,0.2721370458602905,0.0,0.0
0.0,54.0,0.0,0.0,0.025,0.0,0.0,0.0,0.015339807607233524,-1.293145775794983,1.5709999799728394,-1.3537670373916626,-0.0715857669711113,0.0,0.015339807607233524,-1.293145775794983,1.571,-1.3537670373916626,-0.0715857669711113,0.003,0.0,0.0,0.0,0.0,0.0,0.0,-3.1,3.1,-1.571,1.571,-1.571,1.571,-1.745,1.745,-2.617,2.617,0.003,0.03,-0.05000000074505806,-0.02500000037252903,-0.02500000037252903,-0.02500000037252903,-0.05000000074505806,-0.0005000000237487257,0.05000000074505806,0.02500000037252903,0.02500000037252903,0.02500000037252903,0.05000000074505806,0.0005000000237487257,-0.005391782337245641,-0.4909600672418825,0.07342875688206658,0.14,0.0,0.26,0.0675886794924736,0.0010368786752223969,0.2721370458602905,0.0,0.0
0.0,55.0,0.0,0.0,0.025,0.0,0.0,0.0,0.015339807607233524,-1.293145775794983,1.5709999799728394,-1.3537670373916626,-0.0715857669711113,0.0,0.015339807607233524,-1.293145775794983,1.571,-1.3537670373916626,-0.0715857669711113,0.003,0.0,0.0,0.0,0.0,0.0,0.0,-3.1,3.1,-1.571,1.571,-1.571,1.571,-1.745,1.745,-2.617,2.617,0.003,0.03,-0.05000000074505806,-0.02500000037252903,-0.02500000037252903,-0.02500000037252903,-0.05000000074505806,-0.0005000000237487257,0.05000000074505806,0.02500000037252903,0.02500000037252903,0.02500000037252903,0.05000000074505806,0.0005000000237487257,-0.005391782337245641,-0.49635184957912815,0.07342875688206658,0.14,0.0,0.26,0.0675886794924736,0.0010368786752223969,0.2721370458602905,0.0,0.0
0.0,56.0,0.0,0.0,0.025,0.0,0.0,0.0,0.015339807607233524,-1.293145775794983,1.5709999799728394,-1.3537670373916626,-0.0715857669711113,0.0,0.015339807607233524,-1.293145775794983,1.571,-1.3537670373916626,-0.0715857669711113,0.003,0.0,0.0,0.0,0.0,0.0,0.0,-3.1,3.1,-1.571,1.571,-1.571,1.571,-1.745,1.745,-2.617,2.617,0.003,0.03,-0.05000000074505806,-0.02500000037252903,-0.02500000037252903,-0.02500000037252903,-0.05000000074505806,-0.0005000000237487257,0.05000000074505806,0.02500000037252903,0.02500000037252903,0.02500000037252903,0.05000000074505806,0.0005000000237487257,-0.005391782337245641,-0.5017436319163738,0.07342875688206658,0.14,0.0,0.26,0.0675886794924736,0.0010368786752223969,0.2721370458602905,0.0,0.0
0.0,57.0,0.0,0.0,0.025,0.0,0.0,0.0,0.015339807607233524,-1.293145775794983,1.5709999799728394,-1.3537670373916626,-0.0715857669711113,0.0,0.015339807607233524,-1.293145775794983,1.571,-1.3537670373916626,-0.0715857669711113,0.003,0.0,0.0,0.0,0.0,0.0,0.0,-3.1,3.1,-1.571,1.571,-1.571,1.571,-1.745,1.745,-2.617,2.617,0.003,0.03,-0.05000000074505806,-0.02500000037252903,-0.02500000037252903,-0.02500000037252903,-0.05000000074505806,-0.0005000000237487257,0.05000000074505806,0.02500000037252903,0.02500000037252903,0.02500000037252903,0.05000000074505806,0.0005000000237487257,-0.005391782337245641,-0.5071354142536195,0.07342875688206658,0.14,0.0,0.26,0.0675886794924736,0.0010368786752223969,0.2721370458602905,0.0,0.0
0.0,58.0,0.0,0.0,0.025,0.0,0.0,0.0,0.015339807607233524,-1.293145775794983,1.5709999799728394,-1.3537670373916626,-0.0715857669711113,0.0,0.015339807607233524,-1.293145775794983,1.571,-1.3537670373916626,-0.0715857669711113,0.003,0.0,0.0,0.0,0.0,0.0,0.0,-3.1,3.1,-1.571,1.571,-1.571,1.571,-1.745,1.745,-2.617,2.617,0.003,0.03,-0.05000000074505806,-0.02500000037252903,-0.02500000037252903,-0.02500000037252903,-0.05000000074505806,-0.0005000000237487257,0.05000000074505806,0.02500000037252903,0.02500000037252903,0.02500000037252903,0.05000000074505806,0.0005000000237487257,-0.005391782337245641,-0.5125271965908652,0.07342875688206658,0.14,0.0,0.26,0.0675886794924736,0.0010368786752223969,0.2721370458602905,0.0,0.0
0.0,59.0,0.0,0.0,0.025,0.0,0.0,0.0,0.015339807607233524,-1.293145775794983,1.5709999799728394,-1.3537670373916626,-0.0715857669711113,0.0,0.015339807607233524,-1.293145775794983,1.571,-1.3537670373916626,-0.0715857669711113,0.003,0.0,0.0,0.0,0.0,0.0,0.0,-3.1,3.1,-1.571,1.571,-1.571,1.571,-1.745,1.745,-2.617,2.617,0.003,0.03,-0.05000000074505806,-0.02500000037252903,-0.02500000037252903,-0.02500000037252903,-0.05000000074505806,-0.0005000000237487257,0.05000000074505806,0.02500000037252903,0.02500000037252903,0.02500000037252903,0.05000000074505806,0.0005000000237487257,-0.005391782337245641,-0.5179189789281109,0.07342875688206658,0.14,0.0,0.26,0.0675886794924736,0.0010368786752223969,0.2721370458602905,0.0,0.0
0.0,60.0,0.0,0.0,0.025,0.0,0.0,0.0,0.015339807607233524,-1.293145775794983,1.5709999799728394,-1.3537670373916626,-0.0715857669711113,0.0,0.015339807607233524,-1.293145775794983,1.571,-1.3537670373916626,-0.0715857669711113,0.003,0.0,0.0,0.0,0.0,0.0,0.0,-3.1,3.1,-1.571,1.571,-1.571,1.571,-1.745,1.745,-2.617,2.617,0.003,0.03,-0.05000000074505806,-0.02500000037252903,-0.02500000037252903,-0.02500000037252903,-0.05000000074505806,-0.0005000000237487257,0.05000000074505806,0.02500000037252903,0.02500000037252903,0.02500000037252903,0.05000000074505806,0.0005000000237487257,-0.005391782337245641,-0.5233107612653566,0.07342875688206658,0.14,0.0,0.26,0.0675886794924736,0.0010368786752223969,0.2721370458602905,0.0,0.0
0.0,61.0,0.0,0.0,0.025,0.0,0.0,0.0,0.015339807607233524,-1.293145775794983,1.5709999799728394,-1.3537670373916626,-0.0715857669711113,0.0,0.015339807607233524,-1.293145775794983,1.571,-1.3537670373916626,-0.0715857669711113,0.003,0.0,0.0,0.0,0.0,0.0,0.0,-3.1,3.1,-1.571,1.571,-1.571,1.571,-1.745,1.745,-2.617,2.617,0.003,0.03,-0.05000000074505806,-0.02500000037252903,-0.02500000037252903,-0.02500000037252903,-0.05000000074505806,-0.0005000000237487257,0.05000000074505806,0.02500000037252903,0.02500000037252903,0.02500000037252903,0.05000000074505806,0.0005000000237487257,-0.005391782337245641,-0.5287025436026023,0.07342875688206658,0.14,0.0,0.26,0.0675886794924736,0.0010368786752223969,0.2721370458602905,0.0,0.0
0.0,62.0,0.0,0.0,0.025,0.0,0.0,0.0,0.015339807607233524,-1.293145775794983,1.5709999799728394,-1.3537670373916626,-0.0715857669711113,0.0,0.015339807607233524,-1.293145775794983,1.571,-1.3537670373916626,-0.0715857669711113,0.003,0.0,0.0,0.0,0.0,0.0,0.0,-3.1,3.1,-1.571,1.571,-1.571,1.571,-1.745,1.745,-2.617,2.617,0.003,0.03,-0.05000000074505806,-0.02500000037252903,-0.02500000037252903,-0.02500000037252903,-0.05000000074505806,-0.0005000000237487257,0.05000000074505806,0.02500000037252903,0.02500000037252903,0.02500000037252903,0.05000000074505806,0.0005000000237487257,-0.005391782337245641,-0.534094325939848,0.07342875688206658,0.14,0.0,0.26,0.0675886794924736,0.0010368786752223969,0.2721370458602905,0.0,0.0
0.0,63.0,0.0,0.0,0.025,0.0,0.0,0.0,0.015339807607233524,-1.293145775794983,1.5709999799728394,-1.3537670373916626,-0.0715857669711113,0.0,0.015339807607233524,-1.293145775794983,1.571,-1.3537670373916626,-0.0715857669711113,0.003,0.0,0.0,0.0,0.0,0.0,0.0,-3.1,3.1,-1.571,1.571,-1.571,1.571,-1.745,1.745,-2.617,2.617,0.003,0.03,-0.05000000074505806,-0.02500000037252903,-0.02500000037252903,-0.02500000037252903,-0.05000000074505806,-0.0005000000237487257,0.05000000074505806,0.02500000037252903,0.02500000037252903,0.02500000037252903,0.05000000074505806,0.0005000000237487257,-0.005391782337245641,-0.5394861082770936,0.07342875688206658,0.14,0.0,0.26,0.0675886794924736,0.0010368786752223969,0.2721370458602905,0.0,0.0
0.0,64.0,0.0,0.0,0.025,0.0,0.0,0.0,0.015339807607233524,-1.293145775794983,1.5709999799728394,-1.3537670373916626,-0.0715857669711113,0.0,0.015339807607233524,-1.293145775794983,1.571,-1.3537670373916626,-0.0715857669711113,0.003,0.0,0.0,0.0,0.0,0.0,0.0,-3.1,3.1,-1.571,1.571,-1.571,1.571,-1.745,1.745,-2.617,2.617,0.003,0.03,-0.05000000074505806,-0.02500000037252903,-0.02500000037252903,-0.02500000037252903,-0.05000000074505806,-0.0005000000237487257,0.05000000074505806,0.02500000037252903,0.02500000037252903,0.02500000037252903,0.05000000074505806,0.0005000000237487257,-0.005391782337245641,-0.5448778906143393,0.07342875688206658,0.14,0.0,0.26,0.0675886794924736,0.0010368786752223969,0.2721370458602905,0.0,0.0
0.0,65.0,0.0,0.0,0.025,0.0,0.0,0.0,0.015339807607233524,-1.293145775794983,1.5709999799728394,-1.3537670373916626,-0.0715857669711113,0.0,0.015339807607233524,-1.293145775794983,1.571,-1.3537670373916626,-0.0715857669711113,0.003,0.0,0.0,0.0,0.0,0.0,0.0,-3.1,3.1,-1.571,1.571,-1.571,1.571,-1.745,1.745,-2.617,2.617,0.003,0.03,-0.05000000074505806,-0.02500000037252903,-0.02500000037252903,-0.02500000037252903,-0.05000000074505806,-0.0005000000237487257,0.05000000074505806,0.02500000037252903,0.02500000037252903,0.02500000037252903,0.05000000074505806,0.0005000000237487257,-0.005391782337245641,-0.550269672951585,0.07342875688206658,0.14,0.0,0.26,0.0675886794924736,0.0010368786752223969,0.2721370458602905,0.0,0.0
0.0,66.0,0.0,0.0,0.025,0.0,0.0,0.0,0.015339807607233524,-1.293145775794983,1.5709999799728394,-1.3537670373916626,-0.0715857669711113,0.0,0.015339807607233524,-1.293145775794983,1.571,-1.3537670373916626,-0.0715857669711113,0.003,0.0,0.0,0.0,0.0,0.0,0.0,-3.1,3.1,-1.571,1.571,-1.571,1.571,-1.745,1.745,-2.617,2.617,0.003,0.03,-0.05000000074505806,-0.02500000037252903,-0.02500000037252903,-0.02500000037252903,-0.05000000074505806,-0.0005000000237487257,0.05000000074505806,0.02500000037252903,0.02500000037252903,0.02500000037252903,0.05000000074505806,0.0005000000237487257,-0.005391782337245641,-0.5556614552888307,0.07342875688206658,0.14,0.0,0.26,0.0675886794924736,0.0010368786752223969,0.2721370458602905,0.0,0.0
0.0,67.0,0.0,0.0,0.025,0.0,0.0,0.0,0.015339807607233524,-1.293145775794983,1.5709999799728394,-1.3537670373916626,-0.0715857669711113,0.0,0.015339807607233524,-1.293145775794983,1.571,-1.3537670373916626,-0.0715857669711113,0.003,0.0,0.0,0.0,0.0,0.0,0.0,-3.1,3.1,-1.571,1.571,-1.571,1.571,-1.745,1.745,-2.617,2.617,0.003,0.03,-0.05000000074505806,-0.02500000037252903,-0.02500000037252903,-0.02500000037252903,-0.05000000074505806,-0.0005000000237487257,0.05000000074505806,0.02500000037252903,0.02500000037252903,0.02500000037252903,0.05000000074505806,0.0005000000237487257,-0.005391782337245641,-0.5610532376260764,0.07342875688206658,0.14,0.0,0.26,0.0675886794924736,0.0010368786752223969,0.2721370458602905,0.0,0.0
0.0,68.0,0.0,0.0,0.025,0.0,0.0,0.0,0.015339807607233524,-1.293145775794983,1.5709999799728394,-1.3537670373916626,-0.0715857669711113,0.0,0.015339807607233524,-1.293145775794983,1.571,-1.3537670373916626,-0.0715857669711113,0.003,0.0,0.0,0.0,0.0,0.0,0.0,-3.1,3.1,-1.571,1.571,-1.571,1.571,-1.745,1.745,-2.617,2.617,0.003,0.03,-0.05000000074505806,-0.02500000037252903,-0.02500000037252903,-0.02500000037252903,-0.05000000074505806,-0.0005000000237487257,0.05000000074505806,0.02500000037252903,0.02500000037252903,0.02500000037252903,0.05000000074505806,0.0005000000237487257,-0.005391782337245641,-0.5664450199633221,0.07342875688206658,0.14,0.0,0.26,0.0675886794924736,0.0010368786752223969,0.2721370458602905,0.0,0.0
0.0,69.0,0.0,0.0,0.025,0.0,0.0,0.0,0.015339807607233524,-1.293145775794983,1.5709999799728394,-1.3537670373916626,-0.0715857669711113,0.0,0.015339807607233524,-1.293145775794983,1.571,-1.3537670373916626,-0.0715857669711113,0.003,0.0,0.0,0.0,0.0,0.0,0.0,-3.1,3.1,-1.571,1.571,-1.571,1.571,-1.745,1.745,-2.617,2.617,0.003,0.03,-0.05000000074505806,-0.02500000037252903,-0.02500000037252903,-0.02500000037252903,-0.05000000074505806,-0.0005000000237487257,0.05000000074505806,0.02500000037252903,0.02500000037252903,0.02500000037252903,0.05000000074505806,0.0005000000237487257,-0.005391782337245641,-0.5718368023005678,0.07342875688206658,0.14,0.0,0.26,0.0675886794924736,0.0010368786752223969,0.2721370458602905,0.0,0.0
0.0,70.0,0.0,0.0,0.025,0.0,0.0,0.0,0.015339807607233524,-1.293145775794983,1.5709999799728394,-1.3537670373916626,-0.0715857669711113,0.0,0.015339807607233524,-1.293145775794983,1.571,-1.3537670373916626,-0.0715857669711113,0.003,0.0,0.0,0.0,0.0,0.0,0.0,-3.1,3.1,-1.571,1.571,-1.571,1.571,-1.745,1.745,-2.617,2.617,0.003,0.03,-0.05000000074505806,-0.02500000037252903,-0.02500000037252903,-0.02500000037252903,-0.05000000074505806,-0.0005000000237487257,0.05000000074505806,0.02500000037252903,0.02500000037252903,0.02500000037252903,0.05000000074505806,0.0005000000237487257,-0.005391782337245641,-0.5772285846378135,0.07342875688206658,0.14,0.0,0.26,0.0675886794924736,0.0010368786752223969,0.2721370458602905,0.0,0.0
0.0,71.0,0.0,0.0,0.025,0.0,0.0,0.0,0.015339807607233524,-1.293145775794983,1.5709999799728394,-1.3537670373916626,-0.0715857669711113,0.0,0.015339807607233524,-1.293145775794983,1.571,-1.3537670373916626,-0.0715857669711113,0.003,0.0,0.0,0.0,0.0,0.0,0.0,-3.1,3.1,-1.571,1.571,-1.571,1.571,-1.745,1.745,-2.617,2.617,0.003,0.03,-0.05000000074505806,-0.02500000037252903,-0.02500000037252903,-0.02500000037252903,-0.05000000074505806,-0.0005000000237487257,0.05000000074505806,0.02500000037252903,0.02500000037252903,0.02500000037252903,0.05000000074505806,0.0005000000237487257,-0.005391782337245641,-0.5826203669750591,0.07342875688206658,0.14,0.0,0.26,0.0675886794924736,0.0010368786752223969,0.2721370458602905,0.0,0.0
0.0,72.0,0.0,0.0,0.025,0.0,0.0,0.0,0.015339807607233524,-1.293145775794983,1.5709999799728394,-1.3537670373916626,-0.0715857669711113,0.0,0.015339807607233524,-1.293145775794983,1.571,-1.3537670373916626,-0.0715857669711113,0.003,0.0,0.0,0.0,0.0,0.0,0.0,-3.1,3.1,-1.571,1.571,-1.571,1.571,-1.745,1.745,-2.617,2.617,0.003,0.03,-0.05000000074505806,-0.02500000037252903,-0.02500000037252903,-0.02500000037252903,-0.05000000074505806,-0.0005000000237487257,0.05000000074505806,0.02500000037252903,0.02500000037252903,0.02500000037252903,0.05000000074505806,0.0005000000237487257,-0.005391782337245641,-0.5880121493123048,0.07342875688206658,0.14,0.0,0.26,0.0675886794924736,0.0010368786752223969,0.2721370458602905,0.0,0.0
0.0,73.0,0.0,0.0,0.025,0.0,0.0,0.0,0.015339807607233524,-1.293145775794983,1.5709999799728394,-1.3537670373916626,-0.0715857669711113,0.0,0.015339807607233524,-1.293145775794983,1.571,-1.3537670373916626,-0.0715857669711113,0.003,0.0,0.0,0.0,0.0,0.0,0.0,-3.1,3.1,-1.571,1.571,-1.571,1.571,-1.745,1.745,-2.617,2.617,0.003,0.03,-0.05000000074505806,-0.02500000037252903,-0.02500000037252903,-0.02500000037252903,-0.05000000074505806,-0.0005000000237487257,0.05000000074505806,0.02500000037252903,0.02500000037252903,0.02500000037252903,0.05000000074505806,0.0005000000237487257,-0.005391782337245641,-0.5934039316495505,0.07342875688206658,0.14,0.0,0.26,0.0675886794924736,0.0010368786752223969,0.2721370458602905,0.0,0.0
0.0,74.0,0.0,0.0,0.025,0.0,0.0,0.0,0.015339807607233524,-1.293145775794983,1.5709999799728394,-1.3537670373916626,-0.0715857669711113,0.0,0.015339807607233524,-1.293145775794983,1.571,-1.3537670373916626,-0.0715857669711113,0.003,0.0,0.0,0.0,0.0,0.0,0.0,-3.1,3.1,-1.571,1.571,-1.571,1.571,-1.745,1.745,-2.617,2.617,0.003,0.03,-0.05000000074505806,-0.02500000037252903,-0.02500000037252903,-0.02500000037252903,-0.05000000074505806,-0.0005000000237487257,0.05000000074505806,0.02500000037252903,0.02500000037252903,0.02500000037252903,0.05000000074505806,0.0005000000237487257,-0.005391782337245641,-0.5987957139867962,0.07342875688206658,0.14,0.0,0.26,0.0675886794924736,0.0010368786752223969,0.2721370458602905,0.0,0.0
0.0,75.0,0.0,0.0,0.025,0.0,0.0,0.0,0.015339807607233524,-1.293145775794983,1.5709999799728394,-1.3537670373916626,-0.0715857669711113,0.0,0.015339807607233524,-1.293145775794983,1.571,-1.3537670373916626,-0.0715857669711113,0.003,0.0,0.0,0.0,0.0,0.0,0.0,-3.1,3.1,-1.571,1.571,-1.571,1.571,-1.745,1.745,-2.617,2.617,0.003,0.03,-0.05000000074505806,-0.02500000037252903,-0.02500000037252903,-0.02500000037252903,-0.05000000074505806,-0.0005000000237487257,0.05000000074505806,0.02500000037252903,0.02500000037252903,0.02500000037252903,0.05000000074505806,0.0005000000237487257,-0.005391782337245641,-0.6041874963240419,0.07342875688206658,0.14,0.0,0.26,0.0675886794924736,0.0010368786752223969,0.2721370458602905,0.0,0.0
0.0,76.0,0.0,0.0,0.025,0.0,0.0,0.0,0.015339807607233524,-1.293145775794983,1.5709999799728394,-1.3537670373916626,-0.0715857669711113,0.0,0.015339807607233524,-1.293145775794983,1.571,-1.3537670373916626,-0.0715857669711113,0.003,0.0,0.0,0.0,0.0,0.0,0.0,-3.1,3.1,-1.571,1.571,-1.571,1.571,-1.745,1.745,-2.617,2.617,0.003,0.03,-0.05000000074505806,-0.02500000037252903,-0.02500000037252903,-0.02500000037252903,-0.05000000074505806,-0.0005000000237487257,0.05000000074505806,0.02500000037252903,0.02500000037252903,0.02500000037252903,0.05000000074505806,0.0005000000237487257,-0.005391782337245641,-0.6095792786612876,0.07342875688206658,0.14,0.0,0.26,0.0675886794924736,0.0010368786752223969,0.2721370458602905,0.0,0.0
0.0,77.0,0.0,0.0,0.025,0.0,0.0,0.0,0.015339807607233524,-1.293145775794983,1.5709999799728394,-1.3537670373916626,-0.0715857669711113,0.0,0.015339807607233524,-1.293145775794983,1.571,-1.3537670373916626,-0.0715857669711113,0.003,0.0,0.0,0.0,0.0,0.0,0.0,-3.1,3.1,-1.571,1.571,-1.571,1.571,-1.745,1.745,-2.617,2.617,0.003,0.03,-0.05000000074505806,-0.02500000037252903,-0.02500000037252903,-0.02500000037252903,-0.05000000074505806,-0.0005000000237487257,0.05000000074505806,0.02500000037252903,0.02500000037252903,0.02500000037252903,0.05000000074505806,0.0005000000237487257,-0.005391782337245641,-0.6149710609985333,0.07342875688206658,0.14,0.0,0.26,0.0675886794924736,0.0010368786752223969,0.2721370458602905,0.0,0.0
0.0,78.0,0.0,0.0,0.025,0.0,0.0,0.0,0.015339807607233524,-1.293145775794983,1.5709999799728394,-1.3537670373916626,-0.0715857669711113,0.0,0.015339807607233524,-1.293145775794983,1.571,-1.3537670373916626,-0.0715857669711113,0.003,0.0,0.0,0.0,0.0,0.0,0.0,-3.1,3.1,-1.571,1.571,-1.571,1.571,-1.745,1.745,-2.617,2.617,0.003,0.03,-0.05000000074505806,-0.02500000037252903,-0.02500000037252903,-0.02500000037252903,-0.05000000074505806,-0.0005000000237487257,0.05000000074505806,0.02500000037252903,0.02500000037252903,0.02500000037252903,0.05000000074505806,0.0005000000237487257,-0.005391782337245641,-0.620362843335779,0.07342875688206658,0.14,0.0,0.26,0.0675886794924736,0.0010368786752223969,0.2721370458602905,0.0,0.0
0.0,79.0,0.0,0.0,0.025,0.0,0.0,0.0,0.015339807607233524,-1.293145775794983,1.5709999799728394,-1.3537670373916626,-0.0715857669711113,0.0,0.015339807607233524,-1.293145775794983,1.571,-1.3537670373916626,-0.0715857669711113,0.003,0.0,0.0,0.0,0.0,0.0,0.0,-3.1,3.1,-1.571,1.571,-1.571,1.571,-1.745,1.745,-2.617,2.617,0.003,0.03,-0.05000000074505806,-0.02500000037252903,-0.02500000037252903,-0.02500000037252903,-0.05000000074505806,-0.0005000000237487257,0.05000000074505806,0.02500000037252903,0.02500000037252903,0.02500000037252903,0.05000000074505806,0.0005000000237487257,-0.005391782337245641,-0.6257546256730246,0.07342875688206658,0.14,0.0,0.26,0.0675886794924736,0.0010368786752223969,0.2721370458602905,0.0,0.0
0.0,80.0,0.0,0.0,0.025,0.0,0.0,0.0,0.015339807607233524,-1.293145775794983,1.5709999799728394,-1.3537670373916626,-0.0715857669711113,0.0,0.015339807607233524,-1.293145775794983,1.571,-1.3537670373916626,-0.0715857669711113,0.003,0.0,0.0,0.0,0.0,0.0,0.0,-3.1,3.1,-1.571,1.571,-1.571,1.571,-1.745,1.745,-2.617,2.617,0.003,0.03,-0.05000000074505806,-0.02500000037252903,-0.02500000037252903,-0.02500000037252903,-0.05000000074505806,-0.0005000000237487257,0.05000000074505806,0.02500000037252903,0.02500000037252903,0.02500000037252903,0.05000000074505806,0.0005000000237487257,-0.005391782337245641,-0.6311464080102703,0.07342875688206658,0.14,0.0,0.26,0.0675886794924736,0.0010368786752223969,0.2721370458602905,0.0,0.0
0.0,81.0,0.0,0.0,0.025,0.0,0.0,0.0,0.015339807607233524,-1.293145775794983,1.5709999799728394,-1.3537670373916626,-0.0715857669711113,0.0,0.015339807607233524,-1.293145775794983,1.571,-1.3537670373916626,-0.0715857669711113,0.003,0.0,0.0,0.0,0.0,0.0,0.0,-3.1,3.1,-1.571,1.571,-1.571,1.571,-1.745,1.745,-2.617,2.617,0.003,0.03,-0.05000000074505806,-0.02500000037252903,-0.02500000037252903,-0.02500000037252903,-0.05000000074505806,-0.0005000000237487257,0.05000000074505806,0.02500000037252903,0.02500000037252903,0.02500000037252903,0.05000000074505806,0.0005000000237487257,-0.005391782337245641,-0.636538190347516,0.07342875688206658,0.14,0.0,0.26,0.0675886794924736,0.0010368786752223969,0.2721370458602905,0.0,0.0
0.0,82.0,0.0,0.0,0.025,0.0,0.0,0.0,0.015339807607233524,-1.293145775794983,1.5709999799728394,-1.3537670373916626,-0.0715857669711113,0.0,0.015339807607233524,-1.293145775794983,1.571,-1.3537670373916626,-0.0715857669711113,0.003,0.0,0.0,0.0,0.0,0.0,0.0,-3.1,3.1,-1.571,1.571,-1.571,1.571,-1.745,1.745,-2.617,2.617,0.003,0.03,-0.05000000074505806,-0.02500000037252903,-0.02500000037252903,-0.02500000037252903,-0.05000000074505806,-0.0005000000237487257,0.05000000074505806,0.02500000037252903,0.02500000037252903,0.02500000037252903,0.05000000074505806,0.0005000000237487257,-0.005391782337245641,-0.6419299726847617,0.07342875688206658,0.14,0.0,0.26,0.0675886794924736,0.0010368786752223969,0.2721370458602905,0.0,0.0
0.0,83.0,0.0,0.0,0.025,0.0,0.0,0.0,0.015339807607233524,-1.293145775794983,1.5709999799728394,-1.3537670373916626,-0.0715857669711113,0.0,0.015339807607233524,-1.293145775794983,1.571,-1.3537670373916626,-0.0715857669711113,0.003,0.0,0.0,0.0,0.0,0.0,0.0,-3.1,3.1,-1.571,1.571,-1.571,1.571,-1.745,1.745,-2.617,2.617,0.003,0.03,-0.05000000074505806,-0.02500000037252903,-0.02500000037252903,-0.02500000037252903,-0.05000000074505806,-0.0005000000237487257,0.05000000074505806,0.02500000037252903,0.02500000037252903,0.02500000037252903,0.05000000074505806,0.0005000000237487257,-0.005391782337245641,-0.6473217550220074,0.07342875688206658,0.14,0.0,0.26,0.0675886794924736,0.0010368786752223969,0.2721370458602905,0.0,0.0
0.0,84.0,0.0,0.0,0.025,0.0,0.0,0.0,0.015339807607233524,-1.293145775794983,1.5709999799728394,-1.3537670373916626,-0.0715857669711113,0.0,0.015339807607233524,-1.293145775794983,1.571,-1.3537670373916626,-0.0715857669711113,0.003,0.0,0.0,0.0,0.0,0.0,0.0,-3.1,3.1,-1.571,1.571,-1.571,1.571,-1.745,1.745,-2.617,2.617,0.003,0.03,-0.05000000074505806,-0.02500000037252903,-0.02500000037252903,-0.02500000037252903,-0.05000000074505806,-0.0005000000237487257,0.05000000074505806,0.02500000037252903,0.02500000037252903,0.02500000037252903,0.05000000074505806,0.0005000000237487257,-0.005391782337245641,-0.6527135373592531,0.07342875688206658,0.14,0.0,0.26,0.0675886794924736,0.0010368786752223969,0.2721370458602905,0.0,0.0
0.0,85.0,0.0,0.0,0.025,0.0,0.0,0.0,0.015339807607233524,-1.293145775794983,1.5709999799728394,-1.3537670373916626,-0.0715857669711113,0.0,0.015339807607233524,-1.293145775794983,1.571,-1.3537670373916626,-0.0715857669711113,0.003,0.0,0.0,0.0,0.0,0.0,0.0,-3.1,3.1,-1.571,1.571,-1.571,1.571,-1.745,1.745,-2.617,2.617,0.003,0.03,-0.05000000074505806,-0.02500000037252903,-0.02500000037252903,-0.02500000037252903,-0.05000000074505806,-0.0005000000237487257,0.05000000074505806,0.02500000037252903,0.02500000037252903,0.02500000037252903,0.05000000074505806,0.0005000000237487257,-0.005391782337245641,-0.6581053196964988,0.07342875688206658,0.14,0.0,0.26,0.0675886794924736,0.0010368786752223969,0.2721370458602905,0.0,0.0
0.0,86.0,0.0,0.0,0.025,0.0,0.0,0.0,0.015339807607233524,-1.293145775794983,1.5709999799728394,-1.3537670373916626,-0.0715857669711113,0.0,0.015339807607233524,-1.293145775794983,1.571,-1.3537670373916626,-0.0715857669711113,0.003,0.0,0.0,0.0,0.0,0.0,0.0,-3.1,3.1,-1.571,1.571,-1.571,1.571,-1.745,1.745,-2.617,2.617,0.003,0.03,-0.05000000074505806,-0.02500000037252903,-0.02500000037252903,-0.02500000037252903,-0.05000000074505806,-0.0005000000237487257,0.05000000074505806,0.02500000037252903,0.02500000037252903,0.02500000037252903,0.05000000074505806,0.0005000000237487257,-0.005391782337245641,-0.6634971020337445,0.07342875688206658,0.14,0.0,0.26,0.0675886794924736,0.0010368786752223969,0.2721370458602905,0.0,0.0
0.0,87.0,0.0,0.0,0.025,0.0,0.0,0.0,0.015339807607233524,-1.293145775794983,1.5709999799728394,-1.3537670373916626,-0.0715857669711113,0.0,0.015339807607233524,-1.293145775794983,1.571,-1.3537670373916626,-0.0715857669711113,0.003,0.0,0.0,0.0,0.0,0.0,0.0,-3.1,3.1,-1.571,1.571,-1.571,1.571,-1.745,1.745,-2.617,2.617,0.003,0.03,-0.05000000074505806,-0.02500000037252903,-0.02500000037252903,-0.02500000037252903,-0.05000000074505806,-0.0005000000237487257,0.05000000074505806,0.02500000037252903,0.02500000037252903,0.02500000037252903,0.05000000074505806,0.0005000000237487257,-0.005391782337245641,-0.6688888843709901,0.07342875688206658,0.14,0.0,0.26,0.0675886794924736,0.0010368786752223969,0.2721370458602905,0.0,0.0
0.0,88.0,0.0,0.0,0.025,0.0,0.0,0.0,0.015339807607233524,-1.293145775794983,1.5709999799728394,-1.3537670373916626,-0.0715857669711113,0.0,0.015339807607233524,-1.293145775794983,1.571,-1.3537670373916626,-0.0715857669711113,0.003,0.0,0.0,0.0,0.0,0.0,0.0,-3.1,3.1,-1.571,1.571,-1.571,1.571,-1.745,1.745,-2.617,2.617,0.003,0.03,-0.05000000074505806,-0.02500000037252903,-0.02500000037252903,-0.02500000037252903,-0.05000000074505806,-0.0005000000237487257,0.05000000074505806,0.02500000037252903,0.02500000037252903,0.02500000037252903,0.05000000074505806,0.0005000000237487257,-0.005391782337245641,-0.6742806667082358,0.07342875688206658,0.14,0.0,0.26,0.0675886794924736,0.0010368786752223969,0.2721370458602905,0.0,0.0
0.0,89.0,0.0,0.0,0.025,0.0,0.0,0.0,0.015339807607233524,-1.293145775794983,1.5709999799728394,-1.3537670373916626,-0.0715857669711113,0.0,0.015339807607233524,-1.293145775794983,1.571,-1.3537670373916626,-0.0715857669711113,0.003,0.0,0.0,0.0,0.0,0.0,0.0,-3.1,3.1,-1.571,1.571,-1.571,1.571,-1.745,1.745,-2.617,2.617,0.003,0.03,-0.05000000074505806,-0.02500000037252903,-0.02500000037252903,-0.02500000037252903,-0.05000000074505806,-0.0005000000237487257,0.05000000074505806,0.02500000037252903,0.02500000037252903,0.02500000037252903,0.05000000074505806,0.0005000000237487257,-0.005391782337245641,-0.6796724490454815,0.07342875688206658,0.14,0.0,0.26,0.0675886794924736,0.0010368786752223969,0.2721370458602905,0.0,0.0
0.0,90.0,0.0,0.0,0.025,0.0,0.0,0.0,0.015339807607233524,-1.293145775794983,1.5709999799728394,-1.3537670373916626,-0.0715857669711113,0.0,0.015339807607233524,-1.293145775794983,1.571,-1.3537670373916626,-0.0715857669711113,0.003,0.0,0.0,0.0,0.0,0.0,0.0,-3.1,3.1,-1.571,1.571,-1.571,1.571,-1.745,1.745,-2.617,2.617,0.003,0.03,-0.05000000074505806,-0.02500000037252903,-0.02500000037252903,-0.02500000037252903,-0.05000000074505806,-0.0005000000237487257,0.05000000074505806,0.02500000037252903,0.02500000037252903,0.02500000037252903,0.05000000074505806,0.0005000000237487257,-0.005391782337245641,-0.6850642313827272,0.07342875688206658,0.14,0.0,0.26,0.0675886794924736,0.0010368786752223969,0.2721370458602905,0.0,0.0
0.0,91.0,0.0,0.0,0.025,0.0,0.0,0.0,0.015339807607233524,-1.293145775794983,1.5709999799728394,-1.3537670373916626,-0.0715857669711113,0.0,0.015339807607233524,-1.293145775794983,1.571,-1.3537670373916626,-0.0715857669711113,0.003,0.0,0.0,0.0,0.0,0.0,0.0,-3.1,3.1,-1.571,1.571,-1.571,1.571,-1.745,1.745,-2.617,2.617,0.003,0.03,-0.05000000074505806,-0.02500000037252903,-0.02500000037252903,-0.02500000037252903,-0.05000000074505806,-0.0005000000237487257,0.05000000074505806,0.02500000037252903,0.02500000037252903,0.02500000037252903,0.05000000074505806,0.0005000000237487257,-0.005391782337245641,-0.6904560137199729,0.07342875688206658,0.14,0.0,0.26,0.0675886794924736,0.0010368786752223969,0.2721370458602905,0.0,0.0
0.0,92.0,0.0,0.0,0.025,0.0,0.0,0.0,0.015339807607233524,-1.293145775794983,1.5709999799728394,-1.3537670373916626,-0.0715857669711113,0.0,0.015339807607233524,-1.293145775794983,1.571,-1.3537670373916626,-0.0715857669711113,0.003,0.0,0.0,0.0,0.0,0.0,0.0,-3.1,3.1,-1.571,1.571,-1.571,1.571,-1.745,1.745,-2.617,2.617,0.003,0.03,-0.05000000074505806,-0.02500000037252903,-0.02500000037252903,-0.02500000037252903,-0.05000000074505806,-0.0005000000237487257,0.05000000074505806,0.02500000037252903,0.02500000037252903,0.02500000037252903,0.05000000074505806,0.0005000000237487257,-0.005391782337245641,-0.6958477960572186,0.07342875688206658,0.14,0.0,0.26,0.0675886794924736,0.0010368786752223969,0.2721370458602905,0.0,0.0
0.0,93.0,0.0,0.0,0.025,0.0,0.0,0.0,0.015339807607233524,-1.293145775794983,1.5709999799728394,-1.3537670373916626,-0.0715857669711113,0.0,0.015339807607233524,-1.293145775794983,1.571,-1.3537670373916626,-0.0715857669711113,0.003,0.0,0.0,0.0,0.0,0.0,0.0,-3.1,3.1,-1.571,1.571,-1.571,1.571,-1.745,1.745,-2.617,2.617,0.003,0.03,-0.05000000074505806,-0.02500000037252903,-0.02500000037252903,-0.02500000037252903,-0.05000000074505806,-0.0005000000237487257,0.05000000074505806,0.02500000037252903,0.02500000037252903,0.02500000037252903,0.05000000074505806,0.0005000000237487257,-0.005391782337245641,-0.7012395783944643,0.07342875688206658,0.14,0.0,0.26,0.0675886794924736,0.0010368786752223969,0.2721370458602905,0.0,0.0
0.0,94.0,0.0,0.0,0.025,0.0,0.0,0.0,0.015339807607233524,-1.293145775794983,1.5709999799728394,-1.3537670373916626,-0.0715857669711113,0.0,0.015339807607233524,-1.293145775794983,1.571,-1.3537670373916626,-0.0715857669711113,0.003,0.0,0.0,0.0,0.0,0.0,0.0,-3.1,3.1,-1.571,1.571,-1.571,1.571,-1.745,1.745,-2.617,2.617,0.003,0.03,-0.05000000074505806,-0.02500000037252903,-0.02500000037252903,-0.02500000037252903,-0.05000000074505806,-0.0005000000237487257,0.05000000074505806,0.02500000037252903,0.02500000037252903,0.02500000037252903,0.05000000074505806,0.0005000000237487257,-0.005391782337245641,-0.70663136073171,0.07342875688206658,0.14,0.0,0.26,0.0675886794924736,0.0010368786752223969,0.2721370458602905,0.0,0.0
0.0,95.0,0.0,0.0,0.025,0.0,0.0,0.0,0.015339807607233524,-1.293145775794983,1.5709999799728394,-1.3537670373916626,-0.0715857669711113,0.0,0.015339807607233524,-1.293145775794983,1.571,-1.3537670373916626,-0.0715857669711113,0.003,0.0,0.0,0.0,0.0,0.0,0.0,-3.1,3.1,-1.571,1.571,-1.571,1.571,-1.745,1.745,-2.617,2.617,0.003,0.03,-0.05000000074505806,-0.02500000037252903,-0.02500000037252903,-0.02500000037252903,-0.05000000074505806,-0.0005000000237487257,0.05000000074505806,0.02500000037252903,0.02500000037252903,0.02500000037252903,0.05000000074505806,0.0005000000237487257,-0.005391782337245641,-0.7120231430689556,0.07342875688206658,0.14,0.0,0.26,0.0675886794924736,0.0010368786752223969,0.2721370458602905,0.0,0.0
0.0,96.0,0.0,0.0,0.025,0.0,0.0,0.0,0.015339807607233524,-1.293145775794983,1.5709999799728394,-1.3537670373916626,-0.0715857669711113,0.0,0.015339807607233524,-1.293145775794983,1.571,-1.3537670373916626,-0.0715857669711113,0.003,0.0,0.0,0.0,0.0,0.0,0.0,-3.1,3.1,-1.571,1.571,-1.571,1.571,-1.745,1.745,-2.617,2.617,0.003,0.03,-0.05000000074505806,-0.02500000037252903,-0.02500000037252903,-0.02500000037252903,-0.05000000074505806,-0.0005000000237487257,0.05000000074505806,0.02500000037252903,0.02500000037252903,0.02500000037252903,0.05000000074505806,0.0005000000237487257,-0.005391782337245641,-0.7174149254062013,0.07342875688206658,0.14,0.0,0.26,0.0675886794924736,0.0010368786752223969,0.2721370458602905,0.0,0.0
0.0,97.0,0.0,0.0,0.025,0.0,0.0,0.0,0.015339807607233524,-1.293145775794983,1.5709999799728394,-1.3537670373916626,-0.0715857669711113,0.0,0.015339807607233524,-1.293145775794983,1.571,-1.3537670373916626,-0.0715857669711113,0.003,0.0,0.0,0.0,0.0,0.0,0.0,-3.1,3.1,-1.571,1.571,-1.571,1.571,-1.745,1.745,-2.617,2.617,0.003,0.03,-0.05000000074505806,-0.02500000037252903,-0.02500000037252903,-0.02500000037252903,-0.05000000074505806,-0.0005000000237487257,0.05000000074505806,0.02500000037252903,0.02500000037252903,0.02500000037252903,0.05000000074505806,0.0005000000237487257,-0.005391782337245641,-0.722806707743447,0.07342875688206658,0.14,0.0,0.26,0.0675886794924736,0.0010368786752223969,0.2721370458602905,0.0,0.0
0.0,98.0,0.0,0.0,0.025,0.0,0.0,0.0,0.015339807607233524,-1.293145775794983,1.5709999799728394,-1.3537670373916626,-0.0715857669711113,0.0,0.015339807607233524,-1.293145775794983,1.571,-1.3537670373916626,-0.0715857669711113,0.003,0.0,0.0,0.0,0.0,0.0,0.0,-3.1,3.1,-1.571,1.571,-1.571,1.571,-1.745,1.745,-2.617,2.617,0.003,0.03,-0.05000000074505806,-0.02500000037252903,-0.02500000037252903,-0.02500000037252903,-0.05000000074505806,-0.0005000000237487257,0.05000000074505806,0.02500000037252903,0.02500000037252903,0.02500000037252903,0.05000000074505806,0.0005000000237487257,-0.005391782337245641,-0.7281984900806927,0.07342875688206658,0.14,0.0,0.26,0.0675886794924736,0.0010368786752223969,0.2721370458602905,0.0,0.0
0.0,99.0,0.0,0.0,0.025,0.0,0.0,0.0,0.015339807607233524,-1.293145775794983,1.5709999799728394,-1.3537670373916626,-0.0715857669711113,0.0,0.015339807607233524,-1.293145775794983,1.571,-1.3537670373916626,-0.0715857669711113,0.003,0.0,0.0,0.0,0.0,0.0,0.0,-3.1,3.1,-1.571,1.571,-1.571,1.571,-1.745,1.745,-2.617,2.617,0.003,0.03,-0.05000000074505806,-0.02500000037252903,-0.02500000037252903,-0.02500000037252903,-0.05000000074505806,-0.0005000000237487257,0.05000000074505806,0.02500000037252903,0.02500000037252903,0.02500000037252903,0.05000000074505806,0.0005000000237487257,-0.005391782337245641,-0.7335902724179384,0.07342875688206658,0.14,0.0,0.26,0.0675886794924736,0.0010368786752223969,0.2721370458602905,1.0,0.0
